LSX-UniWue/explainable-ERP-fraud-detection/outputs/summary/ex2/Autoencoder_zscore.csv
cpus,n_layers,n_bottleneck,epochs,batch_size,verbose,learning_rate,shuffle,n_inputs,seed,fraud_ranks_eval,rank_mean_eval,rank_std_eval,max_fraud_eval,min_detect_eval,auc_pr_eval,auc_roc_eval,fraud_ranks_test,rank_mean_test,rank_std_test,max_fraud_test,min_detect_test,auc_pr_test,auc_roc_test,max_fraud_joint,min_detect_joint,fraud_ranks_joint,rank_mean_joint,rank_std_joint,auc_pr_joint,auc_roc_joint
8.0,4.0,16.0,100.0,32.0,2.0,1e-05,1.0,190.0,0.0,"[2, 4, 9, 10, 11, 13, 27, 28, 30, 32, 36, 38, 42, 44, 65, 68, 84, 95]",35.44444444444444,26.54602339380969,-0.06642215,95.0,0.3285477464635531,0.9986827556638684,"[1, 2, 3, 4, 51, 53]",19.0,23.35950912726264,-0.05070589,53.0,0.7018744604760142,0.9992135971588026,-0.05070589,154.0,"[1, 2, 3, 4, 6, 8, 13, 14, 15, 17, 31, 32, 34, 36, 40, 42, 46, 48, 72, 75, 114, 136, 152, 154]",45.625,46.72241833424293,0.502781150354129,0.999159391970766
8.0,3.0,32.0,100.0,32.0,2.0,0.0001,1.0,190.0,0.0,"[2, 3, 6, 7, 9, 10, 27, 28, 30, 32, 36, 38, 42, 44, 71, 73, 90, 115]",36.833333333333336,31.11850110643363,-0.026511569,115.0,0.3653350728563688,0.9986122393717844,"[1, 2, 3, 4, 60, 61]",21.83333333333333,27.358220377470136,-0.0181201,61.0,0.6969489981785063,0.9990698461018096,-0.0181201,186.0,"[1, 2, 3, 4, 6, 7, 10, 11, 13, 14, 31, 32, 34, 36, 40, 42, 46, 48, 89, 91, 129, 171, 182, 186]",51.16666666666666,57.69652406245015,0.5210856408812176,0.9990187619482652
8.0,2.0,32.0,100.0,32.0,2.0,0.0001,1.0,190.0,0.0,"[1, 3, 5, 7, 11, 12, 27, 29, 33, 34, 36, 38, 42, 44, 69, 71, 84, 89]",35.27777777777778,26.85517859341008,-0.036546968,89.0,0.3883905087785017,0.9986912176189188,"[1, 2, 3, 4, 69, 70]",24.83333333333333,31.598611080587425,-0.006820828,70.0,0.6930296756383713,0.9989176391002874,-0.006820828,278.0,"[1, 2, 3, 4, 5, 7, 9, 11, 15, 16, 31, 33, 37, 38, 40, 42, 47, 49, 85, 87, 135, 140, 276, 278]",57.958333333333336,76.12570698449301,0.5185924765582107,0.9988464108680574
8.0,4.0,16.0,100.0,32.0,2.0,0.001,1.0,190.0,0.0,"[2, 3, 5, 7, 10, 11, 16, 17, 18, 20, 37, 39, 44, 45, 70, 75, 161, 168]",41.55555555555556,48.31289478461351,-0.06478017,168.0,0.3968636248484927,0.9983724839786984,"[1, 2, 3, 4, 41, 60]",18.5,23.30057223903882,-0.08564076,60.0,0.7036585365853658,0.9992389649923896,-0.06478017,234.0,"[2, 3, 4, 5, 6, 7, 9, 11, 14, 15, 20, 21, 22, 24, 41, 43, 48, 49, 96, 115, 120, 144, 226, 234]",53.29166666666666,66.50405950433068,0.4950329148589156,0.9989648361501632
8.0,3.0,16.0,100.0,32.0,2.0,0.001,1.0,190.0,0.0,"[1, 3, 16, 17, 23, 24, 27, 30, 31, 33, 39, 40, 43, 44, 68, 74, 120, 126]",42.16666666666666,33.843184116024176,-0.040605765,126.0,0.3111121022736408,0.9983414568101816,"[1, 2, 3, 4, 20, 23]",8.833333333333334,9.044642367476756,-0.07771593,23.0,0.7518115942028986,0.999729409775072,-0.040605765,187.0,"[1, 3, 4, 5, 6, 7, 20, 21, 27, 28, 31, 34, 35, 37, 43, 44, 47, 48, 85, 92, 96, 107, 180, 187]",49.5,50.17303392593808,0.4315305075683241,0.9990610566918744
8.0,2.0,16.0,100.0,32.0,2.0,0.001,1.0,190.0,0.0,"[1, 3, 5, 7, 8, 9, 12, 14, 18, 20, 36, 37, 42, 43, 93, 94, 110, 114]",37.0,37.64601203610048,-0.05177897,114.0,0.455191787455666,0.9986037774167345,"[1, 2, 3, 4, 57, 60]",21.166666666666668,26.428625053570645,-0.033122197,60.0,0.6979532163742689,0.9991036698799256,-0.033122197,270.0,"[1, 3, 5, 6, 7, 8, 9, 11, 12, 13, 16, 18, 22, 24, 40, 41, 46, 47, 117, 118, 156, 162, 265, 270]",59.04166666666666,78.42219029430099,0.5102533808054648,0.9988189192847112
8.0,4.0,32.0,100.0,32.0,2.0,0.001,1.0,190.0,0.0,"[2, 3, 6, 7, 9, 10, 13, 14, 16, 17, 39, 40, 46, 48, 51, 53, 56, 61]",27.27777777777778,20.552927759960937,-1.9246156,61.0,0.4447367042958261,0.9990973914613231,"[1, 2, 3, 4, 42, 46]",16.333333333333332,19.61858529274955,-0.119656235,46.0,0.708247066942719,0.9993488922712668,-0.119656235,135.0,"[2, 3, 6, 7, 8, 9, 10, 11, 13, 14, 17, 18, 20, 21, 43, 44, 52, 54, 66, 69, 73, 78, 131, 135]",37.66666666666666,37.390581107486895,0.4944815354507575,0.9993613493715
8.0,3.0,32.0,100.0,32.0,2.0,0.001,1.0,190.0,0.0,"[2, 3, 5, 6, 8, 10, 13, 14, 16, 17, 34, 35, 43, 44, 62, 69, 89, 107]",32.05555555555556,30.544088757477954,-0.08330008,107.0,0.4466059871334758,0.998854815416554,"[1, 2, 3, 4, 69, 71]",25.0,31.83813227352802,-0.08274849,71.0,0.6928284683949104,0.9989091831557584,-0.08274849,179.0,"[2, 3, 5, 6, 8, 10, 11, 12, 13, 14, 17, 18, 20, 21, 38, 39, 49, 50, 79, 102, 143, 173, 177, 179]",49.54166666666666,58.336651691330005,0.4785378533418521,0.9990599993232842
8.0,2.0,32.0,100.0,32.0,2.0,0.001,1.0,190.0,0.0,"[3, 4, 6, 7, 9, 10, 16, 17, 19, 20, 34, 36, 41, 42, 69, 78, 80, 100]",32.833333333333336,29.187611527267293,-0.0391164,100.0,0.3924654813765003,0.9988153262929867,"[1, 2, 3, 4, 19, 20]",8.166666666666666,8.070866675202168,-0.09941815,20.0,0.7605263157894736,0.999763233553188,-0.0391164,138.0,"[2, 3, 4, 5, 7, 8, 10, 11, 13, 14, 20, 21, 23, 24, 38, 40, 46, 47, 87, 89, 90, 102, 109, 138]",39.625,39.42483618651234,0.5045470968808421,0.9993116530477592
8.0,3.0,16.0,100.0,32.0,2.0,1e-05,1.0,190.0,0.0,"[2, 4, 9, 10, 11, 12, 31, 32, 33, 35, 40, 41, 42, 43, 69, 70, 77, 91]",36.22222222222222,25.72624158661423,-0.094568536,91.0,0.3216366156186576,0.9986432665403014,"[1, 2, 3, 4, 75, 96]",30.166666666666668,39.603942003571085,-0.024927204,96.0,0.6881944444444443,0.9986470488753594,-0.024927204,371.0,"[1, 2, 3, 4, 6, 8, 13, 14, 15, 16, 35, 36, 37, 39, 44, 45, 46, 47, 77, 78, 94, 117, 282, 371]",59.583333333333336,86.88398234938872,0.4910845435661404,0.9988051734930382
8.0,2.0,16.0,100.0,32.0,2.0,1e-05,1.0,190.0,0.0,"[2, 3, 5, 6, 8, 9, 28, 29, 31, 32, 37, 38, 42, 43, 94, 102, 139, 148]",44.22222222222222,44.42166082686783,-0.06074359,148.0,0.3701243121412768,0.998237092697897,"[1, 2, 3, 4, 18, 20]",8.0,7.852812659593164,-0.1581697,20.0,0.762962962962963,0.9997716894977168,-0.06074359,245.0,"[1, 2, 3, 4, 6, 7, 9, 10, 12, 13, 32, 33, 35, 36, 41, 42, 46, 47, 101, 103, 128, 143, 224, 245]",55.125,67.05924774655121,0.5273074383264177,0.998918311932193
8.0,4.0,32.0,100.0,32.0,2.0,1e-05,1.0,190.0,0.0,"[2, 3, 8, 9, 11, 12, 27, 28, 30, 32, 36, 37, 42, 43, 66, 69, 83, 94]",35.111111111111114,26.65601639173684,-0.048715577,94.0,0.34547670107983,0.9986996795739688,"[1, 2, 3, 4, 57, 58]",20.83333333333333,25.944920290663624,-0.01928443,58.0,0.6985279290179471,0.9991205817689836,-0.01928443,252.0,"[1, 2, 3, 4, 6, 7, 12, 13, 15, 16, 31, 32, 34, 36, 40, 41, 47, 48, 77, 84, 128, 139, 251, 252]",54.958333333333336,69.47570268726246,0.5046365265230217,0.998922541406554
8.0,3.0,32.0,100.0,32.0,2.0,1e-05,1.0,190.0,0.0,"[3, 4, 21, 22, 24, 25, 31, 32, 34, 35, 36, 37, 43, 44, 68, 70, 76, 81]",38.11111111111112,21.96433697532052,-0.06497754,81.0,0.2654456659496251,0.998547364383067,"[1, 2, 3, 4, 81, 101]",32.0,42.12679274127888,-0.01262827,101.0,0.6868557226092978,0.9985540334855404,-0.01262827,398.0,"[1, 2, 3, 4, 7, 8, 25, 26, 28, 29, 35, 36, 38, 39, 40, 41, 48, 49, 76, 78, 84, 89, 359, 398]",64.29166666666667,98.204921451128,0.4450691660332325,0.9986856908423422
8.0,2.0,32.0,100.0,32.0,2.0,1e-05,1.0,190.0,0.0,"[2, 4, 5, 7, 8, 10, 27, 29, 30, 32, 36, 37, 42, 43, 68, 75, 90, 93]",35.44444444444444,28.298453476043573,-0.05686907,93.0,0.3680774349454994,0.9986827556638684,"[1, 2, 3, 4, 324, 343]",112.83333333333331,156.13393467006318,-0.010788324,343.0,0.6721541350226157,0.9944529003889736,-0.010788324,1086.0,"[1, 2, 3, 4, 6, 8, 9, 11, 12, 14, 31, 33, 34, 36, 40, 41, 47, 48, 77, 97, 122, 128, 1063, 1086]",123.04166666666669,289.0787780701924,0.5160422404887302,0.9971948011301156
8.0,4.0,16.0,100.0,32.0,2.0,0.0001,1.0,190.0,0.0,"[2, 3, 8, 9, 11, 13, 26, 28, 30, 32, 36, 38, 42, 44, 88, 94, 104, 117]",40.27777777777778,35.08371821729586,-0.032942355,117.0,0.3320369857113978,0.9984373589674158,"[1, 2, 3, 4, 57, 68]",22.5,28.476598579652496,-0.0126657365,68.0,0.6959924320605434,0.9990360223236936,-0.0126657365,271.0,"[1, 2, 3, 4, 6, 7, 12, 13, 15, 17, 30, 32, 34, 36, 40, 42, 46, 48, 102, 112, 147, 168, 244, 271]",59.66666666666666,74.5590742670237,0.4963472571359665,0.9988030587558578
8.0,3.0,16.0,100.0,32.0,2.0,0.0001,1.0,190.0,0.0,"[2, 3, 6, 7, 9, 10, 28, 29, 31, 32, 36, 37, 42, 43, 62, 67, 74, 75]",32.94444444444444,23.64663993566345,-0.057648484,75.0,0.3743217617646638,0.99880968498962,"[1, 2, 3, 4, 68, 70]",24.666666666666668,31.36700318629257,-0.014898361,70.0,0.6932072829131652,0.9989260950448164,-0.014898361,275.0,"[1, 2, 3, 4, 6, 7, 10, 11, 13, 14, 32, 33, 35, 36, 40, 41, 46, 47, 72, 80, 88, 89, 273, 275]",52.41666666666666,71.9964794663986,0.5283780027839063,0.998987040890558
8.0,2.0,16.0,100.0,32.0,2.0,0.0001,1.0,190.0,0.0,"[2, 3, 8, 10, 25, 26, 31, 32, 34, 35, 40, 41, 43, 44, 83, 96, 104, 119]",43.11111111111112,33.778508764020174,-0.046863638,119.0,0.2916091358010341,0.9982935057315642,"[1, 2, 3, 4, 152, 198]",60.0,82.39943365501165,-0.010708484,198.0,0.6771996278575225,0.9971334348046678,-0.010708484,738.0,"[1, 2, 3, 4, 6, 7, 12, 14, 29, 30, 35, 36, 38, 39, 44, 45, 48, 49, 94, 108, 149, 168, 645, 738]",97.66666666666669,184.7308101596001,0.4576240516989652,0.9978387386015666
8.0,4.0,32.0,100.0,32.0,2.0,0.0001,1.0,190.0,0.0,"[2, 3, 4, 6, 8, 9, 26, 27, 29, 30, 37, 38, 42, 43, 71, 73, 75, 100]",34.611111111111114,28.101282866898305,-0.021797858,100.0,0.3983060864885006,0.998725065439119,"[1, 2, 3, 4, 20, 22]",8.666666666666666,8.787617550976046,-0.05150408,22.0,0.7537878787878788,0.9997378657196008,-0.021797858,160.0,"[1, 2, 3, 4, 6, 7, 8, 10, 12, 13, 30, 31, 33, 34, 41, 42, 47, 48, 87, 91, 93, 98, 100, 160]",41.708333333333336,41.13441297205487,0.5498395808102772,0.9992587846182476
8.0,4.0,16.0,100.0,32.0,2.0,1e-05,1.0,190.0,1.0,"[2, 3, 9, 10, 12, 13, 28, 29, 33, 35, 37, 38, 42, 44, 68, 81, 103, 108]",38.61111111111112,31.25369114003245,-0.07077204,108.0,0.3251741924526097,0.9985219785179168,"[1, 2, 3, 4, 68, 77]",25.83333333333333,33.1130219433718,-0.022289608,77.0,0.6919085816144639,0.9988669034331136,-0.022289608,283.0,"[1, 2, 3, 4, 6, 7, 13, 14, 16, 17, 32, 33, 37, 39, 41, 42, 47, 49, 77, 91, 113, 118, 272, 283]",56.54166666666666,74.25517892525896,0.4938686710030792,0.9988823614001252
8.0,3.0,32.0,100.0,32.0,2.0,0.0001,1.0,190.0,1.0,"[1, 2, 5, 6, 9, 10, 27, 29, 31, 32, 36, 38, 43, 44, 71, 82, 93, 122]",37.833333333333336,33.21687991234443,-0.01839561,122.0,0.4188191555163165,0.998561467641484,"[1, 2, 3, 4, 61, 63]",22.33333333333333,28.069358540744908,-0.014251631,63.0,0.6962008847254748,0.9990444782682226,-0.014251631,194.0,"[1, 2, 3, 4, 5, 6, 9, 10, 13, 14, 31, 33, 35, 36, 40, 42, 47, 48, 89, 108, 150, 182, 186, 194]",53.66666666666666,61.71282056608839,0.5359472055387827,0.9989553198328512
8.0,2.0,32.0,100.0,32.0,2.0,0.0001,1.0,190.0,1.0,"[1, 2, 5, 7, 8, 9, 27, 29, 30, 32, 37, 38, 42, 44, 72, 73, 84, 86]",34.77777777777778,27.310062361203784,-0.03905104,86.0,0.4272613143608118,0.998716603484069,"[1, 2, 3, 4, 66, 70]",24.33333333333333,30.912061651652348,-0.008945112,70.0,0.6935786435786435,0.9989430069338744,-0.008945112,275.0,"[1, 2, 3, 4, 5, 6, 9, 11, 12, 13, 31, 33, 34, 36, 41, 42, 47, 49, 89, 90, 125, 135, 267, 275]",56.66666666666666,74.40915415607292,0.5387473610086323,0.9988791892943544
8.0,4.0,16.0,100.0,32.0,2.0,0.001,1.0,190.0,1.0,"[3, 4, 6, 7, 9, 10, 15, 16, 31, 32, 37, 38, 43, 45, 62, 78, 125, 141]",39.0,39.08679799852858,-0.07653656,141.0,0.3648363019213618,0.9985022339561332,"[1, 2, 3, 4, 68, 70]",24.666666666666668,31.36700318629257,-0.08576359,70.0,0.6932072829131652,0.9989260950448166,-0.07653656,212.0,"[2, 3, 4, 5, 7, 8, 10, 11, 13, 14, 19, 20, 35, 36, 41, 42, 47, 49, 76, 122, 189, 193, 195, 212]",56.375,68.43903156581533,0.4708387453852469,0.9988865908744862
8.0,3.0,16.0,100.0,32.0,2.0,0.001,1.0,190.0,1.0,"[3, 4, 7, 8, 10, 11, 27, 30, 31, 32, 37, 38, 44, 45, 61, 68, 86, 102]",35.77777777777778,27.73997427611472,-0.059695244,102.0,0.3339500558504903,0.9986658317537684,"[1, 2, 3, 4, 47, 49]",17.666666666666668,21.47608489045949,-0.08595868,49.0,0.7048053263858735,0.9992812447150348,-0.059695244,159.0,"[3, 4, 5, 6, 7, 8, 11, 12, 14, 15, 31, 34, 35, 36, 42, 43, 49, 50, 79, 91, 127, 130, 140, 159]",47.125,47.06848954803344,0.4246338578566614,0.9991213267015177
8.0,2.0,16.0,100.0,32.0,2.0,0.001,1.0,190.0,1.0,"[2, 4, 10, 11, 13, 14, 15, 17, 31, 32, 37, 38, 43, 44, 66, 78, 116, 123]",38.55555555555556,34.936803616152126,-0.040751517,123.0,0.3319882749967385,0.9985247991696,"[1, 2, 3, 4, 57, 58]",20.83333333333333,25.944920290663624,-0.039365493,58.0,0.6985279290179471,0.9991205817689836,-0.039365493,182.0,"[1, 2, 3, 4, 6, 8, 14, 15, 17, 18, 19, 21, 35, 36, 41, 42, 47, 48, 77, 103, 165, 179, 180, 182]",52.625,60.31432423838746,0.5019411342970886,0.9989817540476068
8.0,4.0,32.0,100.0,32.0,2.0,0.001,1.0,190.0,1.0,"[3, 4, 5, 6, 9, 10, 13, 14, 18, 19, 34, 35, 39, 40, 59, 66, 71, 151]",33.111111111111114,35.56197858651363,-0.12941818,151.0,0.4220435995092179,0.99880122303457,"[1, 2, 3, 4, 45, 52]",17.833333333333332,21.79768081445568,-0.10145805,52.0,0.7044159544159543,0.9992727887705056,-0.10145805,210.0,"[3, 4, 5, 6, 7, 8, 9, 10, 13, 14, 17, 18, 22, 23, 38, 39, 43, 44, 76, 84, 89, 188, 202, 210]",48.833333333333336,62.21244962938599,0.4891932834122063,0.999077974589318
8.0,3.0,32.0,100.0,32.0,2.0,0.001,1.0,190.0,1.0,"[3, 5, 7, 8, 9, 11, 16, 17, 18, 20, 36, 38, 43, 44, 68, 75, 79, 83]",32.22222222222222,26.70113513100053,-0.1670394,83.0,0.3766019132750335,0.9988463534615036,"[1, 2, 3, 4, 62, 63]",22.5,28.30047113859885,-0.08261374,63.0,0.6959805427547362,0.9990360223236936,-0.08261374,158.0,"[2, 3, 4, 5, 7, 9, 11, 12, 13, 15, 20, 21, 22, 24, 40, 42, 47, 48, 86, 110, 118, 122, 156, 158]",45.625,49.27204455875562,0.4836802596018112,0.999159391970766
8.0,2.0,32.0,100.0,32.0,2.0,0.001,1.0,190.0,1.0,"[2, 4, 5, 7, 8, 10, 21, 25, 30, 31, 33, 35, 39, 40, 64, 67, 102, 171]",38.55555555555556,40.8876811415835,-0.027805049,171.0,0.3764987307865367,0.9985247991696,"[1, 2, 3, 4, 21, 23]",9.0,9.255628917943216,-0.09052313,23.0,0.7498274672187715,0.9997209538305428,-0.027805049,233.0,"[2, 4, 5, 7, 8, 9, 10, 11, 12, 14, 25, 29, 34, 35, 37, 39, 43, 44, 83, 87, 89, 95, 151, 233]",46.083333333333336,53.55987044627929,0.4496899242729463,0.9991477609162732
8.0,3.0,16.0,100.0,32.0,2.0,1e-05,1.0,190.0,1.0,"[2, 4, 8, 10, 11, 13, 27, 28, 33, 34, 36, 38, 43, 44, 81, 89, 101, 104]",39.22222222222222,32.11533997528899,-0.07005256,104.0,0.319506057250258,0.9984909513493998,"[1, 2, 3, 4, 57, 58]",20.83333333333333,25.944920290663624,-0.04451009,58.0,0.6985279290179471,0.9991205817689836,-0.04451009,193.0,"[1, 2, 3, 4, 6, 8, 12, 14, 15, 17, 31, 32, 37, 38, 40, 42, 47, 48, 100, 118, 137, 143, 190, 193]",53.25,58.48664377445503,0.4908593111863786,0.9989658935187536
8.0,2.0,16.0,100.0,32.0,2.0,1e-05,1.0,190.0,1.0,"[3, 4, 5, 7, 11, 13, 28, 29, 31, 32, 36, 37, 42, 43, 99, 106, 118, 151]",44.16666666666666,42.76973228814976,-0.06584373,151.0,0.3266803998652227,0.9982399133495804,"[1, 2, 3, 4, 13, 14]",6.166666666666667,5.273097339852125,-0.16198014,14.0,0.8021978021978021,0.999864704887536,-0.06584373,239.0,"[1, 2, 3, 4, 7, 8, 9, 11, 15, 17, 32, 33, 35, 36, 40, 41, 46, 47, 95, 97, 126, 153, 182, 239]",53.29166666666666,62.21701212065895,0.5036040958503301,0.9989648361501632
8.0,4.0,32.0,100.0,32.0,2.0,1e-05,1.0,190.0,1.0,"[2, 3, 9, 10, 18, 19, 28, 29, 31, 32, 36, 38, 42, 44, 64, 68, 80, 95]",36.0,25.545166970594565,-0.046943836,95.0,0.3190525199930914,0.998654549147035,"[1, 2, 3, 4, 52, 53]",19.166666666666668,23.58966346140237,-0.026094235,53.0,0.7015602322206095,0.9992051412142736,-0.026094235,180.0,"[1, 2, 3, 4, 6, 7, 13, 14, 22, 23, 32, 33, 35, 36, 40, 42, 47, 49, 71, 89, 124, 139, 176, 180]",49.5,52.57138004656146,0.4867047164975149,0.9990610566918744
8.0,3.0,32.0,100.0,32.0,2.0,1e-05,1.0,190.0,1.0,"[1, 2, 9, 10, 12, 13, 28, 29, 31, 32, 36, 38, 42, 44, 65, 71, 87, 94]",35.77777777777778,27.058692494393977,-0.050174195,94.0,0.3795714873384735,0.9986658317537684,"[1, 2, 3, 4, 74, 121]",34.166666666666664,46.8024809408884,-0.011860812,121.0,0.6861923907378452,0.9984441062066632,-0.011860812,399.0,"[1, 2, 3, 4, 5, 6, 13, 14, 16, 17, 32, 33, 35, 36, 40, 42, 47, 49, 72, 108, 129, 136, 284, 399]",63.458333333333336,93.27467464727796,0.5053373518505292,0.9987068382141469
8.0,2.0,32.0,100.0,32.0,2.0,1e-05,1.0,190.0,1.0,"[2, 4, 8, 10, 12, 13, 27, 29, 30, 32, 37, 38, 42, 44, 69, 73, 81, 85]",35.333333333333336,25.72072229848057,-0.064432785,85.0,0.3277683050416042,0.9986883969672352,"[1, 2, 3, 4, 90, 98]",33.0,43.20493798938573,-0.0147781335,98.0,0.6861300075585789,0.9985032978183664,-0.0147781335,435.0,"[1, 2, 3, 4, 6, 8, 12, 14, 16, 17, 31, 33, 34, 36, 41, 42, 47, 49, 77, 81, 90, 99, 363, 435]",64.20833333333333,105.27977772213534,0.4967565924753165,0.9986878055795224
8.0,4.0,16.0,100.0,32.0,2.0,0.0001,1.0,190.0,1.0,"[1, 3, 5, 6, 8, 9, 26, 28, 30, 31, 36, 37, 42, 43, 70, 76, 80, 101]",35.111111111111114,28.7728438498852,-0.035350997,101.0,0.4157244798175687,0.9986996795739688,"[1, 2, 3, 4, 60, 62]",22.0,27.598309126949545,-0.029072406,62.0,0.69668458781362,0.9990613901572806,-0.029072406,182.0,"[1, 2, 3, 4, 5, 7, 9, 10, 12, 13, 30, 32, 34, 35, 40, 41, 46, 47, 99, 120, 130, 156, 179, 182]",51.54166666666666,57.5014341608586,0.5382278570149563,0.999009245630953
8.0,3.0,16.0,100.0,32.0,2.0,0.0001,1.0,190.0,1.0,"[2, 3, 8, 9, 11, 13, 27, 29, 30, 31, 36, 37, 42, 43, 96, 97, 107, 117]",41.0,36.25680012846632,-0.042305253,117.0,0.3310447331922733,0.998400690495532,"[1, 2, 3, 4, 70, 75]",25.83333333333333,33.04248107445256,-0.011352009,75.0,0.6919047619047618,0.9988669034331136,-0.011352009,287.0,"[1, 2, 3, 4, 6, 7, 12, 13, 15, 17, 31, 33, 34, 35, 40, 41, 47, 48, 123, 126, 158, 169, 278, 287]",63.75,81.60180247192257,0.4926188164530683,0.9986994366340152
8.0,2.0,16.0,100.0,32.0,2.0,0.0001,1.0,190.0,1.0,"[3, 4, 8, 9, 11, 12, 30, 32, 36, 38, 39, 41, 43, 44, 71, 78, 79, 118]",38.66666666666666,30.243456592570013,-0.05059979,118.0,0.3101768958840116,0.9985191578662334,"[1, 2, 3, 4, 157, 204]",61.833333333333336,85.00473843001669,-0.010084175,204.0,0.6768764830773073,0.9970404194148486,-0.010084175,687.0,"[1, 2, 3, 4, 7, 8, 12, 13, 15, 16, 34, 36, 41, 43, 44, 46, 48, 49, 112, 122, 124, 166, 531, 687]",90.16666666666669,163.9163065578149,0.4713117082838425,0.9980290649478084
8.0,4.0,32.0,100.0,32.0,2.0,0.0001,1.0,190.0,1.0,"[2, 3, 9, 10, 12, 13, 27, 29, 30, 32, 36, 38, 42, 44, 68, 69, 84, 88]",35.333333333333336,25.98503843026256,-0.03848839,88.0,0.3352375451981576,0.9986883969672352,"[1, 2, 3, 4, 17, 22]",8.166666666666666,8.19383236885457,-0.05233016,22.0,0.7611408199643493,0.999763233553188,-0.03848839,129.0,"[1, 2, 3, 4, 6, 7, 13, 14, 16, 17, 31, 33, 34, 36, 41, 43, 47, 49, 84, 85, 88, 93, 125, 129]",41.708333333333336,38.11001527012143,0.508939202290722,0.9992587846182476
8.0,4.0,16.0,100.0,32.0,2.0,1e-05,1.0,190.0,2.0,"[2, 4, 9, 10, 12, 13, 27, 29, 33, 35, 36, 38, 42, 44, 71, 80, 92, 101]",37.66666666666666,29.25557876523533,-0.062671475,101.0,0.3182455578478791,0.998569929596534,"[1, 2, 3, 4, 72, 76]",26.33333333333333,33.73754914367999,-0.021808878,76.0,0.6913986354775827,0.9988415355995264,-0.021808878,464.0,"[1, 2, 3, 4, 6, 8, 13, 14, 16, 17, 31, 33, 37, 39, 40, 42, 47, 49, 84, 114, 141, 151, 400, 464]",73.16666666666667,116.1004115219044,0.4818019047263319,0.9984604713326228
8.0,3.0,32.0,100.0,32.0,2.0,0.0001,1.0,190.0,2.0,"[2, 4, 5, 7, 8, 9, 27, 29, 30, 32, 36, 37, 42, 43, 73, 81, 88, 93]",35.888888888888886,28.97295460883188,-0.0267927,93.0,0.3703023429224144,0.9986601904504016,"[1, 2, 3, 4, 75, 76]",26.83333333333333,34.4258462334463,-0.010864895,76.0,0.6909356725146198,0.9988161677659396,-0.010864895,277.0,"[1, 2, 3, 4, 6, 8, 9, 11, 12, 13, 31, 33, 34, 36, 40, 41, 46, 47, 94, 111, 144, 152, 268, 277]",59.29166666666666,76.90116989068213,0.519185869342581,0.99881257507317
8.0,2.0,32.0,100.0,32.0,2.0,0.0001,1.0,190.0,2.0,"[1, 3, 4, 6, 8, 10, 27, 29, 30, 32, 36, 37, 42, 43, 78, 80, 82, 91]",35.5,28.676839280351505,-0.034533083,91.0,0.4176870394217366,0.9986799350121852,"[1, 2, 3, 4, 70, 73]",25.5,32.55124165578532,-0.008919866,73.0,0.6922700587084148,0.9988838153221716,-0.008919866,277.0,"[1, 2, 3, 4, 5, 7, 8, 10, 12, 14, 31, 33, 34, 36, 40, 41, 47, 48, 131, 133, 135, 144, 271, 277]",61.125,78.3194912415379,0.5318063497506111,0.9987660508551998
8.0,4.0,16.0,100.0,32.0,2.0,0.001,1.0,190.0,2.0,"[4, 5, 7, 8, 12, 13, 28, 30, 31, 33, 42, 43, 45, 46, 53, 75, 130, 237]",46.77777777777778,54.80830792210202,-0.05373422,237.0,0.3002265639198253,0.998107342720462,"[1, 2, 3, 4, 56, 67]",22.166666666666668,28.008431270283992,-0.09896125,67.0,0.6964729921819474,0.9990529342127517,-0.05373422,330.0,"[2, 3, 4, 5, 8, 9, 11, 12, 16, 17, 32, 34, 35, 37, 47, 48, 53, 54, 65, 106, 183, 188, 199, 330]",62.41666666666666,80.44559065328289,0.4215097854707688,0.9987332724289024
8.0,3.0,16.0,100.0,32.0,2.0,0.001,1.0,190.0,2.0,"[3, 4, 6, 7, 9, 10, 12, 13, 15, 17, 34, 35, 41, 42, 62, 70, 74, 84]",29.88888888888889,25.969830549417,-0.07990698,84.0,0.4265881176832103,0.9989648208322052,"[1, 2, 3, 4, 48, 49]",17.833333333333332,21.70573400944757,-0.095887154,49.0,0.7044359410430838,0.9992727887705056,-0.07990698,137.0,"[2, 3, 4, 5, 7, 8, 10, 11, 13, 14, 16, 17, 19, 21, 38, 39, 45, 46, 78, 97, 115, 126, 127, 137]",41.583333333333336,44.34609778648949,0.5206843943133181,0.9992619567240184
8.0,2.0,16.0,100.0,32.0,2.0,0.001,1.0,190.0,2.0,"[2, 3, 9, 10, 11, 12, 18, 21, 30, 31, 37, 38, 43, 44, 94, 95, 115, 122]",40.833333333333336,37.74218094151717,-0.049887776,122.0,0.3391068961881363,0.9984091524505824,"[1, 2, 3, 4, 56, 58]",20.666666666666668,25.714241622537152,-0.031281054,58.0,0.6987889983579638,0.9991290377135128,-0.031281054,189.0,"[1, 2, 3, 4, 6, 7, 13, 14, 15, 16, 22, 25, 34, 35, 41, 42, 47, 48, 129, 130, 168, 175, 187, 189]",56.375,64.29542006758076,0.5030438937228218,0.998886590874486
8.0,4.0,32.0,100.0,32.0,2.0,0.001,1.0,190.0,2.0,"[3, 4, 6, 7, 8, 10, 12, 14, 15, 17, 34, 35, 41, 42, 53, 59, 71, 76]",28.166666666666668,23.310107488193,-0.16786467,76.0,0.4344464553284616,0.999053671360231,"[1, 2, 3, 4, 59, 63]",22.0,27.616420236277303,-0.07994861,63.0,0.6966639763249932,0.9990613901572803,-0.07994861,215.0,"[3, 4, 6, 7, 8, 9, 10, 11, 12, 14, 16, 18, 19, 21, 38, 39, 46, 47, 68, 79, 106, 115, 142, 215]",43.875,52.04270081705343,0.4810900700332164,0.9992043301358507
8.0,3.0,32.0,100.0,32.0,2.0,0.001,1.0,190.0,2.0,"[1, 3, 4, 5, 9, 10, 11, 12, 15, 16, 34, 35, 40, 41, 63, 67, 76, 94]",29.77777777777778,27.63764653824272,-0.10471025,94.0,0.5069542930545253,0.9989704621355716,"[1, 2, 3, 4, 64, 65]",23.166666666666668,29.242757887875225,-0.115924865,65.0,0.6950721153846153,0.9990021985455776,-0.10471025,164.0,"[1, 3, 4, 5, 8, 9, 10, 11, 13, 14, 15, 16, 19, 20, 38, 39, 44, 45, 83, 103, 114, 156, 157, 164]",45.458333333333336,52.3330513527435,0.5350943783978643,0.9991636214451268
8.0,2.0,32.0,100.0,32.0,2.0,0.001,1.0,190.0,2.0,"[2, 4, 6, 7, 9, 11, 15, 17, 18, 20, 22, 23, 40, 41, 80, 81, 88, 115]",33.27777777777778,33.196059932795166,-0.051268954,115.0,0.4184794744987872,0.99879276107952,"[1, 2, 3, 4, 34, 35]",13.166666666666666,15.11529762268088,-0.111880496,35.0,0.7197478991596638,0.999509555217318,-0.051268954,169.0,"[2, 3, 4, 5, 6, 8, 10, 11, 13, 15, 19, 21, 22, 24, 26, 27, 44, 45, 112, 113, 119, 120, 134, 169]",44.66666666666666,50.21011407630495,0.5161181796140294,0.9991837114483412
8.0,3.0,16.0,100.0,32.0,2.0,1e-05,1.0,190.0,2.0,"[3, 4, 8, 10, 11, 13, 28, 29, 31, 32, 36, 38, 42, 43, 82, 88, 101, 104]",39.05555555555556,32.03378810329671,-0.064490914,104.0,0.3119828277214947,0.9984994133044498,"[1, 2, 3, 4, 58, 64]",22.0,27.64657905299196,-0.03835734,64.0,0.6966594827586207,0.9990613901572808,-0.03835734,307.0,"[1, 2, 3, 4, 7, 8, 12, 14, 15, 17, 32, 33, 35, 36, 40, 42, 46, 47, 98, 105, 136, 151, 234, 307]",59.375,76.27844414817771,0.4851837676401664,0.9988104603359896
8.0,2.0,16.0,100.0,32.0,2.0,1e-05,1.0,190.0,2.0,"[3, 4, 5, 6, 11, 12, 27, 28, 30, 31, 37, 38, 43, 44, 93, 95, 111, 138]",42.0,39.16489357688705,-0.059906073,138.0,0.3371662847896132,0.9983499187652316,"[1, 2, 3, 4, 34, 65]",18.166666666666668,23.91245607535026,-0.06929306,65.0,0.7065610859728506,0.9992558768814476,-0.059906073,213.0,"[1, 2, 3, 4, 7, 8, 9, 10, 15, 16, 31, 32, 34, 35, 41, 42, 47, 48, 121, 130, 133, 175, 176, 213]",55.54166666666666,63.01188986127054,0.5041917147656977,0.9989077382462908
8.0,4.0,32.0,100.0,32.0,2.0,1e-05,1.0,190.0,2.0,"[1, 3, 14, 16, 18, 19, 28, 29, 31, 32, 36, 38, 42, 44, 70, 71, 80, 85]",36.5,24.4750439790775,-0.047142807,85.0,0.331453192878587,0.9986291632818848,"[1, 2, 3, 4, 54, 57]",20.166666666666668,25.01610592309593,-0.021041643,57.0,0.6996426250812215,0.9991544055470996,-0.021041643,243.0,"[1, 2, 3, 4, 5, 7, 18, 20, 22, 23, 32, 33, 35, 36, 40, 42, 47, 49, 86, 87, 119, 129, 237, 243]",55.0,65.45800180268262,0.4765104539451703,0.9989214840379638
8.0,3.0,32.0,100.0,32.0,2.0,1e-05,1.0,190.0,2.0,"[1, 3, 8, 10, 11, 13, 27, 29, 30, 31, 36, 38, 42, 44, 66, 74, 85, 94]",35.666666666666664,27.213150415847768,-0.061250735,94.0,0.3666378621262841,0.9986714730571352,"[1, 2, 3, 4, 72, 94]",29.33333333333333,38.486649922047285,-0.012316898,94.0,0.6888790386130811,0.9986893285980044,-0.012316898,332.0,"[1, 2, 3, 4, 5, 7, 12, 14, 15, 17, 31, 33, 34, 35, 40, 42, 47, 49, 76, 86, 106, 133, 280, 332]",58.5,82.14570388441909,0.5077702671910889,0.9988326650763842
8.0,2.0,32.0,100.0,32.0,2.0,1e-05,1.0,190.0,2.0,"[2, 4, 6, 7, 11, 13, 30, 32, 36, 38, 39, 41, 43, 44, 70, 77, 78, 79]",36.11111111111112,25.525344461466982,-0.07781792,79.0,0.3359511147407135,0.998648907843668,"[1, 2, 3, 4, 63, 67]",23.33333333333333,29.49952918645012,-0.02448189,67.0,0.6948195530285082,0.9989937426010486,-0.02448189,265.0,"[1, 2, 3, 4, 6, 8, 10, 11, 15, 17, 34, 36, 40, 42, 43, 45, 47, 48, 90, 104, 105, 106, 258, 265]",55.833333333333336,70.18348966973801,0.497742150977509,0.9989003366661592
8.0,4.0,16.0,100.0,32.0,2.0,0.0001,1.0,190.0,2.0,"[2, 3, 5, 10, 11, 13, 27, 28, 30, 31, 40, 41, 43, 44, 71, 73, 95, 96]",36.833333333333336,28.92375033313165,-0.034604516,96.0,0.3464104530854717,0.9986122393717844,"[1, 2, 3, 4, 72, 74]",26.0,33.251566379144705,-0.020568794,74.0,0.6917542542542542,0.9988584474885844,-0.020568794,263.0,"[1, 2, 3, 4, 6, 7, 9, 14, 15, 17, 31, 32, 34, 35, 44, 45, 48, 49, 92, 99, 153, 154, 248, 263]",58.54166666666666,72.95830953740331,0.501280767119377,0.998831607707794
8.0,3.0,16.0,100.0,32.0,2.0,0.0001,1.0,190.0,2.0,"[2, 3, 6, 7, 11, 12, 27, 29, 34, 35, 36, 38, 43, 44, 76, 80, 87, 91]",36.72222222222222,28.471829265581004,-0.056662705,91.0,0.3505893075252796,0.9986178806751512,"[1, 2, 3, 4, 97, 101]",34.666666666666664,45.51434450319543,-0.008660934,101.0,0.6851587220577727,0.9984187383730764,-0.008660934,402.0,"[1, 2, 3, 4, 6, 7, 10, 11, 15, 16, 31, 33, 38, 39, 40, 42, 47, 48, 110, 132, 140, 144, 394, 402]",71.45833333333333,107.59839650550354,0.5000023104534247,0.9985038234448222
8.0,2.0,16.0,100.0,32.0,2.0,0.0001,1.0,190.0,2.0,"[2, 3, 5, 6, 17, 18, 30, 32, 37, 38, 39, 41, 43, 44, 72, 78, 81, 96]",37.888888888888886,27.50331068735966,-0.05903693,96.0,0.3364776930648911,0.9985586469898006,"[1, 2, 3, 4, 69, 87]",27.666666666666668,35.97993267858565,-0.012761209,87.0,0.6902382142262201,0.9987738880432944,-0.012761209,316.0,"[1, 2, 3, 4, 6, 7, 9, 10, 21, 22, 34, 36, 41, 42, 43, 45, 48, 49, 88, 108, 123, 146, 280, 316]",61.833333333333336,81.14938214319456,0.4902145670826522,0.9987480755891658
8.0,4.0,32.0,100.0,32.0,2.0,0.0001,1.0,190.0,2.0,"[3, 4, 16, 17, 25, 26, 27, 29, 31, 32, 36, 37, 43, 44, 74, 79, 116, 126]",42.5,33.67532891862792,-0.017535375,126.0,0.2649928380746669,0.9983245329000812,"[1, 2, 3, 4, 25, 29]",10.666666666666666,11.642832797715322,-0.06471775,29.0,0.7344827586206896,0.9996363943852528,-0.017535375,195.0,"[2, 3, 4, 5, 7, 8, 20, 21, 29, 30, 31, 33, 35, 36, 40, 41, 48, 49, 98, 102, 104, 122, 184, 195]",51.958333333333336,53.26934638128094,0.39755903398259,0.9989986719450508
8.0,4.0,16.0,100.0,32.0,2.0,1e-05,1.0,190.0,3.0,"[2, 4, 8, 10, 11, 13, 27, 29, 30, 32, 40, 41, 42, 44, 66, 75, 79, 80]",35.166666666666664,25.067132087877763,-0.07860783,80.0,0.3286049851592983,0.9986968589222854,"[1, 2, 3, 4, 46, 47]",17.166666666666668,20.763884243775028,-0.06339331,47.0,0.706059204440333,0.9993066125486216,-0.06339331,139.0,"[1, 2, 3, 4, 6, 8, 12, 14, 15, 17, 31, 33, 34, 36, 44, 45, 47, 49, 78, 118, 123, 124, 137, 139]",46.66666666666666,45.82272604529572,0.4976391067434768,0.99913295775601
8.0,3.0,32.0,100.0,32.0,2.0,0.0001,1.0,190.0,3.0,"[1, 3, 4, 5, 7, 8, 26, 27, 29, 30, 36, 38, 42, 44, 65, 68, 85, 88]",33.666666666666664,27.045229606058893,-0.029065661,88.0,0.4449898370725624,0.9987730165177364,"[1, 2, 3, 4, 90, 103]",33.833333333333336,44.48002048360839,-0.014238341,103.0,0.6856346637900035,0.9984610180957212,-0.014238341,242.0,"[1, 2, 3, 4, 5, 7, 8, 9, 11, 12, 30, 31, 33, 34, 40, 42, 47, 49, 78, 83, 142, 150, 226, 242]",53.708333333333336,67.28080407681095,0.5540444558525632,0.9989542624642608
8.0,2.0,32.0,100.0,32.0,2.0,0.0001,1.0,190.0,3.0,"[1, 2, 6, 7, 9, 10, 28, 29, 31, 32, 36, 37, 43, 44, 69, 80, 81, 84]",34.94444444444444,27.007143545164784,-0.043768257,84.0,0.4137560898830705,0.9987081415290188,"[1, 2, 3, 4, 70, 71]",25.166666666666668,32.069802341489755,-0.0068289423,71.0,0.692655935613682,0.9989007272112296,-0.0068289423,276.0,"[1, 2, 3, 4, 5, 6, 10, 11, 13, 14, 32, 33, 35, 36, 40, 41, 48, 49, 80, 121, 122, 127, 275, 276]",57.66666666666666,75.64757468389556,0.5294612125530282,0.9988538124481888
8.0,4.0,16.0,100.0,32.0,2.0,0.001,1.0,190.0,3.0,"[3, 5, 7, 8, 22, 23, 25, 26, 31, 32, 39, 41, 45, 46, 113, 114, 147, 172]",49.94444444444444,49.35525664024747,-0.064241864,172.0,0.2778846959948714,0.9979465655745104,"[1, 2, 3, 4, 55, 63]",21.33333333333333,26.74987019698517,-0.07890528,63.0,0.6976911976911976,0.9990952139353966,-0.064241864,244.0,"[3, 5, 7, 8, 9, 10, 11, 12, 26, 27, 29, 30, 35, 36, 43, 45, 50, 51, 135, 136, 200, 205, 231, 244]",66.16666666666667,76.86712922670883,0.3530008740097516,0.9986381092557816
8.0,3.0,16.0,100.0,32.0,2.0,0.001,1.0,190.0,3.0,"[1, 2, 4, 5, 7, 8, 14, 15, 17, 18, 36, 37, 41, 43, 84, 91, 114, 166]",39.05555555555556,44.6100041373659,-0.04448508,166.0,0.5009484977885454,0.9984994133044498,"[1, 2, 3, 4, 143, 146]",49.833333333333336,66.95126751766708,-0.120564654,146.0,0.6793434875626656,0.9976492474209367,-0.04448508,398.0,"[1, 2, 3, 4, 5, 6, 8, 9, 11, 12, 18, 19, 21, 22, 40, 41, 45, 47, 200, 218, 243, 246, 289, 398]",79.5,113.09177688939192,0.5809160753000624,0.9982997513069076
8.0,2.0,16.0,100.0,32.0,2.0,0.001,1.0,190.0,3.0,"[2, 3, 5, 6, 8, 10, 26, 28, 29, 31, 36, 37, 42, 43, 71, 74, 87, 125]",36.833333333333336,32.547828055203794,-0.056322847,125.0,0.3821152814710559,0.9986122393717844,"[1, 2, 3, 4, 231, 246]",81.16666666666667,111.3394459399822,-0.01812051,246.0,0.6743392109245767,0.996059529849484,-0.01812051,495.0,"[1, 2, 3, 4, 6, 7, 9, 10, 12, 14, 30, 32, 33, 35, 40, 41, 46, 47, 96, 106, 160, 238, 468, 495]",80.625,132.79301327630156,0.5205769425312532,0.9982712023549714
8.0,4.0,32.0,100.0,32.0,2.0,0.001,1.0,190.0,3.0,"[2, 3, 5, 7, 8, 10, 12, 14, 15, 17, 35, 36, 40, 42, 66, 76, 79, 83]",30.55555555555556,27.33175243847392,-0.17113616,83.0,0.4489945113492562,0.9989309730120046,"[1, 2, 3, 4, 63, 66]",23.166666666666668,29.254154500780835,-0.103682585,66.0,0.695045695045695,0.9990021985455776,-0.103682585,164.0,"[2, 3, 5, 7, 8, 10, 11, 12, 13, 15, 16, 18, 19, 21, 39, 40, 44, 46, 109, 132, 137, 144, 155, 164]",48.75,54.832510125532885,0.4757935506739266,0.9990800893264984
8.0,3.0,32.0,100.0,32.0,2.0,0.001,1.0,190.0,3.0,"[3, 4, 6, 7, 8, 10, 12, 13, 15, 17, 34, 35, 36, 39, 64, 65, 70, 80]",28.77777777777778,24.735389751787608,-0.15717873,80.0,0.4361985089619893,0.9990212338658724,"[1, 2, 3, 4, 58, 60]",21.33333333333333,26.65624796469968,-0.09637633,60.0,0.6977011494252873,0.9990952139353966,-0.09637633,150.0,"[3, 4, 6, 7, 8, 10, 11, 12, 13, 14, 16, 17, 19, 21, 38, 39, 40, 43, 79, 83, 109, 134, 148, 150]",42.66666666666666,46.70177250978335,0.4744149295296272,0.9992344651406724
8.0,2.0,32.0,100.0,32.0,2.0,0.001,1.0,190.0,3.0,"[2, 4, 5, 7, 9, 10, 12, 14, 15, 17, 34, 35, 37, 38, 91, 116, 120, 234]",44.44444444444444,58.52845672759175,-0.02212017,234.0,0.420972012632007,0.9982258100911634,"[1, 2, 3, 4, 86, 89]",30.83333333333333,40.08913679401053,-0.12115564,89.0,0.6875925442034666,0.9986132250972436,-0.02212017,496.0,"[2, 4, 5, 7, 9, 10, 12, 13, 14, 15, 16, 18, 19, 21, 38, 39, 41, 42, 167, 172, 213, 292, 308, 496]",82.20833333333333,125.09828774696408,0.4464798555627314,0.9982310223485426
8.0,3.0,16.0,100.0,32.0,2.0,1e-05,1.0,190.0,3.0,"[2, 3, 8, 9, 11, 12, 27, 28, 30, 31, 36, 37, 42, 43, 80, 87, 100, 105]",38.388888888888886,32.09558448151204,-0.07162757,105.0,0.3381129143305283,0.9985332611246502,"[1, 2, 3, 4, 28, 41]",13.166666666666666,15.571519586161855,-0.07434432,41.0,0.7208188153310104,0.999509555217318,-0.07162757,153.0,"[1, 2, 3, 4, 6, 7, 12, 13, 15, 16, 31, 32, 34, 35, 40, 41, 46, 47, 105, 111, 117, 139, 143, 153]",48.04166666666666,49.0335592278957,0.5066986942139382,0.9990980645925324
8.0,2.0,16.0,100.0,32.0,2.0,1e-05,1.0,190.0,3.0,"[2, 3, 5, 6, 8, 9, 27, 28, 30, 31, 36, 37, 39, 40, 132, 141, 154, 169]",49.833333333333336,54.90420951277071,-0.074989215,169.0,0.3694320794677018,0.9979522068778772,"[1, 2, 3, 4, 19, 20]",8.166666666666666,8.070866675202168,-0.19416179,20.0,0.7605263157894736,0.999763233553188,-0.074989215,259.0,"[1, 2, 3, 4, 6, 7, 9, 10, 12, 13, 31, 32, 34, 35, 40, 41, 43, 44, 105, 108, 191, 216, 238, 259]",61.833333333333336,79.01248143313954,0.5265249936321924,0.9987480755891658
8.0,4.0,32.0,100.0,32.0,2.0,1e-05,1.0,190.0,3.0,"[2, 3, 8, 9, 11, 12, 27, 29, 31, 32, 36, 38, 42, 44, 67, 71, 75, 82]",34.388888888888886,24.73220772121713,-0.047660004,82.0,0.3457257057195276,0.9987363480458524,"[1, 2, 3, 4, 51, 56]",19.5,24.10221289978716,-0.01896647,56.0,0.7008636788048553,0.9991882293252156,-0.01896647,245.0,"[1, 2, 3, 4, 6, 7, 12, 13, 15, 16, 31, 33, 35, 36, 40, 42, 47, 49, 76, 97, 105, 126, 235, 245]",53.16666666666666,65.49469868283659,0.504358682746889,0.998968008255934
8.0,3.0,32.0,100.0,32.0,2.0,1e-05,1.0,190.0,3.0,"[1, 3, 8, 9, 11, 12, 27, 28, 30, 32, 36, 38, 42, 44, 63, 69, 79, 86]",34.333333333333336,25.216837408542908,-0.05409599,86.0,0.3745362368133819,0.998739168697536,"[1, 2, 3, 4, 65, 68]",23.83333333333333,30.196118219989067,-0.015435958,68.0,0.6941930618401206,0.9989683747674616,-0.015435958,279.0,"[1, 2, 3, 4, 5, 7, 12, 13, 15, 16, 31, 32, 34, 36, 40, 42, 46, 48, 78, 97, 120, 127, 275, 279]",56.79166666666666,75.05552342914027,0.5104216862506968,0.9988760171885838
8.0,2.0,32.0,100.0,32.0,2.0,1e-05,1.0,190.0,3.0,"[3, 4, 10, 11, 12, 13, 28, 29, 31, 32, 36, 38, 43, 44, 65, 73, 75, 109]",36.44444444444444,27.73530085613364,-0.059010547,109.0,0.310414638772723,0.998631983933568,"[1, 2, 3, 4, 61, 68]",23.166666666666668,29.311071097605573,-0.018248148,68.0,0.6950337512054001,0.9990021985455776,-0.018248148,277.0,"[1, 2, 3, 4, 7, 8, 14, 15, 16, 17, 32, 33, 35, 36, 40, 42, 48, 49, 74, 98, 101, 151, 265, 277]",57.0,73.84443106964804,0.4825589062466949,0.9988707303456328
8.0,4.0,16.0,100.0,32.0,2.0,0.0001,1.0,190.0,3.0,"[1, 3, 5, 6, 7, 9, 26, 28, 30, 31, 37, 38, 43, 44, 68, 78, 120, 135]",39.388888888888886,37.65802096778157,-0.032558277,135.0,0.4125623347429476,0.9984824893943496,"[1, 2, 3, 4, 164, 189]",60.5,82.3463215126618,-0.026114093,189.0,0.67703897277068,0.9971080669710806,-0.026114093,343.0,"[1, 2, 3, 4, 5, 7, 9, 10, 11, 13, 30, 32, 34, 35, 41, 42, 48, 49, 106, 160, 258, 285, 311, 343]",76.625,106.28413667303948,0.5258929966176499,0.9983727097396335
8.0,3.0,16.0,100.0,32.0,2.0,0.0001,1.0,190.0,3.0,"[1, 2, 4, 6, 7, 8, 26, 28, 29, 30, 36, 38, 42, 44, 74, 76, 102, 110]",36.833333333333336,32.61432882100204,-0.051174536,110.0,0.4484532390309764,0.9986122393717844,"[1, 2, 3, 4, 60, 84]",25.666666666666668,33.4995854037363,-0.01338033,84.0,0.6924603174603174,0.9988753593776424,-0.01338033,299.0,"[1, 2, 3, 4, 5, 6, 8, 10, 11, 12, 30, 32, 33, 34, 40, 42, 46, 48, 119, 122, 148, 159, 262, 299]",61.5,80.61585865489909,0.547763012414979,0.9987565345378876
8.0,2.0,16.0,100.0,32.0,2.0,0.0001,1.0,190.0,3.0,"[5, 7, 20, 22, 24, 25, 31, 32, 37, 39, 40, 41, 42, 44, 69, 71, 76, 87]",39.55555555555556,22.358747287066723,-0.05950267,87.0,0.2394465825523019,0.9984740274392996,"[1, 2, 3, 4, 190, 192]",65.33333333333333,88.86631657845521,-0.011790932,192.0,0.6762609649122806,0.9968628445797396,-0.011790932,590.0,"[1, 2, 3, 4, 9, 11, 24, 26, 28, 29, 35, 36, 41, 43, 44, 45, 46, 48, 79, 87, 120, 131, 588, 590]",86.25,155.21738787906463,0.416293860033466,0.99812845759529
8.0,4.0,32.0,100.0,32.0,2.0,0.0001,1.0,190.0,3.0,"[3, 4, 5, 6, 8, 9, 27, 29, 30, 31, 36, 37, 42, 44, 74, 75, 109, 113]",37.888888888888886,33.28144108940678,-0.029907994,113.0,0.3632358623236,0.9985586469898003,"[1, 2, 3, 4, 21, 25]",9.333333333333334,9.775252199076789,-0.055467475,25.0,0.7463492063492064,0.9997040419414848,-0.029907994,198.0,"[1, 2, 3, 4, 7, 8, 9, 10, 12, 13, 31, 33, 34, 35, 41, 42, 47, 49, 93, 97, 102, 116, 185, 198]",48.833333333333336,54.48139335793664,0.5245640831199628,0.999077974589318
8.0,4.0,16.0,100.0,32.0,2.0,1e-05,1.0,190.0,4.0,"[2, 3, 8, 9, 11, 12, 27, 29, 30, 31, 36, 38, 42, 44, 70, 74, 81, 91]",35.44444444444444,26.769016547373948,-0.082217015,91.0,0.3436438815278906,0.9986827556638684,"[1, 2, 3, 4, 62, 63]",22.5,28.30047113859885,-0.028844848,63.0,0.6959805427547362,0.9990360223236936,-0.028844848,252.0,"[1, 2, 3, 4, 6, 7, 12, 13, 15, 16, 31, 33, 34, 35, 40, 42, 47, 49, 84, 95, 107, 121, 240, 252]",53.708333333333336,66.88265792083591,0.5044121535701837,0.998954262464261
8.0,3.0,32.0,100.0,32.0,2.0,0.0001,1.0,190.0,4.0,"[2, 3, 5, 6, 8, 9, 28, 29, 31, 32, 36, 37, 43, 44, 73, 74, 90, 95]",35.833333333333336,28.960221760968,-0.024198264,95.0,0.3835627872465639,0.9986630111020852,"[1, 2, 3, 4, 75, 80]",27.5,35.39656292165479,-0.013264639,80.0,0.6902777777777777,0.9987823439878234,-0.013264639,280.0,"[1, 2, 3, 4, 6, 7, 9, 10, 12, 13, 32, 33, 35, 36, 40, 41, 47, 49, 93, 95, 152, 158, 272, 280]",59.583333333333336,78.01063851951362,0.5254991846533589,0.9988051734930384
8.0,2.0,32.0,100.0,32.0,2.0,0.0001,1.0,190.0,4.0,"[2, 3, 6, 7, 12, 13, 28, 29, 34, 35, 37, 38, 43, 44, 77, 79, 86, 90]",36.833333333333336,28.14693589007513,-0.036149357,90.0,0.3456215573817361,0.9986122393717844,"[1, 2, 3, 4, 69, 72]",25.166666666666668,32.080194651667696,-0.007275392,72.0,0.6926328502415459,0.9989007272112296,-0.007275392,280.0,"[1, 2, 3, 4, 6, 7, 10, 11, 16, 17, 32, 33, 38, 39, 41, 42, 48, 49, 128, 130, 137, 141, 276, 280]",62.125,78.52563939037152,0.4969130898244696,0.9987406740090342
8.0,4.0,16.0,100.0,32.0,2.0,0.001,1.0,190.0,4.0,"[4, 5, 7, 8, 9, 10, 15, 16, 17, 18, 35, 36, 38, 41, 119, 131, 144, 169]",45.66666666666666,52.7867828574961,-0.07736092,169.0,0.3660944973616443,0.9981637557541294,"[1, 2, 3, 4, 188, 251]",74.83333333333333,103.90286596410878,-0.09354557,251.0,0.6750833545251618,0.9963808557415864,-0.07736092,461.0,"[2, 3, 4, 5, 8, 9, 11, 12, 13, 14, 19, 20, 21, 22, 39, 40, 42, 45, 289, 314, 334, 382, 402, 461]",104.625,152.81165217897052,0.4625363212803446,0.997662158046998
8.0,3.0,16.0,100.0,32.0,2.0,0.001,1.0,190.0,4.0,"[4, 5, 7, 8, 10, 11, 13, 14, 18, 20, 35, 36, 38, 40, 78, 120, 135, 189]",43.388888888888886,51.4091851811294,-0.056682438,189.0,0.3678025245276707,0.9982794024731474,"[1, 2, 3, 4, 110, 116]",39.333333333333336,52.12698171026424,-0.08586641,116.0,0.6828631138975966,0.998181971926264,-0.056682438,366.0,"[2, 3, 4, 5, 8, 9, 11, 12, 14, 15, 17, 18, 22, 24, 39, 40, 42, 44, 125, 225, 236, 245, 254, 366]",74.16666666666667,103.6430841343931,0.4701298486871669,0.9984350944864572
8.0,2.0,16.0,100.0,32.0,2.0,0.001,1.0,190.0,4.0,"[3, 4, 5, 7, 8, 10, 28, 29, 30, 32, 39, 41, 42, 44, 74, 75, 89, 128]",38.22222222222222,33.18559854239914,-0.065391175,128.0,0.351013115683594,0.9985417230797003,"[1, 2, 3, 4, 217, 227]",75.66666666666667,103.5175776807441,-0.019522166,227.0,0.6749121987860086,0.9963385760189414,-0.019522166,492.0,"[2, 3, 4, 5, 7, 8, 9, 11, 12, 14, 32, 33, 34, 36, 43, 45, 46, 48, 103, 104, 153, 203, 481, 492]",80.33333333333333,131.9964225104437,0.4498698045743266,0.9982786039351028
8.0,4.0,32.0,100.0,32.0,2.0,0.001,1.0,190.0,4.0,"[2, 3, 5, 6, 10, 11, 13, 14, 15, 16, 35, 36, 41, 42, 47, 51, 63, 95]",28.05555555555556,24.430109433106928,-0.10788033,95.0,0.4557718289322313,0.9990579023377562,"[1, 2, 3, 4, 98, 102]",35.0,45.98550496261476,-0.11380232,102.0,0.6849739895958382,0.9984018264840184,-0.10788033,199.0,"[2, 3, 5, 6, 8, 9, 10, 11, 14, 15, 17, 18, 19, 20, 39, 40, 45, 46, 57, 67, 88, 187, 193, 199]",46.583333333333336,59.41304336778433,0.497555345064116,0.9991350724931906
8.0,3.0,32.0,100.0,32.0,2.0,0.001,1.0,190.0,4.0,"[3, 4, 5, 6, 9, 10, 13, 14, 16, 17, 37, 38, 41, 44, 51, 61, 66, 78]",28.5,23.27194305023397,-1.3233057,78.0,0.4338489131571872,0.9990353371242892,"[1, 2, 3, 4, 76, 82]",28.0,36.11555528208494,-0.11919881,82.0,0.6898267008985879,0.9987569761542364,-0.11919881,200.0,"[3, 4, 5, 6, 8, 9, 10, 11, 13, 14, 17, 18, 20, 21, 41, 42, 45, 48, 69, 88, 94, 116, 191, 200]",45.54166666666666,54.59928202112389,0.4796509206948366,0.9991615067079463
8.0,2.0,32.0,100.0,32.0,2.0,0.001,1.0,190.0,4.0,"[2, 3, 8, 9, 10, 11, 16, 17, 18, 20, 36, 37, 40, 41, 154, 229, 268, 282]",66.72222222222223,92.78577809817595,-0.030923497,282.0,0.362807300136918,0.997094728766134,"[1, 2, 3, 4, 121, 125]",42.66666666666666,56.82331289962677,-0.07577931,125.0,0.6815537190082643,0.998012853035684,-0.030923497,525.0,"[2, 3, 4, 5, 6, 7, 12, 13, 14, 15, 20, 21, 22, 24, 40, 41, 44, 45, 272, 276, 280, 397, 475, 525]",106.79166666666669,161.21000257600502,0.4637304506093755,0.9976071748803058
8.0,3.0,16.0,100.0,32.0,2.0,1e-05,1.0,190.0,4.0,"[3, 4, 8, 9, 11, 13, 28, 29, 31, 32, 37, 38, 42, 44, 88, 89, 114, 130]",41.66666666666666,37.1887079635741,-0.06317977,130.0,0.3097862729995562,0.9983668426753316,"[1, 2, 3, 4, 12, 31]",8.833333333333334,10.542243067245645,-0.09702545,31.0,0.7683691756272402,0.999729409775072,-0.06317977,195.0,"[1, 2, 3, 4, 7, 8, 12, 13, 15, 17, 32, 33, 35, 36, 41, 42, 47, 49, 87, 118, 119, 123, 160, 195]",49.958333333333336,53.2943705334396,0.4918683132062799,0.999049425637382
8.0,2.0,16.0,100.0,32.0,2.0,1e-05,1.0,190.0,4.0,"[2, 4, 5, 6, 12, 13, 27, 29, 33, 34, 37, 38, 43, 44, 112, 126, 139, 170]",48.55555555555556,50.005802132488384,-0.056970887,170.0,0.331640523503811,0.9980170818665944,"[1, 2, 3, 4, 23, 31]",10.666666666666666,11.8133634311129,-0.099502675,31.0,0.7351566152407667,0.9996363943852528,-0.056970887,263.0,"[1, 2, 3, 4, 6, 8, 9, 10, 16, 17, 31, 33, 37, 38, 41, 42, 47, 48, 110, 119, 168, 182, 220, 263]",60.625,73.78053746302837,0.5006698282320138,0.9987787392782824
8.0,4.0,32.0,100.0,32.0,2.0,1e-05,1.0,190.0,4.0,"[2, 3, 9, 10, 12, 13, 28, 29, 31, 32, 36, 38, 42, 44, 69, 77, 78, 85]",35.44444444444444,25.757894630626726,-0.04740253,85.0,0.333935409485128,0.9986827556638684,"[1, 2, 3, 4, 60, 62]",22.0,27.598309126949545,-0.019166186,62.0,0.69668458781362,0.9990613901572803,-0.019166186,258.0,"[1, 2, 3, 4, 6, 7, 13, 14, 16, 17, 32, 33, 35, 36, 40, 42, 47, 49, 79, 121, 122, 130, 256, 258]",56.79166666666666,71.0023351533048,0.4930763072384673,0.998876017188584
8.0,3.0,32.0,100.0,32.0,2.0,1e-05,1.0,190.0,4.0,"[2, 3, 8, 10, 11, 13, 27, 28, 30, 31, 36, 37, 42, 43, 66, 75, 78, 86]",34.77777777777778,25.613701965843628,-0.055173904,86.0,0.3421192756541177,0.998716603484069,"[1, 2, 3, 4, 63, 64]",22.83333333333333,28.77161023570901,-0.016991833,64.0,0.6955191798941798,0.9990191104346356,-0.016991833,267.0,"[1, 2, 3, 4, 6, 7, 12, 14, 15, 17, 31, 32, 34, 35, 40, 41, 46, 47, 72, 115, 119, 129, 263, 267]",56.333333333333336,72.58539032676539,0.501067006318246,0.9988876482430764
8.0,2.0,32.0,100.0,32.0,2.0,1e-05,1.0,190.0,4.0,"[2, 4, 6, 7, 8, 10, 27, 29, 30, 32, 37, 38, 43, 44, 66, 72, 77, 91]",34.611111111111114,26.403154039051408,-0.0607531,91.0,0.3636511354604662,0.9987250654391192,"[1, 2, 3, 4, 174, 227]",68.5,94.58814231533816,-0.012850116,227.0,0.6758612250409303,0.9967021816336884,-0.012850116,909.0,"[1, 2, 3, 4, 6, 8, 10, 11, 12, 14, 31, 33, 34, 36, 42, 43, 48, 49, 74, 81, 86, 114, 791, 909]",101.75,228.1655557557568,0.5171531984001723,0.997735116479724
8.0,4.0,16.0,100.0,32.0,2.0,0.0001,1.0,190.0,4.0,"[2, 3, 8, 9, 12, 13, 28, 29, 34, 35, 37, 38, 42, 43, 76, 79, 107, 110]",39.16666666666666,32.366392034536894,-0.04298917,110.0,0.3284002992852584,0.9984937720010832,"[1, 2, 3, 4, 73, 83]",27.666666666666668,35.71958690815011,-0.012053796,83.0,0.6901303845519062,0.9987738880432946,-0.012053796,290.0,"[1, 2, 3, 4, 6, 7, 12, 13, 16, 17, 32, 33, 38, 39, 41, 42, 46, 47, 102, 109, 158, 161, 275, 290]",62.25,80.02981215355521,0.4897274369652067,0.9987375019032634
8.0,3.0,16.0,100.0,32.0,2.0,0.0001,1.0,190.0,4.0,"[2, 3, 6, 7, 9, 10, 28, 29, 31, 32, 39, 41, 42, 43, 97, 99, 100, 122]",41.11111111111112,36.799590711626266,-0.042029794,122.0,0.3536650654163956,0.9983950491921654,"[1, 2, 3, 4, 62, 72]",24.0,30.55595959328829,-0.013275494,72.0,0.6939964157706092,0.9989599188229324,-0.013275494,282.0,"[1, 2, 3, 4, 6, 7, 10, 11, 13, 14, 32, 33, 35, 36, 43, 46, 47, 48, 128, 132, 134, 173, 258, 282]",62.41666666666666,78.55301642132459,0.5076459142291001,0.9987332724289024
8.0,2.0,16.0,100.0,32.0,2.0,0.0001,1.0,190.0,4.0,"[2, 4, 8, 10, 17, 18, 30, 32, 33, 34, 39, 40, 42, 43, 72, 94, 109, 110]",40.94444444444444,32.93507455286035,-0.050859798,110.0,0.2982184158952752,0.9984035111472156,"[1, 2, 3, 4, 159, 219]",64.66666666666667,89.61150719758162,-0.008458594,219.0,0.6764739668590792,0.9968966683578556,-0.008458594,881.0,"[1, 2, 3, 4, 6, 8, 12, 14, 21, 22, 34, 36, 37, 38, 43, 44, 46, 47, 83, 105, 145, 146, 592, 881]",98.75,200.79140295341327,0.4684942615389303,0.9978112470182208
8.0,4.0,32.0,100.0,32.0,2.0,0.0001,1.0,190.0,4.0,"[1, 3, 4, 5, 11, 12, 26, 27, 29, 30, 38, 40, 44, 46, 72, 111, 118, 164]",43.388888888888886,44.09351034246409,-0.021960251,164.0,0.3986663763921876,0.9982794024731474,"[1, 2, 3, 4, 54, 62]",21.0,26.28053779256937,-0.0564762,62.0,0.6982277976901632,0.9991121258244546,-0.021960251,328.0,"[1, 2, 3, 4, 5, 7, 8, 9, 15, 16, 30, 31, 33, 34, 45, 47, 53, 55, 115, 140, 167, 185, 213, 328]",64.41666666666667,82.46409151193559,0.5192158126939505,0.9986825187365712
