LSX-UniWue/explainable-ERP-fraud-detection/outputs/summary/ex2/Autoencoder_cat.csv
cpus,n_layers,n_bottleneck,epochs,batch_size,verbose,learning_rate,shuffle,n_inputs,seed,fraud_ranks_eval,rank_mean_eval,rank_std_eval,max_fraud_eval,min_detect_eval,auc_pr_eval,auc_roc_eval,fraud_ranks_test,rank_mean_test,rank_std_test,max_fraud_test,min_detect_test,auc_pr_test,auc_roc_test,max_fraud_joint,min_detect_joint,fraud_ranks_joint,rank_mean_joint,rank_std_joint,auc_pr_joint,auc_roc_joint
8.0,4.0,16.0,100.0,32.0,2.0,1e-05,1.0,240.0,0.0,"[3, 6, 18, 19, 36, 37, 40, 42, 43, 44, 45, 46, 106, 107, 111, 112, 113, 114]",57.888888888888886,39.214352373828206,-0.031473402,114.0,0.1968477886539286,0.9975432123837892,"[18, 36, 37, 55, 56, 57]",43.16666666666666,14.252680059865543,-0.020793628,57.0,0.0765780561833193,0.997987485202097,-0.020793628,841.0,"[20, 23, 35, 36, 38, 70, 71, 73, 74, 77, 80, 81, 82, 83, 85, 145, 146, 151, 152, 153, 154, 839, 840, 841]",181.2083333333333,252.4435546095184,0.110521430517196,0.9957187145781522
8.0,3.0,32.0,100.0,32.0,2.0,0.0001,1.0,240.0,0.0,"[8, 9, 71, 72, 75, 76, 79, 80, 81, 82, 84, 147, 209, 698, 699, 759, 830, 832]",271.72222222222223,309.48520078700506,-0.009389507,832.0,0.0799794414561787,0.9866865240545176,"[5, 38, 39, 42, 43, 44]",35.166666666666664,13.655483229172896,-0.009127939,44.0,0.1129059095399364,0.9983933705394894,-0.009127939,899.0,"[9, 28, 37, 107, 108, 111, 112, 115, 116, 117, 118, 120, 184, 244, 245, 248, 739, 740, 800, 871, 873, 896, 897, 899]",363.9166666666667,343.1165881381364,0.0571492789756207,0.9910821533099864
8.0,2.0,32.0,100.0,32.0,2.0,0.0001,1.0,240.0,0.0,"[4, 8, 77, 85, 568, 570, 572, 573, 574, 575, 576, 577, 578, 579, 580, 583, 584, 585]",458.22222222222223,222.43040248719885,-0.01783361,585.0,0.0483970815063722,0.9772175963534616,"[1, 38, 39, 40, 43, 44]",34.166666666666664,14.982397078646068,-0.011764151,44.0,0.2470328936669205,0.9984441062066634,-0.011764151,814.0,"[1, 10, 26, 113, 122, 605, 606, 608, 610, 611, 612, 613, 614, 615, 616, 617, 618, 621, 622, 623, 743, 807, 813, 814]",527.5,252.79652555629264,0.0761696677396135,0.9869309242247372
8.0,4.0,16.0,100.0,32.0,2.0,0.001,1.0,240.0,0.0,"[2, 5, 6, 13, 212, 273, 274, 275, 276, 278, 279, 281, 282, 403, 404, 588, 589, 658]",283.22222222222223,192.5820331863096,-0.02632472,658.0,0.1207743486955812,0.9861026491560608,"[33, 44, 45, 96, 97, 99]",69.0,28.6065260619554,-0.018860491,99.0,0.0493738935749245,0.9966768138001014,-0.018860491,901.0,"[2, 5, 6, 17, 177, 251, 312, 313, 314, 315, 317, 318, 324, 325, 385, 447, 448, 449, 635, 636, 721, 897, 898, 901]",392.2083333333333,266.84030479649977,0.0951559749576685,0.9903642000372191
8.0,3.0,16.0,100.0,32.0,2.0,0.001,1.0,240.0,0.0,"[367, 436, 439, 500, 501, 502, 688, 689, 694, 755, 756, 761, 762, 763, 764, 765, 766, 767]",648.6111111111111,140.463177811794,-0.023161817,767.0,0.0138430224775922,0.96755122303457,"[6, 37, 38, 42, 45, 46]",35.666666666666664,13.67073110293992,-0.012935801,46.0,0.1060753463499458,0.9983680027059024,-0.012935801,852.0,"[8, 391, 462, 472, 533, 535, 536, 724, 725, 726, 727, 732, 793, 794, 799, 800, 801, 802, 803, 804, 805, 841, 849, 852]",679.75,195.18137932019368,0.0218712473281419,0.9830672993960312
8.0,2.0,16.0,100.0,32.0,2.0,0.001,1.0,240.0,0.0,"[1, 63, 314, 317, 384, 385, 387, 388, 389, 390, 451, 452, 457, 458, 459, 460, 461, 462]",371.0,128.9909557553035,-0.028298913,462.0,0.0795404118540082,0.9816460194963444,"[33, 36, 37, 48, 50, 51]",42.5,7.32006375199925,-0.014986991,51.0,0.0779866765160882,0.998021308980213,-0.014986991,802.0,"[6, 73, 342, 349, 353, 419, 420, 422, 423, 424, 425, 427, 428, 488, 489, 494, 495, 496, 497, 498, 499, 739, 741, 802]",447.875,168.8417189016585,0.0328759986232418,0.98895155560067
8.0,4.0,32.0,100.0,32.0,2.0,0.001,1.0,240.0,0.0,"[1, 3, 11, 14, 504, 505, 506, 507, 626, 627, 628, 630, 755, 758, 761, 764, 765, 768]",507.3888888888889,283.5503362894788,-0.028844494,768.0,0.1373425722734039,0.9747213196136836,"[1, 39, 40, 48, 51, 55]",39.0,17.916472867168917,-0.023232244,55.0,0.236124251565428,0.9981988838153222,-0.023232244,853.0,"[1, 3, 9, 14, 20, 542, 543, 544, 545, 546, 665, 666, 667, 669, 670, 796, 801, 804, 807, 808, 813, 817, 824, 853]",559.4583333333334,299.75336794975664,0.122237217119911,0.9861199225160296
8.0,3.0,32.0,100.0,32.0,2.0,0.001,1.0,240.0,0.0,"[1, 2, 131, 138, 141, 144, 206, 207, 208, 211, 330, 331, 332, 333, 334, 335, 398, 399]",232.27777777777777,120.11652007555716,-0.042411264,399.0,0.1463691133511586,0.9886891867497066,"[10, 11, 12, 41, 49, 53]",29.33333333333333,18.6785676348292,-0.017409554,53.0,0.1407712534873799,0.9986893285980044,-0.017409554,1010.0,"[1, 2, 136, 147, 148, 149, 150, 155, 163, 227, 230, 232, 235, 361, 362, 363, 364, 365, 366, 430, 431, 504, 867, 1010]",308.25,230.9067723129835,0.1228013483912975,0.992494797746536
8.0,2.0,32.0,100.0,32.0,2.0,0.001,1.0,240.0,0.0,"[1, 2, 84, 265, 266, 386, 387, 448, 449, 512, 513, 515, 516, 517, 519, 520, 522, 523]",385.8333333333333,179.40588681038935,-0.012270713,523.0,0.1328966311484912,0.980892905496886,"[10, 22, 23, 43, 46, 47]",31.83333333333333,14.18234426633654,-0.0066425935,47.0,0.108453725995623,0.9985624894300692,-0.0066425935,843.0,"[1, 2, 23, 40, 41, 121, 302, 303, 424, 425, 486, 487, 550, 551, 553, 554, 555, 558, 559, 561, 562, 829, 842, 843]",423.8333333333333,259.1747587161133,0.1211693223309109,0.9895616572772336
8.0,3.0,16.0,100.0,32.0,2.0,1e-05,1.0,240.0,0.0,"[2, 7, 18, 33, 34, 36, 37, 38, 41, 42, 43, 44, 47, 48, 51, 52, 53, 54]",37.77777777777778,14.558523870363732,-0.034640864,54.0,0.2594684972963494,0.9985642882931672,"[18, 36, 37, 55, 59, 60]",44.16666666666666,15.225161922145707,-0.026209,60.0,0.0749442046052215,0.9979367495349232,-0.026209,130.0,"[14, 24, 35, 36, 68, 69, 70, 72, 73, 74, 77, 78, 79, 80, 81, 84, 85, 89, 91, 92, 93, 119, 129, 130]",76.75,27.918407905896068,0.1515893838988322,0.9983695376338628
8.0,2.0,16.0,100.0,32.0,2.0,1e-05,1.0,240.0,0.0,"[2, 5, 8, 26, 34, 36, 37, 38, 39, 40, 45, 46, 47, 48, 108, 111, 113, 114]",49.833333333333336,35.63589014836961,-0.034221157,114.0,0.2422917990590432,0.997952206877877,"[3, 36, 40, 57, 70, 78]",47.333333333333336,24.817108793912496,-0.026347797,78.0,0.113735995972838,0.997776086588872,-0.026347797,513.0,"[3, 12, 23, 28, 61, 69, 70, 72, 73, 74, 75, 76, 81, 82, 83, 84, 145, 150, 151, 153, 154, 359, 502, 513]",128.875,133.5980640141665,0.1352568703137212,0.9970467695274832
8.0,4.0,32.0,100.0,32.0,2.0,1e-05,1.0,240.0,0.0,"[7, 13, 17, 23, 37, 38, 39, 40, 41, 42, 43, 45, 46, 47, 50, 51, 52, 53]",38.0,13.408123574079177,-0.025832292,53.0,0.2345219113722791,0.9985530056864338,"[15, 41, 43, 44, 46, 48]",39.5,11.176612486199325,-0.014856165,48.0,0.0849698899025023,0.9981735159817352,-0.014856165,382.0,"[19, 29, 44, 48, 58, 72, 73, 74, 75, 76, 77, 78, 80, 81, 82, 85, 86, 87, 88, 107, 109, 110, 198, 382]",92.41666666666669,68.74040337062007,0.1383562323524813,0.9979719670439358
8.0,3.0,32.0,100.0,32.0,2.0,1e-05,1.0,240.0,0.0,"[1, 6, 13, 26, 35, 36, 39, 40, 42, 43, 45, 46, 47, 48, 52, 53, 54, 55]",37.833333333333336,15.777093099385157,-0.029096462,55.0,0.290022031514605,0.998561467641484,"[1, 36, 37, 52, 53, 55]",39.0,18.610033136277146,-0.01611621,55.0,0.236165040882022,0.9981988838153224,-0.01611621,440.0,"[1, 3, 13, 22, 59, 70, 71, 74, 75, 77, 78, 80, 81, 82, 83, 87, 88, 89, 90, 91, 92, 367, 371, 440]",107.66666666666669,111.72349300343636,0.2068341598361701,0.9975849701399108
8.0,2.0,32.0,100.0,32.0,2.0,1e-05,1.0,240.0,0.0,"[2, 3, 14, 25, 34, 35, 37, 38, 39, 40, 41, 42, 43, 44, 45, 46, 47, 48]",34.611111111111114,13.88499945540306,-0.030972762,48.0,0.2999994519366362,0.998725065439119,"[2, 36, 37, 51, 52, 55]",38.833333333333336,18.03160805055636,-0.021132056,55.0,0.1533854607384019,0.9982073397598512,-0.021132056,357.0,"[2, 3, 5, 37, 60, 69, 70, 71, 72, 74, 75, 76, 78, 79, 80, 82, 83, 84, 85, 87, 88, 294, 295, 357]",96.08333333333331,87.33170322906162,0.2050143752798112,0.9978789186079954
8.0,4.0,16.0,100.0,32.0,2.0,0.0001,1.0,240.0,0.0,"[7, 8, 131, 138, 144, 205, 206, 208, 330, 331, 332, 333, 335, 454, 457, 458, 459, 460]",277.55555555555554,148.49624844577434,-0.024641471,460.0,0.0517468845501861,0.9863903556277644,"[18, 38, 39, 40, 41, 42]",36.333333333333336,8.29993306532582,-0.015281021,42.0,0.0916530956325564,0.9983341789277862,-0.015281021,818.0,"[21, 24, 87, 151, 168, 179, 240, 241, 243, 366, 367, 368, 369, 372, 491, 494, 495, 496, 497, 501, 502, 814, 815, 818]",379.9583333333333,223.81846795388049,0.0360284205406469,0.9906750664027476
8.0,3.0,16.0,100.0,32.0,2.0,0.0001,1.0,240.0,0.0,"[2, 11, 15, 22, 40, 41, 101, 102, 103, 104, 105, 166, 167, 168, 169, 170, 171, 172]",101.61111111111111,62.92777066595999,-0.029227067,172.0,0.1344446637296942,0.9953233595089808,"[35, 37, 38, 49, 50, 53]",43.66666666666666,7.156970184527963,-0.016534368,53.0,0.0760688418795951,0.99796211736851,-0.016534368,743.0,"[17, 45, 49, 56, 57, 75, 76, 136, 137, 138, 139, 140, 201, 202, 203, 204, 205, 206, 207, 210, 211, 673, 676, 743]",208.5833333333333,195.3072188174882,0.0717618807914875,0.99502402341437
8.0,2.0,16.0,100.0,32.0,2.0,0.0001,1.0,240.0,0.0,"[6, 11, 12, 29, 35, 36, 40, 41, 42, 43, 44, 45, 46, 47, 51, 52, 54, 55]",38.27777777777778,14.36742285541053,-0.030522503,55.0,0.2374843761671224,0.998538902428017,"[8, 37, 39, 56, 63, 66]",44.833333333333336,19.810911695886745,-0.018115722,66.0,0.0829466454466454,0.9979029257568072,-0.018115722,800.0,"[10, 28, 46, 47, 64, 70, 71, 75, 76, 77, 78, 79, 80, 81, 82, 87, 88, 90, 91, 92, 94, 477, 795, 800]",149.08333333333334,212.4964542187835,0.1302260174651357,0.9965339457612208
8.0,4.0,32.0,100.0,32.0,2.0,0.0001,1.0,240.0,0.0,"[7, 9, 12, 18, 19, 145, 146, 147, 149, 150, 151, 270, 273, 274, 276, 277, 278, 279]",160.0,105.97326706926296,-0.017200725,279.0,0.1024780709966474,0.9923588545897644,"[1, 38, 39, 40, 41, 42]",33.5,14.591664287073858,-0.009472836,42.0,0.2490605030399638,0.9984779299847794,-0.009472836,816.0,"[1, 17, 28, 31, 43, 44, 181, 182, 183, 185, 186, 187, 306, 310, 311, 313, 314, 315, 316, 558, 621, 813, 814, 816]",294.7916666666667,249.32090752793988,0.1018657720217117,0.9928363278011808
8.0,4.0,16.0,100.0,32.0,2.0,1e-05,1.0,240.0,1.0,"[1, 3, 18, 19, 35, 36, 37, 38, 39, 40, 41, 42, 43, 44, 50, 51, 53, 55]",35.833333333333336,15.279797846248565,-0.034221333,55.0,0.3191759237994415,0.9986630111020848,"[18, 36, 37, 46, 48, 52]",39.5,11.191514642799696,-0.024207553,52.0,0.0831166659971007,0.9981735159817352,-0.024207553,120.0,"[1, 10, 33, 36, 40, 70, 71, 72, 73, 74, 75, 76, 77, 78, 79, 80, 86, 87, 88, 90, 92, 112, 116, 120]",72.33333333333333,28.992336152086047,0.2014214332025933,0.9984816187044274
8.0,3.0,32.0,100.0,32.0,2.0,0.0001,1.0,240.0,1.0,"[8, 13, 19, 20, 27, 28, 212, 213, 214, 215, 217, 218, 460, 461, 462, 464, 706, 707]",259.1111111111111,226.33625154939745,-0.011983133,707.0,0.0828706103959403,0.9873268119866414,"[3, 38, 39, 42, 43, 44]",34.833333333333336,14.392320483121855,-0.0094946865,44.0,0.1351281317621586,0.9984102824285472,-0.0094946865,824.0,"[5, 35, 49, 56, 57, 64, 65, 249, 250, 251, 252, 254, 255, 497, 498, 499, 501, 502, 744, 747, 748, 814, 820, 824]",376.5,283.49676658943866,0.0527875825418994,0.9907628279957368
8.0,2.0,32.0,100.0,32.0,2.0,0.0001,1.0,240.0,1.0,"[8, 9, 15, 21, 24, 26, 28, 29, 31, 32, 33, 37, 38, 41, 42, 43, 44, 46]",30.38888888888889,11.299650382442463,-0.01939799,46.0,0.2907650894494933,0.9989394349670548,"[27, 47, 48, 49, 54, 55]",46.66666666666666,9.285592184789412,-0.007921776,55.0,0.0709010638785208,0.997809910366988,-0.007921776,758.0,"[33, 42, 44, 50, 56, 61, 63, 65, 66, 68, 69, 70, 74, 75, 78, 79, 80, 81, 83, 140, 148, 213, 401, 758]",120.70833333333331,152.31586675027947,0.1336080592929709,0.9972540137711684
8.0,4.0,16.0,100.0,32.0,2.0,0.001,1.0,240.0,1.0,"[4, 7, 11, 15, 265, 266, 267, 268, 269, 270, 271, 272, 274, 336, 337, 338, 403, 404]",237.61111111111111,129.60158559081876,-0.028652761,404.0,0.0893703295975948,0.9884184041881034,"[33, 37, 38, 50, 51, 52]",43.5,7.675719293112969,-0.020082217,52.0,0.0761213806415044,0.997970573313039,-0.020082217,836.0,"[4, 26, 36, 47, 112, 300, 301, 302, 304, 305, 306, 307, 308, 310, 311, 313, 375, 376, 377, 443, 444, 768, 772, 836]",332.625,213.5415284552398,0.0528657800978912,0.9918762371212504
8.0,3.0,16.0,100.0,32.0,2.0,0.001,1.0,240.0,1.0,"[2, 9, 16, 17, 21, 22, 89, 90, 91, 92, 94, 95, 160, 161, 221, 222, 224, 225]",102.83333333333331,78.98118622670704,-0.023731554,225.0,0.1537941690917826,0.9952613051719468,"[23, 36, 37, 40, 41, 42]",36.5,6.3966136874651625,-0.016039873,42.0,0.0908205433125899,0.9983257229832572,-0.016039873,758.0,"[2, 28, 33, 44, 45, 56, 57, 60, 63, 127, 128, 130, 131, 133, 134, 199, 200, 260, 261, 263, 264, 756, 757, 758]",203.7083333333333,223.55246945006493,0.1050158664630323,0.9951477355394271
8.0,2.0,16.0,100.0,32.0,2.0,0.001,1.0,240.0,1.0,"[4, 6, 12, 22, 152, 153, 214, 216, 218, 219, 220, 221, 222, 223, 224, 225, 226, 227]",166.88888888888889,86.10580628821272,-0.025775759,227.0,0.0988292285323375,0.9920090937810272,"[20, 41, 42, 54, 56, 57]",45.0,12.884098726725126,-0.014307203,57.0,0.0731386675813291,0.997894469812278,-0.014307203,708.0,"[21, 26, 28, 45, 57, 188, 189, 250, 253, 255, 256, 257, 258, 259, 260, 261, 262, 263, 264, 544, 545, 694, 700, 708]",285.125,203.40688133639924,0.0537760585777912,0.9930816373141148
8.0,4.0,32.0,100.0,32.0,2.0,0.001,1.0,240.0,1.0,"[1, 2, 4, 5, 8, 9, 10, 86, 152, 233, 297, 298, 305, 425, 426, 427, 493, 495]",204.22222222222223,188.1047449208244,-0.026502592,495.0,0.338261543930496,0.990113615849806,"[39, 40, 41, 48, 49, 51]",44.66666666666666,4.784233364802441,-0.020898933,51.0,0.0753054943052893,0.997911381701336,-0.020898933,802.0,"[1, 2, 4, 5, 10, 11, 15, 117, 127, 191, 192, 193, 275, 340, 341, 348, 469, 470, 471, 537, 539, 794, 795, 802]",293.7083333333333,261.917684137381,0.2451712122624734,0.992863819384527
8.0,3.0,32.0,100.0,32.0,2.0,0.001,1.0,240.0,1.0,"[1, 4, 67, 76, 260, 262, 322, 323, 324, 325, 328, 331, 333, 334, 335, 336, 403, 404]",264.8888888888889,127.47238868297404,-0.025856696,404.0,0.1158661970256391,0.9870334642115716,"[33, 36, 38, 43, 44, 46]",40.0,4.654746681256314,-0.020500597,46.0,0.0836500593897752,0.998148148148148,-0.020500597,695.0,"[1, 10, 78, 105, 111, 295, 297, 357, 358, 359, 360, 363, 366, 367, 369, 371, 372, 373, 374, 443, 444, 632, 693, 695]",341.375,179.07884960262615,0.0838209435410316,0.991654189717302
8.0,2.0,32.0,100.0,32.0,2.0,0.001,1.0,240.0,1.0,"[181, 182, 729, 731, 741, 742, 746, 747, 748, 749, 752, 753, 754, 755, 757, 758, 759, 760]",685.7777777777778,178.49200279488264,-0.012530914,760.0,0.0136105192390584,0.9656642070583988,"[1, 38, 41, 42, 43, 45]",35.0,15.35143858622594,-0.009006832,45.0,0.2451088014989259,0.9984018264840184,-0.009006832,813.0,"[181, 182, 420, 756, 763, 777, 778, 783, 784, 785, 786, 789, 790, 791, 792, 794, 795, 796, 797, 800, 805, 807, 808, 813]",723.8333333333334,179.8489335216889,0.0165938641683455,0.981948603427566
8.0,3.0,16.0,100.0,32.0,2.0,1e-05,1.0,240.0,1.0,"[1, 2, 13, 27, 35, 36, 37, 38, 39, 41, 44, 45, 48, 49, 52, 53, 54, 55]",37.16666666666666,16.14947539567634,-0.03381758,55.0,0.3302265877648094,0.9985953154616842,"[35, 37, 40, 54, 64, 69]",49.833333333333336,13.334374959313074,-0.023625059,69.0,0.0661301797397811,0.9976492474209367,-0.023625059,265.0,"[1, 2, 33, 61, 68, 70, 71, 72, 73, 74, 76, 79, 80, 83, 84, 88, 89, 90, 91, 92, 95, 185, 200, 265]",88.41666666666667,55.563714678636174,0.2158335821471932,0.998073474428598
8.0,2.0,16.0,100.0,32.0,2.0,1e-05,1.0,240.0,1.0,"[1, 2, 12, 31, 35, 36, 37, 38, 39, 40, 41, 42, 43, 44, 51, 55, 56, 57]",36.66666666666666,15.99652740093577,-0.037456393,57.0,0.3345438081768352,0.9986207013268344,"[4, 36, 39, 58, 59, 62]",43.0,20.11632835948615,-0.029261088,62.0,0.1054940176633772,0.9979959411466262,-0.029261088,190.0,"[1, 5, 6, 33, 66, 70, 71, 72, 73, 74, 75, 76, 77, 78, 79, 85, 89, 93, 94, 95, 98, 184, 185, 190]",82.04166666666667,47.86829079765528,0.212855554953861,0.9982352518229036
8.0,4.0,32.0,100.0,32.0,2.0,1e-05,1.0,240.0,1.0,"[2, 11, 17, 27, 35, 36, 37, 39, 44, 45, 46, 47, 50, 51, 52, 53, 54, 55]",38.94444444444444,15.0830008148328,-0.026630444,55.0,0.2475839331944613,0.9985050546078166,"[18, 36, 37, 47, 49, 50]",39.5,11.086778913041726,-0.015161439,50.0,0.083223231916241,0.9981735159817352,-0.015161439,328.0,"[12, 21, 35, 48, 62, 70, 71, 72, 74, 79, 80, 81, 82, 85, 86, 87, 88, 89, 90, 94, 95, 317, 326, 328]",103.0,86.12829577632041,0.134639694872563,0.9977033954220168
8.0,3.0,32.0,100.0,32.0,2.0,1e-05,1.0,240.0,1.0,"[1, 5, 11, 12, 35, 36, 39, 40, 41, 42, 43, 44, 46, 47, 48, 49, 53, 54]",35.888888888888886,16.21689410216974,-0.027988736,54.0,0.3124196926817125,0.9986601904504018,"[27, 36, 37, 48, 55, 56]",43.16666666666666,10.636676590405902,-0.016619055,56.0,0.0758431591764925,0.9979874852020972,-0.016619055,135.0,"[14, 21, 37, 38, 41, 70, 71, 74, 75, 76, 77, 78, 79, 81, 82, 83, 84, 88, 89, 98, 99, 117, 131, 135]",76.58333333333333,29.45182035498353,0.1520582415822463,0.9983737671082238
8.0,2.0,32.0,100.0,32.0,2.0,1e-05,1.0,240.0,1.0,"[1, 2, 6, 22, 34, 37, 38, 39, 40, 44, 45, 46, 47, 48, 51, 52, 53, 54]",36.61111111111112,16.846163060962674,-0.030050209,54.0,0.3459778435089683,0.998623521978518,"[18, 36, 37, 47, 49, 51]",39.66666666666666,11.249691353790803,-0.020577896,51.0,0.0828310750534959,0.9981650600372062,-0.020577896,415.0,"[1, 2, 8, 33, 40, 69, 70, 72, 75, 77, 78, 80, 84, 85, 86, 87, 88, 91, 92, 93, 94, 348, 353, 415]",105.04166666666669,105.27522625902492,0.2249505537506591,0.9976515843610956
8.0,4.0,16.0,100.0,32.0,2.0,0.0001,1.0,240.0,1.0,"[3, 4, 79, 80, 202, 264, 325, 327, 411, 412, 413, 414, 417, 418, 481, 482, 483, 484]",316.6111111111111,165.29876617435906,-0.024419364,484.0,0.0737048655712861,0.9844074374943588,"[7, 16, 17, 40, 41, 42]",27.166666666666668,14.205828224906693,-0.0199825,42.0,0.1348560155769625,0.9987992558768816,-0.0199825,707.0,"[7, 10, 11, 21, 22, 116, 117, 239, 301, 362, 365, 449, 450, 451, 452, 455, 456, 519, 520, 521, 522, 645, 646, 707]",348.5,220.7109723899864,0.0716568408892611,0.9914733796883722
8.0,3.0,16.0,100.0,32.0,2.0,0.0001,1.0,240.0,1.0,"[1, 2, 7, 14, 152, 153, 215, 216, 217, 218, 220, 221, 224, 226, 227, 228, 229, 230]",166.66666666666666,88.69548403886688,-0.02795179,230.0,0.1929570924254373,0.9920203763877606,"[1, 38, 39, 49, 50, 51]",38.0,17.339742404853272,-0.015666809,51.0,0.2381390612925332,0.9982496194824962,-0.015666809,745.0,"[1, 2, 3, 15, 39, 187, 188, 250, 251, 252, 253, 255, 256, 260, 262, 263, 264, 266, 267, 332, 333, 737, 738, 745]",267.4583333333333,206.1490114712063,0.1799725053127976,0.9935299615963727
8.0,2.0,16.0,100.0,32.0,2.0,0.0001,1.0,240.0,1.0,"[7, 10, 18, 30, 35, 36, 40, 41, 42, 43, 44, 45, 46, 47, 50, 51, 52, 53]",38.333333333333336,13.412266359153806,-0.030597365,53.0,0.2338097955316294,0.9985360817763336,"[18, 37, 38, 46, 53, 56]",41.333333333333336,12.565384549980507,-0.019105168,56.0,0.0794993299256932,0.998080500591916,-0.019105168,210.0,"[8, 16, 31, 39, 63, 70, 71, 75, 76, 77, 78, 79, 80, 81, 82, 86, 87, 88, 89, 90, 93, 175, 205, 210]",85.375,47.97899931219908,0.1466247568742785,0.998150662335685
8.0,4.0,32.0,100.0,32.0,2.0,0.0001,1.0,240.0,1.0,"[6, 9, 17, 18, 21, 23, 24, 25, 27, 28, 31, 33, 34, 35, 36, 37, 38, 104]",30.33333333333333,20.011108026404845,-0.015092392,104.0,0.3135898610696084,0.998942255618738,"[1, 37, 39, 40, 41, 42]",33.333333333333336,14.544949486180952,-0.012002945,42.0,0.2492975822244115,0.9984863859293084,-0.012002945,390.0,"[1, 27, 38, 53, 54, 57, 59, 60, 61, 63, 64, 65, 69, 71, 72, 73, 74, 75, 76, 77, 143, 267, 389, 390]",99.08333333333331,99.35203263591988,0.1888115347955847,0.9978027880694988
8.0,4.0,16.0,100.0,32.0,2.0,1e-05,1.0,240.0,2.0,"[2, 7, 18, 23, 35, 36, 37, 38, 39, 43, 44, 45, 48, 49, 50, 51, 52, 53]",37.22222222222222,14.815740711807363,-0.03348601,53.0,0.2622876709028124,0.9985924948100008,"[14, 36, 37, 51, 55, 66]",43.16666666666666,16.647488966474462,-0.022082258,66.0,0.0780524604054015,0.997987485202097,-0.022082258,853.0,"[13, 16, 25, 36, 41, 70, 71, 72, 73, 74, 75, 76, 80, 81, 82, 85, 86, 87, 88, 89, 90, 241, 482, 853]",124.41666666666669,177.1891448581305,0.1419220938245085,0.997159907966638
8.0,3.0,32.0,100.0,32.0,2.0,0.0001,1.0,240.0,2.0,"[7, 9, 11, 13, 76, 79, 87, 88, 89, 90, 92, 98, 99, 100, 101, 102, 105, 106]",75.11111111111111,35.711636586053025,-0.019497927,106.0,0.1477265667254194,0.996668810361946,"[33, 38, 39, 40, 41, 42]",38.833333333333336,2.9107081994288304,-0.011354877,42.0,0.0874443414238022,0.9982073397598512,-0.011354877,509.0,"[39, 42, 44, 46, 48, 111, 114, 122, 123, 124, 125, 127, 134, 135, 136, 137, 138, 142, 143, 145, 146, 147, 448, 509]",142.70833333333334,108.04377167251344,0.0924403968519627,0.9966957231555262
8.0,2.0,32.0,100.0,32.0,2.0,0.0001,1.0,240.0,2.0,"[6, 9, 13, 23, 33, 34, 35, 36, 39, 40, 43, 44, 45, 46, 47, 48, 50, 52]",35.72222222222222,13.694303582777913,-0.01693958,52.0,0.2532659811453956,0.9986686524054518,"[1, 38, 39, 42, 43, 44]",34.5,15.129992289048486,-0.010124325,44.0,0.2462392428732698,0.9984271943176052,-0.010124325,444.0,"[2, 31, 44, 48, 58, 70, 71, 72, 73, 76, 77, 80, 81, 82, 83, 84, 85, 87, 89, 93, 278, 437, 441, 444]",124.41666666666669,128.14117106621987,0.1441361581787495,0.997159907966638
8.0,4.0,16.0,100.0,32.0,2.0,0.001,1.0,240.0,2.0,"[61, 65, 70, 315, 316, 317, 318, 381, 382, 383, 384, 386, 387, 388, 389, 390, 391, 407]",318.3333333333333,116.89976713216991,-0.02666059,407.0,0.029895708336089,0.9843199972921745,"[29, 36, 37, 41, 42, 43]",38.0,4.760952285695233,-0.025381152,43.0,0.0878771456059386,0.9982496194824962,-0.025381152,572.0,"[62, 68, 87, 220, 348, 349, 350, 351, 355, 417, 418, 419, 420, 422, 423, 424, 425, 426, 427, 428, 444, 448, 449, 572]",364.6666666666667,125.6826912859877,0.0328109385177047,0.9910631206753624
8.0,3.0,16.0,100.0,32.0,2.0,0.001,1.0,240.0,2.0,"[3, 15, 17, 21, 26, 86, 88, 148, 150, 151, 152, 153, 154, 155, 156, 157, 527, 707]",159.22222222222223,174.5583492244087,-0.016231973,707.0,0.1089325408362842,0.9923983437133316,"[32, 36, 37, 40, 41, 42]",38.0,3.415650255319866,-0.016696012,42.0,0.0887824998343291,0.9982496194824962,-0.016231973,749.0,"[4, 42, 50, 52, 56, 58, 62, 63, 123, 126, 186, 188, 189, 190, 191, 192, 193, 194, 195, 566, 567, 628, 688, 749]",231.3333333333333,220.46629875989865,0.0798911829699776,0.9944467001641036
8.0,2.0,16.0,100.0,32.0,2.0,0.001,1.0,240.0,2.0,"[1, 2, 13, 21, 96, 97, 98, 100, 101, 102, 103, 104, 105, 106, 109, 110, 170, 171]",89.38888888888889,47.97584911979602,-0.0277206,171.0,0.2150064835306557,0.9959439028793212,"[25, 37, 38, 46, 47, 48]",40.16666666666666,8.029459646963936,-0.015676437,48.0,0.0818901538229402,0.9981396922036192,-0.015676437,805.0,"[1, 2, 35, 39, 52, 131, 132, 133, 135, 136, 137, 138, 139, 140, 141, 144, 145, 205, 206, 273, 333, 803, 804, 805]",217.04166666666663,233.75422975971057,0.1543670254549563,0.994809377590553
8.0,4.0,32.0,100.0,32.0,2.0,0.001,1.0,240.0,2.0,"[3, 4, 12, 82, 90, 92, 93, 98, 99, 101, 102, 103, 104, 164, 286, 287, 288, 289]",127.61111111111111,93.673273129348,-0.044782214,289.0,0.1271008438460686,0.9940032945211662,"[11, 38, 44, 48, 52, 55]",41.333333333333336,14.624940645653538,-0.030925488,55.0,0.083383429436061,0.998080500591916,-0.030925488,422.0,"[5, 7, 20, 87, 99, 116, 121, 122, 129, 132, 134, 135, 136, 137, 198, 321, 325, 326, 329, 330, 333, 347, 416, 422]",196.9583333333333,127.6451719829448,0.0846206405713807,0.9953190292510444
8.0,3.0,32.0,100.0,32.0,2.0,0.001,1.0,240.0,2.0,"[7, 11, 19, 82, 85, 89, 90, 92, 93, 97, 99, 164, 165, 166, 167, 170, 171, 172]",107.72222222222224,55.3983609420146,-0.032809928,172.0,0.0993648710237123,0.9950130878238108,"[34, 44, 45, 96, 104, 110]",72.16666666666667,31.62497255159108,-0.013183962,110.0,0.0476370035193564,0.9965161508540504,-0.013183962,814.0,"[11, 20, 52, 53, 116, 119, 124, 125, 127, 128, 134, 136, 207, 208, 209, 210, 211, 214, 218, 219, 220, 638, 738, 814]",218.79166666666663,204.8497374432185,0.0705242775712404,0.9947649681097632
8.0,2.0,32.0,100.0,32.0,2.0,0.001,1.0,240.0,2.0,"[66, 128, 372, 435, 442, 443, 444, 446, 447, 450, 454, 455, 518, 519, 520, 521, 523, 524]",428.1666666666667,124.54684526982876,-0.013652284,524.0,0.0214317720396347,0.978743568914162,"[29, 38, 39, 43, 44, 45]",39.66666666666666,5.405758246742285,-0.0069761616,45.0,0.0840050612124642,0.998165060037206,-0.0069761616,834.0,"[94, 99, 163, 407, 470, 478, 479, 480, 482, 484, 487, 491, 492, 555, 556, 557, 558, 560, 561, 563, 624, 824, 829, 834]",505.2916666666667,184.2230258786585,0.0234722273402894,0.9874945016833307
8.0,3.0,16.0,100.0,32.0,2.0,1e-05,1.0,240.0,2.0,"[1, 3, 13, 31, 34, 35, 38, 39, 40, 41, 42, 43, 44, 45, 52, 53, 54, 55]",36.833333333333336,15.589348215296807,-0.033903264,55.0,0.3142119149373023,0.9986122393717844,"[18, 36, 37, 54, 63, 71]",46.5,17.988422202442695,-0.02337566,71.0,0.0716897313141444,0.997818366311517,-0.02337566,390.0,"[1, 3, 30, 32, 66, 69, 70, 73, 74, 75, 76, 77, 78, 79, 80, 86, 87, 90, 92, 93, 94, 181, 257, 390]",93.875,79.38162701994293,0.203934965816998,0.9979349591432778
8.0,2.0,16.0,100.0,32.0,2.0,1e-05,1.0,240.0,2.0,"[1, 8, 15, 27, 30, 36, 37, 38, 39, 41, 45, 46, 47, 48, 55, 56, 57, 58]",38.0,16.10037956764443,-0.0344169,58.0,0.2844854754215007,0.9985530056864338,"[18, 39, 40, 55, 70, 73]",49.16666666666666,19.12604390760294,-0.026380228,73.0,0.0680308719692281,0.9976830711990528,-0.026380228,324.0,"[1, 8, 21, 35, 62, 65, 71, 72, 73, 74, 76, 82, 83, 84, 85, 87, 90, 95, 96, 97, 98, 237, 320, 324]",97.33333333333331,79.99930555254146,0.183456411632917,0.9978471975502884
8.0,4.0,32.0,100.0,32.0,2.0,1e-05,1.0,240.0,2.0,"[6, 7, 17, 25, 35, 36, 37, 38, 40, 42, 43, 45, 46, 47, 50, 51, 52, 53]",37.22222222222222,14.085278191373964,-0.024440818,53.0,0.2446947087353537,0.9985924948100008,"[18, 37, 38, 40, 44, 45]",37.0,8.981462390204987,-0.016373277,45.0,0.0892544458333932,0.9983003551496704,-0.016373277,113.0,"[23, 24, 26, 44, 60, 70, 71, 72, 73, 75, 78, 79, 81, 82, 83, 86, 87, 88, 89, 100, 102, 108, 112, 113]",76.08333333333333,24.98152094827072,0.1516484928725474,0.9983864555313068
8.0,3.0,32.0,100.0,32.0,2.0,1e-05,1.0,240.0,2.0,"[7, 9, 15, 23, 35, 39, 40, 41, 42, 43, 44, 45, 46, 47, 53, 54, 57, 58]",38.77777777777778,15.057502949085828,-0.025322763,58.0,0.2332864133897461,0.9985135165628668,"[18, 37, 41, 49, 50, 51]",41.0,11.474609652039003,-0.017186916,51.0,0.0803433422002801,0.998097412480974,-0.017186916,367.0,"[24, 26, 28, 33, 54, 70, 74, 75, 76, 77, 78, 79, 80, 81, 82, 88, 89, 93, 94, 95, 99, 183, 246, 367]",95.45833333333331,72.9531694346144,0.1373384823053423,0.9978947791368488
8.0,2.0,32.0,100.0,32.0,2.0,1e-05,1.0,240.0,2.0,"[1, 6, 12, 21, 34, 35, 37, 38, 42, 43, 44, 45, 46, 47, 48, 50, 53, 54]",36.44444444444444,15.5213910538622,-0.029771648,54.0,0.2994115476889849,0.998631983933568,"[1, 36, 37, 50, 51, 52]",37.833333333333336,17.714557729606334,-0.020762265,52.0,0.2383434112845877,0.9982580754270252,-0.020762265,124.0,"[1, 2, 17, 30, 54, 69, 70, 71, 73, 74, 75, 79, 80, 81, 82, 83, 84, 85, 89, 92, 93, 122, 123, 124]",73.04166666666667,32.092936874368824,0.2350700459795387,0.9984636434383934
8.0,4.0,16.0,100.0,32.0,2.0,0.0001,1.0,240.0,2.0,"[7, 12, 14, 15, 25, 28, 30, 150, 151, 152, 153, 154, 158, 159, 160, 161, 162, 163]",103.0,67.52365840536518,-0.028940558,163.0,0.1316044233775329,0.9952528432168968,"[16, 36, 37, 40, 41, 42]",35.333333333333336,8.900686615212459,-0.019030722,42.0,0.0939908331676624,0.99838491459496,-0.019030722,767.0,"[17, 35, 45, 49, 50, 60, 61, 62, 65, 67, 187, 188, 189, 190, 191, 196, 197, 198, 199, 200, 201, 764, 765, 767]",205.9583333333333,221.97249814009743,0.0836361258248461,0.9950906376355546
8.0,3.0,16.0,100.0,32.0,2.0,0.0001,1.0,240.0,2.0,"[1, 2, 67, 75, 692, 694, 695, 696, 699, 700, 701, 702, 703, 704, 705, 706, 707, 708]",553.1666666666666,276.82570730013896,-0.026349576,708.0,0.1296023257563475,0.972397102626591,"[16, 37, 38, 52, 56, 58]",42.833333333333336,14.519144449848124,-0.014857358,58.0,0.0775264149243278,0.9980043970911552,-0.014857358,944.0,"[1, 2, 19, 85, 98, 724, 726, 730, 732, 733, 734, 737, 738, 739, 740, 741, 742, 743, 744, 746, 747, 935, 942, 944]",617.5833333333334,303.68636736314363,0.1094464812817531,0.9846448933326566
8.0,2.0,16.0,100.0,32.0,2.0,0.0001,1.0,240.0,2.0,"[4, 7, 16, 26, 36, 37, 38, 39, 42, 43, 45, 46, 47, 48, 51, 52, 53, 54]",38.0,14.779866184930244,-0.030379912,54.0,0.2446258403428724,0.9985530056864338,"[1, 36, 37, 52, 54, 57]",39.5,19.03286631067428,-0.01881644,57.0,0.2352359106745071,0.9981735159817352,-0.01881644,848.0,"[4, 5, 13, 35, 61, 71, 72, 73, 74, 77, 78, 80, 81, 82, 83, 84, 87, 88, 89, 90, 91, 778, 840, 848]",161.83333333333334,251.07031994155653,0.1584290289517568,0.99621039097261
8.0,4.0,32.0,100.0,32.0,2.0,0.0001,1.0,240.0,2.0,"[1, 9, 10, 75, 77, 83, 147, 148, 149, 152, 212, 213, 216, 217, 218, 219, 220, 221]",143.72222222222223,79.02798769743649,-0.017719027,221.0,0.1384093333613188,0.9931853055329904,"[25, 34, 35, 42, 43, 44]",37.16666666666666,6.6687496745808525,-0.006169009,44.0,0.0887364360825373,0.9982918992051412,-0.006169009,917.0,"[1, 33, 34, 37, 108, 109, 111, 112, 120, 185, 186, 188, 191, 251, 252, 255, 256, 257, 258, 259, 260, 915, 916, 917]",258.7916666666667,261.5057327553048,0.1020366795026868,0.993749894263141
8.0,4.0,16.0,100.0,32.0,2.0,1e-05,1.0,240.0,3.0,"[1, 3, 14, 24, 35, 37, 38, 41, 42, 43, 46, 47, 48, 49, 50, 51, 111, 112]",44.0,28.14841617806113,-0.030682981,112.0,0.2894311725064384,0.9982483753046304,"[18, 37, 38, 54, 55, 59]",43.5,14.174507634012077,-0.02123647,59.0,0.075872509711344,0.9979705733130392,-0.02123647,785.0,"[1, 12, 29, 32, 55, 71, 72, 73, 75, 76, 80, 81, 82, 87, 88, 89, 90, 91, 92, 152, 153, 654, 717, 785]",155.70833333333334,216.2574621384325,0.1656515277544804,0.996365824155374
8.0,3.0,32.0,100.0,32.0,2.0,0.0001,1.0,240.0,3.0,"[8, 11, 15, 16, 743, 744, 747, 751, 752, 753, 754, 755, 756, 758, 759, 761, 762, 763]",589.3333333333334,308.3812575368354,-0.009419204,763.0,0.054161808840747,0.9705608583807204,"[1, 38, 39, 40, 41, 42]",33.5,14.591664287073858,-0.011289707,42.0,0.2490605030399638,0.9984779299847794,-0.009419204,807.0,"[1, 28, 36, 48, 52, 302, 423, 723, 724, 784, 787, 788, 791, 795, 796, 797, 798, 799, 800, 802, 803, 805, 806, 807]",595.625,312.4697068650549,0.07159317281726,0.9852021265797088
8.0,2.0,32.0,100.0,32.0,2.0,0.0001,1.0,240.0,3.0,"[2, 7, 18, 20, 33, 34, 37, 38, 41, 42, 45, 46, 47, 49, 51, 52, 54, 55]",37.27777777777778,15.39049329783218,-0.017699856,55.0,0.2628062163494198,0.9985896741583176,"[18, 38, 39, 43, 44, 45]",37.833333333333336,9.227073690444271,-0.010078769,45.0,0.0875171940349419,0.9982580754270252,-0.010078769,329.0,"[2, 14, 32, 42, 44, 70, 71, 74, 75, 78, 79, 82, 83, 84, 86, 88, 89, 91, 92, 181, 182, 323, 326, 329]",109.04166666666669,90.86046039883844,0.1470887972759186,0.9975500769764334
8.0,4.0,16.0,100.0,32.0,2.0,0.001,1.0,240.0,3.0,"[1, 2, 12, 79, 82, 85, 87, 149, 152, 221, 224, 225, 288, 289, 290, 291, 293, 294]",170.22222222222223,107.7097723594679,-0.02518292,294.0,0.1725985717758634,0.9918398546800252,"[1, 29, 31, 44, 45, 48]",33.0,15.989579940281942,-0.017651763,48.0,0.2487933188016614,0.9985032978183664,-0.017651763,663.0,"[1, 2, 3, 36, 47, 109, 110, 116, 123, 125, 190, 193, 263, 266, 267, 331, 332, 333, 334, 336, 337, 653, 657, 663]",242.79166666666663,194.49164060156647,0.1785783842756484,0.99415592380179
8.0,3.0,16.0,100.0,32.0,2.0,0.001,1.0,240.0,3.0,"[1, 2, 7, 8, 83, 87, 88, 89, 92, 93, 94, 96, 102, 103, 166, 167, 170, 171]",89.94444444444444,54.96713383895086,-0.020314893,171.0,0.2423982797557791,0.9959156963624876,"[9, 28, 29, 40, 41, 42]",31.5,11.528949070347508,-0.01714875,42.0,0.1084660534618482,0.9985794013191271,-0.01714875,653.0,"[1, 2, 7, 8, 18, 107, 108, 117, 121, 122, 123, 128, 129, 130, 132, 140, 141, 205, 206, 209, 210, 628, 651, 653]",179.0,186.70163362970345,0.2000010025901878,0.9957747551134344
8.0,2.0,16.0,100.0,32.0,2.0,0.001,1.0,240.0,3.0,"[1, 2, 9, 11, 566, 567, 568, 569, 633, 634, 639, 640, 641, 642, 643, 644, 645, 646]",483.3333333333333,256.9667077441918,-0.027520765,646.0,0.1644050505505037,0.9759426617925806,"[35, 40, 41, 54, 55, 56]",46.833333333333336,8.394773506308685,-0.016364688,56.0,0.0706446970674613,0.9978014544224588,-0.016364688,869.0,"[1, 2, 11, 18, 60, 601, 602, 603, 604, 668, 669, 674, 675, 676, 677, 678, 679, 680, 681, 809, 810, 840, 863, 869]",560.4166666666666,288.70860694170904,0.1241369714038306,0.9860956030384544
8.0,4.0,32.0,100.0,32.0,2.0,0.001,1.0,240.0,3.0,"[62, 65, 78, 82, 86, 89, 91, 92, 94, 95, 96, 100, 101, 102, 103, 104, 105, 106]",91.72222222222224,12.635072683937953,-0.05137606,106.0,0.0995013623997342,0.99582543550862,"[24, 34, 37, 43, 44, 52]",39.0,8.793937305515279,-0.019793153,52.0,0.0839359186657408,0.9981988838153224,-0.019793153,837.0,"[64, 67, 99, 104, 108, 112, 117, 121, 122, 125, 126, 127, 131, 132, 133, 134, 135, 136, 137, 143, 266, 580, 641, 837]",195.7083333333333,192.5472840556891,0.0774410974326136,0.9953507503087516
8.0,3.0,32.0,100.0,32.0,2.0,0.001,1.0,240.0,3.0,"[1, 78, 84, 89, 90, 91, 92, 93, 153, 273, 274, 275, 278, 280, 281, 282, 286, 287]",182.61111111111111,100.356663339029,-0.030190038,287.0,0.106985011461426,0.991210849354635,"[26, 34, 35, 42, 43, 46]",37.66666666666666,6.7494855771055295,-0.016131438,46.0,0.0874918835336369,0.998266531371554,-0.016131438,866.0,"[1, 103, 104, 113, 120, 121, 122, 123, 124, 184, 306, 307, 308, 311, 313, 314, 315, 319, 320, 324, 325, 726, 794, 866]",290.125,216.0083548731391,0.08708783138949,0.9929547530832868
8.0,2.0,32.0,100.0,32.0,2.0,0.001,1.0,240.0,3.0,"[5, 9, 636, 640, 641, 702, 704, 705, 766, 767, 768, 769, 772, 773, 774, 775, 779, 801]",654.7777777777778,234.66324702895605,-0.010930882,801.0,0.0361140142816445,0.9672381306977164,"[1, 35, 39, 43, 44, 46]",34.666666666666664,15.477582354991869,-0.008042486,46.0,0.2451933893541578,0.9984187383730764,-0.008042486,858.0,"[1, 13, 39, 48, 53, 675, 679, 680, 742, 744, 745, 806, 807, 808, 809, 812, 813, 814, 815, 819, 843, 849, 852, 858]",630.1666666666666,311.84914444148933,0.0736590495392991,0.9843255680184068
8.0,3.0,16.0,100.0,32.0,2.0,1e-05,1.0,240.0,3.0,"[1, 7, 17, 27, 34, 35, 36, 37, 38, 39, 43, 44, 45, 46, 51, 52, 53, 54]",36.61111111111112,14.735214393074726,-0.03305421,54.0,0.2935623091668173,0.9986249323043596,"[1, 36, 38, 53, 72, 77]",46.16666666666666,25.412704609221656,-0.022794766,77.0,0.2262235240760563,0.9978352782005748,-0.022794766,692.0,"[1, 2, 21, 37, 48, 69, 70, 71, 72, 73, 74, 75, 78, 83, 84, 85, 86, 91, 92, 93, 94, 301, 626, 692]",125.75,169.69856854631,0.2148266270566189,0.9971266008560457
8.0,2.0,16.0,100.0,32.0,2.0,1e-05,1.0,240.0,3.0,"[1, 13, 14, 29, 34, 36, 37, 38, 39, 40, 41, 42, 47, 48, 112, 114, 118, 119]",51.22222222222222,36.47610413461813,-0.034671046,119.0,0.2480672599213867,0.997881690585793,"[4, 37, 40, 66, 84, 87]",53.0,29.189039038652847,-0.025372185,87.0,0.0946915735708839,0.997488584474886,-0.025372185,299.0,"[1, 13, 14, 18, 47, 69, 71, 72, 73, 74, 75, 76, 77, 82, 83, 85, 151, 153, 154, 159, 161, 253, 295, 299]",106.45833333333331,80.73102417217862,0.173523117607262,0.9976156338290276
8.0,4.0,32.0,100.0,32.0,2.0,1e-05,1.0,240.0,3.0,"[3, 10, 14, 21, 35, 37, 38, 40, 41, 42, 43, 44, 47, 51, 52, 53, 54, 55]",37.77777777777778,15.255438212707244,-0.023056574,55.0,0.2477849570795437,0.9985642882931672,"[1, 36, 37, 47, 50, 51]",37.0,17.13670524536927,-0.015336621,51.0,0.2398983464064815,0.9983003551496702,-0.015336621,123.0,"[1, 11, 39, 45, 56, 70, 72, 73, 74, 76, 77, 78, 79, 80, 83, 87, 88, 89, 90, 91, 92, 111, 122, 123]",75.29166666666667,28.41138147331492,0.1941534421086604,0.9984065455345208
8.0,3.0,32.0,100.0,32.0,2.0,1e-05,1.0,240.0,3.0,"[4, 7, 17, 29, 35, 36, 37, 38, 41, 42, 43, 44, 46, 47, 49, 50, 53, 54]",37.333333333333336,14.18528188730214,-0.027743028,54.0,0.2487665686401014,0.998586853506634,"[13, 40, 41, 54, 55, 56]",43.16666666666666,14.982397078646066,-0.016840693,56.0,0.0787033051260693,0.9979874852020972,-0.016840693,130.0,"[11, 19, 20, 35, 63, 70, 71, 72, 73, 76, 77, 78, 79, 81, 82, 84, 85, 88, 89, 104, 105, 126, 129, 130]",76.95833333333333,30.894280979207497,0.153707255931441,0.9983642507909116
8.0,2.0,32.0,100.0,32.0,2.0,1e-05,1.0,240.0,3.0,"[1, 5, 10, 30, 34, 36, 37, 42, 43, 44, 45, 46, 47, 48, 51, 53, 54, 55]",37.833333333333336,16.04940289647354,-0.033159018,55.0,0.2971006866135529,0.9985614676414838,"[4, 36, 37, 49, 52, 53]",38.5,16.839932699786342,-0.022658912,53.0,0.1129384471702531,0.998224251648909,-0.022658912,123.0,"[1, 8, 9, 24, 56, 69, 71, 72, 77, 78, 79, 80, 81, 82, 83, 86, 88, 89, 90, 91, 92, 115, 120, 123]",73.5,32.06633748964793,0.210219556059572,0.9984520123839008
8.0,4.0,16.0,100.0,32.0,2.0,0.0001,1.0,240.0,3.0,"[6, 9, 10, 11, 21, 22, 23, 25, 26, 27, 113, 114, 117, 118, 119, 121, 183, 184]",69.38888888888889,60.86427422177324,-0.024937017,184.0,0.214545790281898,0.9969593374853324,"[1, 38, 39, 40, 42, 43]",33.833333333333336,14.780805871880672,-0.020062536,43.0,0.2480228597731657,0.9984610180957212,-0.020062536,765.0,"[1, 27, 42, 43, 46, 57, 58, 59, 61, 62, 63, 149, 151, 152, 155, 156, 157, 158, 160, 222, 223, 695, 763, 765]",184.375,219.21637189848147,0.1378985826440281,0.9956383545652944
8.0,3.0,16.0,100.0,32.0,2.0,0.0001,1.0,240.0,3.0,"[1, 3, 10, 14, 36, 37, 40, 41, 43, 44, 107, 108, 109, 110, 172, 173, 195, 196]",79.94444444444444,65.84702154929697,-0.025234738,196.0,0.2336411806626092,0.9964234136654933,"[1, 37, 38, 46, 47, 51]",36.66666666666666,16.69996673316713,-0.01803085,51.0,0.2406646636268617,0.998317267038728,-0.01803085,876.0,"[1, 2, 9, 33, 40, 72, 73, 76, 77, 79, 80, 81, 144, 145, 146, 147, 148, 210, 211, 233, 234, 671, 791, 876]",190.79166666666663,234.3531841698669,0.1819817513994708,0.9954755198023988
8.0,2.0,16.0,100.0,32.0,2.0,0.0001,1.0,240.0,3.0,"[5, 6, 20, 26, 34, 36, 37, 39, 41, 42, 45, 46, 49, 50, 51, 52, 55, 56]",38.333333333333336,14.873541011548737,-0.03067132,56.0,0.2412672607548161,0.9985360817763336,"[22, 36, 37, 52, 56, 57]",43.333333333333336,12.723556455994876,-0.019521395,57.0,0.0755938551991183,0.997979029257568,-0.019521395,843.0,"[15, 25, 30, 55, 61, 69, 70, 71, 73, 74, 76, 78, 79, 82, 83, 86, 87, 88, 89, 92, 93, 654, 842, 843]",158.95833333333334,237.55376218985788,0.1309504533431163,0.996283349405336
8.0,4.0,32.0,100.0,32.0,2.0,0.0001,1.0,240.0,3.0,"[11, 14, 15, 18, 19, 20, 21, 22, 23, 25, 27, 28, 33, 34, 37, 38, 40, 41]",25.88888888888889,9.109755996786504,-0.018432355,41.0,0.3406309482581114,0.9991679077534074,"[1, 36, 37, 40, 41, 42]",32.833333333333336,14.392320483121855,-0.010949677,42.0,0.2502408331676624,0.9985117537628954,-0.010949677,449.0,"[2, 46, 49, 50, 53, 54, 55, 56, 57, 58, 60, 61, 63, 65, 66, 71, 72, 75, 76, 78, 79, 388, 389, 449]",103.0,116.93873039616372,0.1754458576177078,0.9977033954220168
8.0,4.0,16.0,100.0,32.0,2.0,1e-05,1.0,240.0,4.0,"[1, 8, 9, 31, 34, 36, 37, 38, 41, 42, 43, 44, 47, 48, 50, 51, 52, 54]",37.0,15.264337522473747,-0.032788362,54.0,0.295960520251442,0.9986037774167345,"[1, 36, 37, 52, 61, 63]",41.66666666666666,20.989415321908226,-0.021751603,63.0,0.2317941703187604,0.998063588702858,-0.021751603,611.0,"[1, 2, 26, 27, 66, 69, 70, 71, 73, 74, 75, 78, 79, 80, 81, 84, 85, 89, 91, 92, 94, 360, 550, 611]",122.0,152.50300543486566,0.2145578029246355,0.9972212353448714
8.0,3.0,32.0,100.0,32.0,2.0,0.0001,1.0,240.0,4.0,"[8, 9, 190, 191, 192, 193, 255, 256, 440, 441, 442, 443, 514, 515, 516, 576, 701, 702]",365.77777777777777,205.54414382737448,-0.014840776,702.0,0.0426318751010093,0.9819111607545806,"[14, 37, 38, 42, 43, 44]",36.333333333333336,10.306416555826871,-0.009796236,44.0,0.0920517992121419,0.9983341789277864,-0.009796236,812.0,"[16, 41, 44, 225, 226, 227, 228, 290, 291, 475, 476, 477, 478, 485, 487, 553, 554, 555, 615, 740, 741, 810, 811, 812]",444.0416666666667,241.1037949318831,0.0319288252327967,0.9890488335109712
8.0,2.0,32.0,100.0,32.0,2.0,0.0001,1.0,240.0,4.0,"[6, 8, 16, 19, 30, 31, 33, 34, 35, 38, 39, 40, 41, 42, 45, 46, 48, 49]",33.333333333333336,12.701705922171763,-0.017211217,49.0,0.2695215081617271,0.9987899404278364,"[1, 36, 37, 55, 56, 57]",40.333333333333336,19.644054797543426,-0.010022457,57.0,0.2339854635907267,0.9981312362590902,-0.010022457,869.0,"[1, 18, 29, 51, 54, 60, 61, 68, 69, 71, 72, 73, 76, 77, 78, 79, 80, 83, 84, 87, 88, 867, 868, 869]",165.125,266.49848537718435,0.1791646225298771,0.9961268588539816
8.0,4.0,16.0,100.0,32.0,2.0,0.001,1.0,240.0,4.0,"[4, 8, 15, 16, 22, 23, 26, 33, 34, 158, 159, 160, 162, 163, 164, 167, 287, 408]",111.61111111111111,108.66469266555151,-0.030860493,408.0,0.1645782882380846,0.9948156422059752,"[25, 37, 38, 39, 40, 42]",36.833333333333336,5.520165053893065,-0.031822767,42.0,0.090570444649392,0.9983088110941992,-0.030860493,450.0,"[4, 8, 23, 24, 41, 44, 49, 51, 63, 64, 194, 195, 196, 198, 199, 200, 201, 202, 204, 206, 267, 328, 389, 450]",158.33333333333334,120.24893161918553,0.1144157521334993,0.9962992099341894
8.0,3.0,16.0,100.0,32.0,2.0,0.001,1.0,240.0,4.0,"[6, 7, 20, 22, 27, 41, 42, 51, 57, 58, 72, 82, 91, 92, 93, 101, 102, 103]",59.27777777777778,33.01818615981124,-0.048212375,103.0,0.1709586660427407,0.9974726960917052,"[11, 106, 119, 133, 168, 176]",118.83333333333331,54.28141691428313,-0.048773002,176.0,0.0381525168822908,0.9941484863859292,-0.048212375,281.0,"[9, 12, 30, 35, 40, 51, 82, 83, 109, 132, 133, 173, 182, 193, 211, 232, 251, 252, 253, 265, 276, 279, 280, 281]",160.16666666666666,96.2291824529106,0.0895025297121313,0.9962526857162192
8.0,2.0,16.0,100.0,32.0,2.0,0.001,1.0,240.0,4.0,"[1, 2, 3, 4, 29, 30, 37, 38, 39, 43, 103, 104, 107, 108, 168, 170, 172, 237]",77.5,69.6245885685031,-0.025965866,237.0,0.3406391232236941,0.9965475223395612,"[8, 37, 38, 42, 45, 47]",36.16666666666666,13.082006302126937,-0.018401908,47.0,0.0986683672153996,0.9983426348723152,-0.018401908,669.0,"[4, 5, 9, 11, 12, 64, 65, 72, 73, 74, 78, 139, 140, 143, 144, 204, 206, 208, 273, 393, 516, 581, 607, 669]",195.41666666666663,201.09117266111463,0.1423244380154143,0.9953581518888832
8.0,4.0,32.0,100.0,32.0,2.0,0.001,1.0,240.0,4.0,"[2, 5, 7, 11, 16, 17, 18, 19, 23, 24, 26, 27, 29, 30, 40, 302, 363, 432]",77.27777777777777,131.10293053575015,-0.028015163,432.0,0.3539882523573163,0.9965588049462948,"[28, 38, 39, 40, 46, 47]",39.66666666666666,6.236095644623235,-0.028836278,47.0,0.0836040280377882,0.9981650600372062,-0.028015163,480.0,"[2, 7, 9, 19, 40, 42, 45, 46, 47, 51, 52, 54, 55, 57, 58, 72, 339, 400, 402, 465, 468, 474, 476, 480]",173.33333333333334,189.91350370336724,0.1727933698044925,0.995918557241706
8.0,3.0,32.0,100.0,32.0,2.0,0.001,1.0,240.0,4.0,"[3, 4, 102, 105, 227, 228, 229, 493, 495, 496, 497, 498, 501, 505, 508, 509, 576, 577]",364.05555555555554,198.4286807848721,-0.025836755,577.0,0.0703185326287755,0.9819986009567648,"[36, 37, 38, 42, 43, 44]",40.0,3.1091263510296048,-0.018610705,44.0,0.0847766669370096,0.998148148148148,-0.018610705,895.0,"[3, 4, 137, 140, 141, 142, 264, 265, 266, 267, 531, 533, 534, 536, 537, 540, 544, 547, 548, 615, 616, 893, 894, 895]",433.0,260.60666402326194,0.0621740862886273,0.9893290361873824
8.0,2.0,32.0,100.0,32.0,2.0,0.001,1.0,240.0,4.0,"[6, 7, 22, 23, 266, 267, 268, 269, 275, 276, 277, 278, 518, 519, 643, 709, 719, 787]",340.5,246.79754410807607,-0.0054413457,787.0,0.0650198858996581,0.9831945572705116,"[1, 36, 37, 42, 43, 44]",33.833333333333336,14.982397078646066,-0.008589728,44.0,0.2474195730009683,0.9984610180957212,-0.0054413457,843.0,"[2, 12, 16, 48, 54, 59, 61, 304, 305, 306, 307, 314, 315, 316, 317, 557, 558, 684, 749, 751, 753, 754, 770, 843]",381.4583333333333,284.7229617199069,0.0753044815791115,0.9906370011334992
8.0,3.0,16.0,100.0,32.0,2.0,1e-05,1.0,240.0,4.0,"[3, 4, 20, 31, 35, 36, 38, 39, 40, 41, 44, 45, 46, 47, 52, 53, 54, 55]",37.94444444444444,14.864096273392857,-0.035458613,55.0,0.2600813653562865,0.9985558263381172,"[35, 38, 40, 51, 54, 57]",45.833333333333336,8.47381587925744,-0.025301551,57.0,0.0720816884258576,0.997852190089633,-0.025301551,188.0,"[14, 21, 49, 58, 66, 70, 71, 73, 74, 75, 76, 79, 80, 81, 82, 89, 90, 91, 92, 94, 95, 178, 184, 188]",86.25,41.73552643332376,0.1401480185955905,0.99812845759529
8.0,2.0,16.0,100.0,32.0,2.0,1e-05,1.0,240.0,4.0,"[2, 3, 24, 25, 34, 35, 36, 37, 38, 39, 41, 42, 43, 44, 50, 51, 52, 54]",36.11111111111112,14.3445262068416,-0.034943875,54.0,0.2887322841734606,0.998648907843668,"[1, 39, 40, 59, 67, 70]",46.0,23.437861108329265,-0.025460204,70.0,0.2257366354729117,0.997843734145104,-0.025460204,266.0,"[1, 3, 4, 45, 46, 69, 70, 71, 72, 73, 74, 76, 77, 78, 79, 86, 89, 90, 91, 92, 94, 249, 261, 266]",89.83333333333333,69.2469413684741,0.2316358457850331,0.9980375238965302
8.0,4.0,32.0,100.0,32.0,2.0,1e-05,1.0,240.0,4.0,"[8, 11, 16, 21, 36, 37, 39, 40, 41, 43, 48, 49, 53, 54, 55, 56, 57, 58]",40.11111111111112,15.70876927384082,-0.02437445,58.0,0.2232130889431271,0.9984458209224658,"[13, 36, 37, 43, 44, 46]",36.5,11.116804097101529,-0.015917905,46.0,0.0917756859364543,0.9983257229832574,-0.015917905,471.0,"[16, 27, 37, 47, 54, 71, 72, 74, 75, 76, 78, 79, 80, 85, 86, 90, 91, 92, 93, 94, 95, 227, 288, 471]",104.08333333333331,94.77953219035332,0.1330457769662145,0.9976759038386708
8.0,3.0,32.0,100.0,32.0,2.0,1e-05,1.0,240.0,4.0,"[4, 10, 15, 28, 36, 37, 38, 39, 40, 42, 45, 46, 47, 48, 52, 53, 54, 55]",38.27777777777778,14.631797776515349,-0.026675565,55.0,0.2394296481481476,0.9985389024280172,"[21, 36, 37, 54, 55, 57]",43.333333333333336,13.097921802925669,-0.01660383,57.0,0.0757503345222643,0.997979029257568,-0.01660383,158.0,"[17, 27, 35, 36, 63, 71, 72, 73, 74, 75, 77, 80, 81, 82, 83, 87, 88, 89, 90, 94, 95, 123, 128, 158]",79.08333333333333,30.439717293182746,0.1472293496216783,0.9983103249928098
8.0,2.0,32.0,100.0,32.0,2.0,1e-05,1.0,240.0,4.0,"[3, 5, 14, 21, 34, 36, 37, 38, 39, 44, 45, 46, 47, 48, 49, 50, 52, 54]",36.77777777777778,15.31359438014166,-0.030603679,54.0,0.2634026323369887,0.9986150600234678,"[11, 37, 38, 50, 51, 53]",40.0,14.39907404430345,-0.020169405,53.0,0.0858595460400472,0.9981481481481482,-0.020169405,247.0,"[6, 13, 18, 32, 42, 69, 71, 72, 73, 74, 79, 80, 81, 82, 83, 84, 85, 87, 89, 91, 92, 119, 180, 247]",81.20833333333333,49.04672871071243,0.1583372809782625,0.998256399194708
8.0,4.0,16.0,100.0,32.0,2.0,0.0001,1.0,240.0,4.0,"[4, 72, 80, 82, 143, 145, 146, 208, 271, 272, 275, 276, 455, 456, 458, 459, 521, 522]",269.1666666666667,166.47030098822765,-0.02374595,522.0,0.0491959938816866,0.9868162740319524,"[16, 38, 42, 44, 45, 47]",38.66666666666666,10.514540197058336,-0.013908533,47.0,0.0860399878107044,0.9982157957043802,-0.013908533,917.0,"[10, 86, 92, 113, 117, 179, 181, 182, 244, 307, 308, 311, 312, 491, 492, 494, 495, 557, 558, 753, 844, 847, 911, 917]",408.375,277.0347169128808,0.0361107687179245,0.9899539410242096
8.0,3.0,16.0,100.0,32.0,2.0,0.0001,1.0,240.0,4.0,"[3, 5, 11, 20, 35, 38, 39, 40, 41, 43, 44, 45, 46, 47, 52, 53, 54, 55]",37.27777777777778,15.98890433170438,-0.027606392,55.0,0.2625426140855211,0.9985896741583176,"[2, 36, 38, 46, 47, 51]",36.66666666666666,16.346933113652305,-0.017466893,51.0,0.1575815805437787,0.9983172670387284,-0.017466893,857.0,"[3, 12, 21, 33, 51, 70, 72, 75, 76, 77, 78, 79, 81, 82, 83, 84, 85, 90, 91, 92, 93, 727, 788, 857]",158.33333333333334,241.02449160937056,0.1488131656613952,0.9962992099341894
8.0,2.0,16.0,100.0,32.0,2.0,0.0001,1.0,240.0,4.0,"[1, 4, 8, 26, 36, 37, 40, 41, 42, 43, 46, 47, 48, 51, 52, 53, 113, 114]",44.55555555555556,28.954412870775982,-0.03125395,114.0,0.286326450094766,0.9982201687877968,"[1, 38, 39, 57, 65, 66]",44.333333333333336,22.373098926066447,-0.017264511,66.0,0.2279270437165174,0.997928293590394,-0.017264511,893.0,"[1, 2, 18, 26, 61, 72, 73, 76, 77, 80, 81, 82, 83, 87, 88, 89, 92, 93, 94, 155, 156, 847, 891, 893]",175.70833333333334,267.61593736277285,0.2017053279006562,0.9958582872320628
8.0,4.0,32.0,100.0,32.0,2.0,0.0001,1.0,240.0,4.0,"[4, 11, 12, 13, 14, 15, 21, 82, 86, 87, 89, 90, 93, 94, 97, 98, 100, 163]",64.94444444444444,44.826173185641615,-0.01836298,163.0,0.1988295433476421,0.9971849896200018,"[14, 38, 39, 40, 41, 42]",35.666666666666664,9.775252199076784,-0.013403589,42.0,0.0942985982780591,0.9983680027059024,-0.013403589,504.0,"[17, 18, 44, 45, 46, 47, 48, 55, 118, 122, 123, 125, 126, 129, 130, 133, 134, 136, 140, 141, 202, 264, 385, 504]",134.66666666666666,110.74131518493398,0.1043831434890937,0.996899795293441
