LSX-UniWue/explainable-ERP-fraud-detection/outputs/summary/ex2/IsolationForest_minmax.csv
bootstrap,max_features,max_samples,n_estimators,n_jobs,random_state,fraud_ranks_eval,rank_mean_eval,rank_std_eval,max_fraud_eval,min_detect_eval,auc_pr_eval,auc_roc_eval,fraud_ranks_test,rank_mean_test,rank_std_test,max_fraud_test,min_detect_test,auc_pr_test,auc_roc_test,max_fraud_joint,min_detect_joint,fraud_ranks_joint,rank_mean_joint,rank_std_joint,auc_pr_joint,auc_roc_joint
0.0,0.4,0.4,16.0,-1.0,0.0,"[1, 5, 6, 9, 10, 17, 18, 19, 21, 23, 24, 26, 30, 31, 42, 50, 71, 105]",28.22222222222222,25.047855431721,-0.6326850869899047,105.0,0.4313059587983679,0.999049440382706,"[45, 103, 148, 210, 217, 264]",164.5,74.23105818995172,-0.6031102826482119,264.0,0.0211210557749862,0.9918315575849824,-0.6031102826482119,478.0,"[1, 5, 6, 11, 13, 22, 23, 24, 27, 31, 32, 34, 43, 47, 65, 85, 96, 142, 189, 250, 253, 372, 385, 478]",109.75,135.2375225298068,0.2777889158996493,0.9975321017103992
0.0,0.4,0.8,16.0,-1.0,0.0,"[3, 9, 10, 13, 14, 18, 20, 23, 24, 28, 30, 31, 32, 33, 41, 42, 52, 63]",27.0,15.162087220725546,-0.6676176511691034,63.0,0.3459662369473556,0.9991129050455816,"[45, 105, 135, 140, 178, 191]",132.33333333333334,48.24820088758636,-0.6078455311719215,191.0,0.025261165378231,0.99346355487908,-0.6078455311719215,444.0,"[3, 9, 10, 13, 14, 18, 20, 24, 26, 33, 35, 36, 37, 38, 50, 52, 75, 96, 113, 252, 295, 301, 366, 444]",98.33333333333331,126.14861165396242,0.253507098344636,0.9978228780727132
0.0,0.4,0.8,32.0,-1.0,0.0,"[2, 4, 5, 6, 8, 9, 10, 13, 15, 16, 17, 18, 30, 33, 34, 38, 39, 44]",18.944444444444443,13.28103167939659,-0.6828356905409707,44.0,0.5542909246469618,0.999520489213828,"[80, 136, 157, 165, 174, 189]",150.16666666666666,35.27707785832356,-0.5962019824734108,189.0,0.021839708463347,0.9925587688144766,-0.5962019824734108,391.0,"[2, 4, 5, 6, 8, 9, 10, 13, 15, 16, 17, 18, 32, 35, 36, 43, 44, 51, 164, 301, 332, 343, 361, 391]",94.0,133.54587226867028,0.4242309467582026,0.9979317870375072
0.0,0.4,0.8,64.0,-1.0,0.0,"[8, 9, 10, 11, 13, 15, 17, 19, 21, 22, 27, 30, 31, 34, 40, 41, 47, 50]",24.72222222222222,13.058864828815862,-0.6775946161056778,50.0,0.3687156207305662,0.999227141438758,"[70, 111, 131, 167, 169, 174]",137.0,37.6253460670685,-0.6009154991540807,174.0,0.0238708581513586,0.993226788432268,-0.6009154991540807,364.0,"[8, 9, 10, 11, 13, 15, 17, 19, 21, 22, 27, 30, 31, 34, 43, 44, 52, 57, 155, 268, 289, 352, 356, 364]",93.625,123.81936187446614,0.2903347476999663,0.997941303354819
0.0,0.4,0.8,128.0,-1.0,0.0,"[3, 6, 7, 8, 10, 12, 16, 18, 21, 22, 23, 24, 26, 29, 37, 38, 49, 54]",22.38888888888889,14.213213292523456,-0.67593094577675,54.0,0.4348916143823437,0.9993456088094592,"[71, 98, 100, 126, 189, 208]",132.0,49.93662650466756,-0.5881233041995446,208.0,0.0252566470591286,0.993480466768138,-0.5881233041995446,453.0,"[3, 6, 7, 8, 10, 12, 16, 18, 21, 22, 23, 24, 26, 29, 37, 38, 52, 60, 158, 194, 196, 236, 420, 453]",86.20833333333333,124.76677548085024,0.3460896336817494,0.9981295149638802
0.0,0.4,0.8,256.0,-1.0,0.0,"[5, 6, 7, 9, 10, 12, 14, 18, 22, 23, 25, 26, 28, 30, 35, 38, 56, 59]",23.5,15.453334771354548,-0.6709326415284955,59.0,0.4158576803086428,0.999289195775792,"[83, 90, 96, 113, 185, 190]",126.16666666666669,44.32988708409812,-0.5932404866870845,190.0,0.0265874365795417,0.9937764248266532,-0.5932404866870845,419.0,"[5, 6, 7, 9, 10, 12, 14, 18, 22, 23, 25, 26, 28, 30, 36, 39, 66, 69, 170, 182, 189, 212, 409, 419]",84.41666666666667,117.50706243550734,0.3301074949033238,0.9981749818132604
0.0,0.4,1.0,16.0,-1.0,0.0,"[10, 14, 17, 20, 21, 23, 26, 27, 30, 32, 37, 42, 45, 46, 48, 52, 55, 57]",33.44444444444444,14.34968920384388,-0.6744222934122435,57.0,0.2620911437992771,0.9987857094503114,"[92, 171, 206, 219, 220, 385]",215.5,87.64083903447448,-0.5631863647315632,385.0,0.0156175178234321,0.989244038559107,-0.5631863647315632,938.0,"[10, 14, 17, 21, 22, 28, 43, 44, 49, 51, 59, 65, 72, 73, 76, 82, 86, 91, 180, 353, 418, 498, 499, 938]",157.875,220.59300995649585,0.1514745762939907,0.9963113696729772
0.0,0.4,1.0,32.0,-1.0,0.0,"[7, 8, 12, 16, 19, 20, 21, 23, 24, 25, 27, 32, 33, 39, 41, 42, 43, 46]",26.55555555555556,11.84258897286598,-0.6822526299253757,46.0,0.3322752690405197,0.9991340599332068,"[184, 202, 231, 244, 249, 357]",244.5,55.26526938322114,-0.5635872589809321,357.0,0.0136005453819809,0.9877727042110604,-0.5635872589809321,849.0,"[7, 8, 12, 16, 19, 20, 21, 23, 24, 25, 27, 33, 34, 44, 48, 50, 54, 58, 408, 446, 490, 543, 553, 849]",158.83333333333334,236.3705894470705,0.2452523739752835,0.9962865215111066
0.0,0.4,1.0,64.0,-1.0,0.0,"[8, 9, 13, 14, 17, 21, 23, 24, 29, 30, 31, 33, 35, 37, 38, 46, 48, 52]",28.22222222222222,12.825995978461329,-0.6830570518712789,52.0,0.3131145809345393,0.999049440382706,"[124, 145, 156, 198, 207, 210]",173.33333333333334,33.22482338386299,-0.5846694463305147,210.0,0.0190027378255844,0.991383392524945,-0.5846694463305147,500.0,"[8, 9, 13, 14, 17, 21, 23, 24, 29, 30, 31, 33, 35, 37, 38, 48, 50, 54, 289, 319, 334, 473, 494, 500]",121.79166666666669,167.89132873346642,0.2469569573737638,0.9972265221878224
0.0,0.4,1.0,128.0,-1.0,0.0,"[9, 12, 13, 15, 19, 20, 21, 25, 28, 29, 32, 33, 34, 36, 38, 44, 46, 49]",27.944444444444443,11.730644683535427,-0.6860958923983461,49.0,0.3128819231405269,0.9990635436411228,"[87, 104, 110, 131, 178, 196]",134.33333333333334,39.73523485382827,-0.5902842738969699,196.0,0.0245390388434177,0.993362083544732,-0.5902842738969699,440.0,"[9, 12, 13, 15, 19, 20, 21, 25, 28, 29, 32, 33, 34, 36, 38, 47, 49, 52, 174, 198, 207, 240, 403, 440]",90.58333333333331,120.13947334475692,0.2533242962702669,0.998018491261906
0.0,0.4,1.0,256.0,-1.0,0.0,"[10, 11, 15, 16, 18, 19, 20, 22, 28, 30, 31, 32, 35, 36, 38, 39, 51, 54]",28.05555555555556,12.416262732679009,-0.6771976501827597,54.0,0.3141999883723143,0.999057902337756,"[83, 85, 91, 120, 156, 171]",117.66666666666669,34.8791564627867,-0.5946368657404744,171.0,0.0281694953642807,0.9942076779976324,-0.5946368657404744,373.0,"[10, 11, 15, 16, 18, 19, 20, 22, 28, 30, 31, 32, 35, 36, 38, 39, 58, 62, 167, 170, 176, 222, 345, 373]",82.20833333333333,102.39628051784346,0.2563835740830077,0.9982310223485426
0.0,0.4,0.4,32.0,-1.0,0.0,"[1, 2, 3, 4, 5, 8, 9, 10, 11, 12, 14, 15, 18, 20, 51, 64, 93, 102]",24.55555555555556,30.37400610577373,-0.6191059768573612,102.0,0.7161451873026827,0.999235603393808,"[101, 128, 148, 212, 244, 278]",185.16666666666663,63.94376869997229,-0.5883159765015434,278.0,0.0177897869982033,0.9907830204633856,-0.5883159765015434,500.0,"[1, 2, 3, 4, 5, 8, 9, 10, 11, 12, 14, 15, 18, 20, 84, 122, 189, 199, 229, 232, 257, 382, 428, 500]",114.75,149.2163557835847,0.5369819204147791,0.9974052174795716
0.0,0.6,0.4,16.0,-1.0,0.0,"[5, 6, 13, 15, 16, 22, 23, 25, 30, 31, 32, 38, 41, 42, 43, 45, 86, 232]",41.388888888888886,49.65563511592045,-0.6088156071676462,232.0,0.2884091750342223,0.9983809459337484,"[13, 33, 124, 145, 297, 629]",206.8333333333333,210.09078725372248,-0.5550945585519149,629.0,0.0359471433938706,0.9896837476746152,-0.5550945585519149,1526.0,"[5, 6, 13, 15, 17, 28, 29, 31, 37, 38, 41, 48, 52, 58, 59, 61, 64, 91, 169, 258, 307, 393, 779, 1526]",171.875,329.5281111554319,0.2052917974543315,0.9959560938266592
0.0,0.6,0.4,32.0,-1.0,0.0,"[1, 6, 7, 8, 9, 10, 11, 12, 15, 16, 17, 19, 20, 23, 33, 38, 87, 89]",23.38888888888889,24.53147386270428,-0.6211416335241525,89.0,0.5420039788638099,0.9992962474050004,"[56, 61, 79, 133, 163, 456]",158.0,138.74917417171653,-0.5590421800865742,456.0,0.027087773496647,0.9921613394216134,-0.5590421800865742,1059.0,"[1, 6, 7, 8, 9, 10, 11, 12, 15, 16, 17, 19, 20, 23, 36, 44, 132, 138, 165, 166, 176, 256, 301, 1059]",110.29166666666669,215.42486686519945,0.4192630712330756,0.9975188846030216
0.0,0.6,0.4,64.0,-1.0,0.0,"[5, 8, 9, 10, 13, 14, 15, 16, 19, 21, 22, 23, 25, 26, 37, 41, 93, 98]",27.5,25.736377194762884,-0.6196544177370276,98.0,0.3975211469420468,0.9990861088545898,"[41, 48, 61, 135, 161, 231]",112.83333333333331,69.311895724247,-0.5860964909780602,231.0,0.0336494657771219,0.9944529003889736,-0.5860964909780602,447.0,"[5, 8, 9, 10, 13, 14, 15, 16, 19, 21, 22, 23, 27, 28, 43, 47, 113, 123, 140, 167, 186, 262, 299, 447]",85.70833333333333,111.81028544170503,0.311887108442925,0.998142203386963
0.0,0.6,0.4,128.0,-1.0,0.0,"[1, 2, 3, 5, 8, 12, 13, 14, 15, 16, 17, 21, 24, 25, 48, 50, 95, 98]",25.944444444444443,28.226213628513285,-0.619984494705797,98.0,0.5875091671846427,0.999165087101724,"[36, 39, 49, 118, 209, 265]",119.33333333333331,89.07425117407513,-0.5807273519664844,265.0,0.036791263058422,0.9941231185523424,-0.5807273519664844,543.0,"[1, 2, 3, 5, 8, 12, 13, 14, 15, 16, 17, 21, 24, 25, 56, 59, 109, 113, 126, 182, 191, 264, 438, 543]",94.04166666666669,139.03071578092215,0.4577090892395535,0.9979307296689168
0.0,0.6,0.4,256.0,-1.0,0.0,"[1, 2, 4, 6, 9, 11, 12, 13, 14, 15, 17, 21, 24, 25, 50, 53, 100, 108]",26.944444444444443,30.576810788973585,-0.6157887000237083,108.0,0.5713681137034818,0.9991143153714236,"[39, 47, 54, 84, 222, 232]",113.0,81.84945530260622,-0.5858599809916193,232.0,0.0366255686321717,0.9944444444444444,-0.5858599809916193,478.0,"[1, 2, 4, 6, 9, 11, 12, 13, 14, 15, 17, 21, 24, 25, 58, 65, 108, 120, 136, 183, 185, 210, 458, 478]",90.625,130.38814251431506,0.4469147081044406,0.9980174338933158
0.0,0.6,0.6,16.0,-1.0,0.0,"[16, 19, 21, 24, 26, 28, 29, 36, 39, 40, 41, 42, 43, 44, 52, 57, 66, 67]",38.333333333333336,14.776106839534334,-0.6592910561528098,67.0,0.2276756262448714,0.9985360817763336,"[8, 44, 75, 102, 185, 259]",112.16666666666669,85.48570380803773,-0.5836041650738177,259.0,0.0499772136536842,0.9944867241670896,-0.5836041650738177,714.0,"[16, 19, 21, 26, 28, 30, 31, 39, 42, 43, 44, 45, 46, 47, 59, 60, 69, 97, 101, 117, 163, 206, 519, 714]",107.58333333333331,162.4450975629065,0.1851429485836141,0.9975870848770914
0.0,0.6,0.6,32.0,-1.0,0.0,"[9, 13, 14, 17, 18, 19, 20, 21, 23, 25, 26, 28, 33, 45, 55, 58, 69, 71]",31.33333333333333,19.01461426260221,-0.6499538131712901,71.0,0.3019748452153837,0.9988928942142792,"[45, 54, 76, 91, 139, 270]",112.5,76.68278816005584,-0.5739751201116858,270.0,0.033480405444939,0.9944698122780314,-0.5739751201116858,750.0,"[9, 13, 14, 17, 18, 19, 20, 21, 23, 25, 26, 28, 35, 48, 67, 72, 104, 108, 121, 136, 165, 184, 283, 750]",96.08333333333331,152.17805269559148,0.2410637224011234,0.9978794472922904
0.0,0.6,0.6,64.0,-1.0,0.0,"[8, 9, 12, 14, 16, 19, 23, 25, 26, 27, 28, 33, 34, 35, 38, 39, 72, 85]",30.166666666666668,19.59095596328968,-0.6349859368613344,85.0,0.3135451967365003,0.9989507175737884,"[54, 58, 72, 97, 115, 209]",100.83333333333331,52.87537759255773,-0.5868336140388762,209.0,0.0346819086747989,0.9950617283950616,-0.5868336140388762,419.0,"[8, 9, 12, 14, 16, 19, 23, 25, 26, 27, 28, 33, 34, 35, 41, 42, 111, 136, 140, 146, 162, 193, 217, 419]",79.83333333333333,94.92877446918938,0.2542852699761219,0.9982912923581856
0.0,0.6,0.6,128.0,-1.0,0.0,"[6, 10, 14, 15, 16, 17, 18, 20, 21, 24, 25, 30, 31, 33, 35, 38, 77, 86]",28.666666666666668,20.57506581601461,-0.630240106139951,86.0,0.3394716709822063,0.9990268751692392,"[43, 62, 85, 91, 163, 254]",116.33333333333331,71.97607627229728,-0.5774926143300066,254.0,0.0315101556570969,0.9942753255538644,-0.5774926143300066,644.0,"[6, 10, 14, 15, 16, 17, 18, 22, 23, 26, 27, 32, 33, 35, 38, 41, 119, 122, 147, 150, 180, 188, 358, 644]",95.04166666666669,141.02525753881426,0.2621256978953489,0.9979053528227512
0.0,0.6,0.6,256.0,-1.0,0.0,"[4, 7, 10, 11, 14, 15, 16, 19, 20, 21, 22, 26, 28, 30, 34, 38, 76, 79]",26.11111111111111,20.21245185217625,-0.640515481983537,79.0,0.3859716039285051,0.999156625146674,"[44, 74, 79, 96, 209, 233]",122.5,71.64902883733549,-0.5815402757977239,233.0,0.0298450279837866,0.9939624556062912,-0.5815402757977239,552.0,"[4, 7, 10, 11, 14, 15, 16, 19, 20, 21, 22, 28, 30, 32, 36, 43, 113, 119, 125, 167, 173, 198, 494, 552]",94.54166666666669,141.76035504995355,0.3010583286200411,0.997918041245834
0.0,0.4,0.4,64.0,-1.0,0.0,"[1, 2, 3, 4, 6, 8, 10, 12, 14, 15, 16, 17, 19, 22, 34, 62, 96, 98]",24.38888888888889,29.153118546523533,-0.6181652171109585,98.0,0.6685265619212649,0.9992440653488582,"[86, 103, 117, 155, 196, 207]",144.0,45.7675285182264,-0.5978575874604969,207.0,0.0228314285478063,0.9928716387620498,-0.5978575874604969,349.0,"[1, 2, 3, 4, 6, 8, 10, 12, 14, 15, 16, 17, 19, 22, 40, 96, 174, 194, 209, 228, 232, 260, 335, 349]",94.41666666666669,115.1230923355036,0.5082007202611571,0.9979212133516048
0.0,0.6,0.8,16.0,-1.0,0.0,"[9, 15, 22, 23, 28, 32, 41, 43, 44, 45, 46, 47, 48, 51, 52, 53, 55, 59]",39.61111111111112,14.189741556212317,-0.676458188773885,59.0,0.2238382103610051,0.9984782584168246,"[22, 43, 106, 128, 143, 194]",106.0,58.62593282839941,-0.5908251899857234,194.0,0.036235155028426,0.9947995941146628,-0.5908251899857234,397.0,"[9, 15, 22, 23, 29, 36, 46, 48, 49, 50, 51, 52, 53, 56, 57, 58, 61, 69, 96, 130, 255, 284, 303, 397]",93.70833333333331,101.9777259857378,0.1808121164356246,0.9979418320391142
0.0,0.6,0.8,32.0,-1.0,0.0,"[12, 15, 16, 23, 24, 25, 28, 29, 30, 31, 32, 33, 36, 41, 45, 47, 56, 72]",33.05555555555556,14.562021464611377,-0.6567528842210344,72.0,0.2742625214752303,0.998805454012095,"[77, 86, 88, 104, 145, 183]",113.83333333333331,37.97111475260577,-0.585386408188157,183.0,0.0293441530599233,0.9944021647217997,-0.585386408188157,369.0,"[12, 15, 16, 23, 24, 25, 28, 29, 30, 31, 32, 33, 36, 41, 47, 49, 62, 88, 171, 186, 188, 214, 273, 369]",84.25,94.0838500133436,0.2256769682311088,0.9981797399719164
0.0,0.6,0.8,64.0,-1.0,0.0,"[7, 9, 10, 13, 16, 17, 21, 23, 26, 27, 33, 35, 36, 40, 41, 43, 51, 73]",28.944444444444443,16.514210117425208,-0.6518134316019282,73.0,0.3189474128305225,0.9990127719108224,"[55, 68, 76, 97, 155, 174]",104.16666666666669,44.77877721520418,-0.5929912784630902,174.0,0.0325075339395179,0.9948926095044816,-0.5929912784630902,347.0,"[7, 9, 10, 13, 16, 17, 21, 23, 26, 27, 35, 37, 38, 42, 43, 45, 57, 100, 142, 160, 169, 199, 323, 347]",79.41666666666667,94.32652360580003,0.2569404638029541,0.998301866044088
0.0,0.6,0.8,128.0,-1.0,0.0,"[7, 10, 11, 13, 14, 17, 21, 23, 25, 28, 29, 30, 31, 33, 41, 43, 58, 71]",28.05555555555556,16.43327323255481,-0.6557570415775478,71.0,0.3299523277184107,0.9990579023377562,"[37, 57, 72, 95, 208, 211]",113.33333333333331,70.17280258207037,-0.5833694189365308,211.0,0.0330601927742735,0.9944275325553864,-0.5833694189365308,446.0,"[7, 10, 11, 13, 14, 17, 21, 23, 25, 30, 31, 32, 33, 35, 43, 45, 66, 87, 120, 145, 164, 231, 442, 446]",87.125,120.98564394863824,0.2635789912549078,0.9981062528548952
0.0,0.6,0.8,256.0,-1.0,0.0,"[7, 15, 16, 17, 19, 20, 21, 22, 23, 26, 28, 29, 36, 38, 39, 40, 60, 72]",29.33333333333333,15.79732748143038,-0.6604689056990674,72.0,0.3105090581101318,0.9989930273490388,"[30, 46, 68, 78, 194, 222]",106.33333333333331,73.94066690409427,-0.5814658598087359,222.0,0.0375019192411815,0.9947826822256044,-0.5814658598087359,511.0,"[7, 15, 16, 17, 19, 20, 21, 22, 23, 28, 30, 31, 38, 40, 41, 42, 69, 84, 112, 129, 157, 171, 417, 511]",85.83333333333333,123.36486083520256,0.252088075686436,0.9981390312811924
0.0,0.6,1.0,16.0,-1.0,0.0,"[10, 13, 22, 24, 26, 30, 32, 35, 36, 38, 41, 45, 46, 47, 49, 50, 51, 53]",36.0,12.710450643291743,-0.6805761670533622,53.0,0.2430417805115732,0.9986601904504016,"[8, 27, 37, 49, 98, 152]",61.833333333333336,48.87199834488275,-0.5971482133731362,152.0,0.0753803167650285,0.9970404194148488,-0.5971482133731362,302.0,"[10, 13, 24, 26, 28, 32, 34, 38, 39, 43, 46, 50, 51, 52, 55, 56, 57, 60, 61, 100, 115, 131, 219, 302]",68.41666666666667,65.56225836731238,0.2096885381457391,0.9985831260890896
0.0,0.6,1.0,32.0,-1.0,0.0,"[9, 10, 12, 14, 15, 16, 18, 24, 25, 27, 29, 30, 32, 34, 36, 39, 60, 68]",27.666666666666668,15.705625319186328,-0.6623958319014508,68.0,0.3322243703372562,0.9990790572253814,"[62, 66, 87, 116, 133, 269]",122.16666666666669,70.38801192122293,-0.5694904123996847,269.0,0.0292160662464391,0.9939793674953492,-0.5694904123996847,682.0,"[9, 10, 12, 14, 15, 16, 18, 24, 25, 29, 31, 32, 34, 36, 38, 42, 72, 85, 144, 148, 178, 222, 249, 682]",90.20833333333331,141.25242746193385,0.2632737674540719,0.9980285362635132
0.0,0.6,1.0,64.0,-1.0,0.0,"[9, 12, 13, 14, 19, 20, 28, 29, 32, 33, 34, 36, 37, 39, 41, 44, 46, 52]",29.88888888888889,12.444940466305033,-0.6750463689924733,52.0,0.293331061229767,0.9989648208322052,"[53, 80, 84, 123, 140, 275]",125.83333333333331,72.58883446432301,-0.568024850296782,275.0,0.0282725004963845,0.9937933367157112,-0.568024850296782,725.0,"[9, 12, 13, 14, 19, 20, 30, 31, 34, 35, 36, 38, 40, 42, 45, 50, 53, 63, 133, 168, 173, 233, 266, 725]",95.08333333333331,148.95914335444095,0.2306666735341291,0.997904295454161
0.0,0.6,1.0,128.0,-1.0,0.0,"[12, 15, 19, 20, 23, 24, 26, 29, 32, 33, 34, 35, 37, 38, 41, 42, 47, 66]",31.83333333333333,12.535505130982513,-0.6619642408347919,66.0,0.2743733470868766,0.9988660980232872,"[58, 75, 80, 110, 166, 228]",119.5,59.64827463277263,-0.5766818508401994,228.0,0.0290346589570071,0.9941146626078132,-0.5766818508401994,533.0,"[14, 17, 21, 22, 25, 26, 28, 31, 34, 35, 36, 37, 39, 40, 43, 44, 54, 82, 144, 167, 174, 221, 381, 533]",93.66666666666669,124.57884607303475,0.2141815146920806,0.9979402459862288
0.0,0.6,1.0,256.0,-1.0,0.0,"[13, 18, 19, 20, 21, 23, 24, 25, 29, 31, 33, 35, 39, 40, 41, 42, 47, 69]",31.61111111111111,13.102751572300836,-0.6563769520544963,69.0,0.2787993005273793,0.9988773806300209,"[60, 62, 67, 84, 212, 227]",118.66666666666669,71.84628653513617,-0.5755606298363674,227.0,0.0318894203211466,0.9941569423304584,-0.5755606298363674,555.0,"[13, 20, 21, 22, 23, 25, 26, 27, 31, 33, 35, 37, 41, 43, 44, 45, 54, 87, 152, 154, 160, 182, 533, 555]",98.45833333333331,143.13076165016224,0.2171126973673613,0.9978186485983522
0.0,0.4,0.4,128.0,-1.0,0.0,"[3, 4, 5, 6, 7, 8, 9, 12, 13, 14, 16, 17, 19, 20, 35, 53, 89, 94]",23.55555555555556,26.769016547373948,-0.6215050257069971,94.0,0.5725486257367763,0.9992863751241088,"[54, 69, 75, 112, 187, 245]",123.66666666666669,69.61720732373252,-0.5866499375487325,245.0,0.0290743458853311,0.9939032639945882,-0.5866499375487325,561.0,"[3, 4, 5, 6, 7, 8, 9, 12, 13, 14, 16, 17, 19, 20, 42, 68, 129, 149, 156, 172, 190, 217, 354, 561]",91.29166666666669,132.98667826975085,0.4414865408392074,0.998000515995872
0.0,0.8,0.4,16.0,-1.0,0.0,"[9, 12, 16, 17, 18, 19, 21, 28, 32, 33, 34, 36, 37, 38, 59, 81, 83, 127]",38.888888888888886,29.71697773045063,-0.6480093126134907,127.0,0.2638305974228163,0.9985149268887084,"[31, 78, 100, 210, 303, 458]",196.66666666666663,147.56429860309106,-0.5755180208063864,458.0,0.0227581326751688,0.9901995602908844,-0.5755180208063864,895.0,"[9, 12, 16, 17, 18, 19, 21, 30, 34, 35, 36, 38, 39, 41, 71, 106, 118, 121, 177, 217, 262, 509, 669, 895]",146.25,223.35999529906871,0.2023007319702902,0.9966084902468322
0.0,0.8,0.4,32.0,-1.0,0.0,"[5, 6, 7, 8, 9, 11, 13, 14, 15, 16, 17, 20, 21, 22, 48, 76, 98, 113]",28.83333333333333,31.90654756907707,-0.6258750760246173,113.0,0.4608576461963264,0.999018413214189,"[60, 95, 107, 115, 265, 273]",152.5,84.17788704087711,-0.5886912733901093,273.0,0.0235642061041933,0.9924403855910704,-0.5886912733901093,630.0,"[5, 6, 7, 8, 9, 11, 13, 14, 15, 16, 17, 20, 21, 22, 59, 116, 156, 158, 185, 220, 236, 248, 618, 630]",117.08333333333331,173.05079135585856,0.3542222172195625,0.9973460048385188
0.0,0.8,0.4,64.0,-1.0,0.0,"[3, 4, 5, 8, 9, 10, 11, 12, 14, 15, 16, 17, 18, 19, 45, 50, 81, 85]",23.444444444444443,24.29957069173176,-0.6450107082225474,85.0,0.5349369035719511,0.9992920164274752,"[68, 88, 91, 105, 162, 252]",127.66666666666669,62.755256530606445,-0.5888991010031787,252.0,0.0271948579138121,0.993700321325892,-0.5888991010031787,533.0,"[3, 4, 5, 8, 9, 10, 11, 12, 14, 15, 16, 17, 18, 19, 53, 62, 121, 131, 177, 207, 212, 235, 353, 533]",93.54166666666669,131.29324023176346,0.4116539199627254,0.9979434180919996
0.0,0.8,0.4,128.0,-1.0,0.0,"[3, 4, 5, 6, 8, 9, 10, 11, 13, 15, 18, 19, 21, 23, 44, 58, 88, 97]",25.11111111111111,27.491188262764588,-0.6289487792561131,97.0,0.5357703928322513,0.9992073968769744,"[55, 62, 69, 75, 150, 201]",102.0,54.36297759811666,-0.5919595092633944,201.0,0.0350725927504726,0.9950025367833586,-0.5919595092633944,434.0,"[3, 4, 5, 6, 8, 9, 10, 11, 13, 15, 18, 19, 21, 23, 52, 81, 140, 149, 152, 165, 172, 179, 290, 434]",82.45833333333333,107.00310710701608,0.4167663950928734,0.9982246781370012
0.0,0.8,0.4,256.0,-1.0,0.0,"[1, 3, 4, 5, 7, 8, 11, 13, 14, 15, 16, 17, 20, 22, 56, 71, 92, 107]",26.77777777777778,31.16899377329185,-0.618590534289257,107.0,0.5982325886013071,0.9991227773264736,"[52, 53, 71, 72, 195, 209]",108.66666666666669,66.5749368923638,-0.5899705061539919,209.0,0.0348541424303344,0.9946642990021984,-0.5899705061539919,468.0,"[1, 3, 4, 5, 7, 8, 11, 13, 14, 15, 16, 17, 20, 22, 80, 106, 135, 138, 161, 165, 167, 201, 417, 468]",91.41666666666669,124.329842444291,0.4624015935732039,0.9979973438901012
0.0,0.8,0.6,16.0,-1.0,0.0,"[3, 4, 7, 8, 10, 13, 14, 17, 22, 23, 26, 31, 32, 34, 91, 97, 99, 135]",37.0,38.583243340427806,-0.6524491573209317,135.0,0.3942576391963263,0.9986178806751512,"[11, 54, 66, 95, 236, 357]",136.5,120.947302574303,-0.5848595011039315,357.0,0.0422498499876016,0.993252156265855,-0.5848595011039315,877.0,"[3, 4, 7, 8, 10, 15, 16, 19, 24, 25, 28, 34, 35, 37, 86, 114, 128, 134, 162, 180, 214, 234, 504, 877]",120.75,192.99767917430165,0.2983583155729638,0.99726035798271
0.0,0.8,0.6,32.0,-1.0,0.0,"[4, 5, 6, 8, 9, 11, 12, 16, 17, 23, 26, 30, 33, 37, 38, 44, 75, 80]",26.33333333333333,21.753671465346308,-0.6614917667851823,80.0,0.4338626628390841,0.9991481631916238,"[90, 97, 114, 129, 236, 257]",153.83333333333334,66.96122426864338,-0.5924822821026291,257.0,0.022264325567287,0.9923727380348384,-0.5924822821026291,592.0,"[6, 7, 8, 10, 11, 13, 14, 18, 19, 25, 28, 32, 35, 41, 43, 51, 111, 125, 199, 207, 235, 292, 562, 592]",111.83333333333331,161.79221928826558,0.2922465540978439,0.997480290649478
0.0,0.8,0.6,64.0,-1.0,0.0,"[3, 4, 5, 8, 9, 10, 11, 15, 18, 20, 24, 25, 26, 27, 33, 40, 63, 77]",23.22222222222222,19.509415264190192,-0.6554429816569254,77.0,0.4763105926994815,0.9993032990342088,"[73, 83, 93, 135, 195, 209]",131.33333333333334,53.70805857183403,-0.5957613640224649,209.0,0.0256719782395385,0.993514290546254,-0.5957613640224649,437.0,"[3, 4, 5, 8, 9, 10, 11, 15, 20, 22, 26, 27, 28, 29, 35, 44, 76, 123, 168, 186, 198, 274, 421, 437]",90.79166666666669,125.18252645858988,0.3606857048292262,0.9980132044189548
0.0,0.8,0.6,128.0,-1.0,0.0,"[3, 4, 5, 6, 7, 8, 10, 11, 13, 15, 17, 21, 29, 30, 33, 34, 81, 83]",22.77777777777778,23.143406921856112,-0.6456699837284646,83.0,0.5464355792864101,0.9993258642476758,"[54, 73, 81, 84, 173, 191]",109.33333333333331,52.51877970994968,-0.5963771844066683,191.0,0.0318145350196778,0.9946304752240824,-0.5963771844066683,385.0,"[3, 4, 5, 6, 7, 8, 10, 11, 13, 15, 17, 21, 32, 33, 36, 37, 133, 136, 139, 168, 178, 184, 348, 385]",80.375,106.04197773366292,0.4221039515521848,0.9982775465665126
0.0,0.8,0.6,256.0,-1.0,0.0,"[3, 4, 5, 6, 7, 8, 9, 12, 15, 20, 24, 26, 27, 31, 35, 36, 86, 88]",24.55555555555556,24.493133328484408,-0.640715092475445,88.0,0.5131628935819567,0.999235603393808,"[53, 62, 64, 87, 186, 203]",109.16666666666669,61.39874229620308,-0.589883630676169,203.0,0.0334027285358494,0.9946389311686116,-0.589883630676169,465.0,"[3, 4, 5, 6, 7, 8, 9, 12, 15, 22, 26, 28, 29, 33, 38, 39, 125, 134, 141, 155, 157, 190, 432, 465]",86.79166666666667,123.79182093561576,0.3950395405147642,0.998114711803617
0.0,0.4,0.4,256.0,-1.0,0.0,"[1, 2, 5, 6, 7, 8, 9, 12, 13, 15, 16, 17, 21, 23, 44, 54, 84, 85]",23.444444444444443,25.333820658080818,-0.6242043883058573,85.0,0.6226026585556992,0.9992920164274754,"[48, 56, 64, 96, 178, 196]",106.33333333333331,59.17675970251234,-0.5973435523729765,196.0,0.033965236375449,0.9947826822256046,-0.5973435523729765,365.0,"[1, 2, 5, 6, 7, 8, 9, 12, 13, 15, 16, 17, 21, 24, 55, 66, 122, 132, 140, 163, 172, 188, 337, 365]",79.0,102.093911016606,0.4813551899329263,0.9983124397299904
0.0,0.8,0.8,16.0,-1.0,0.0,"[1, 2, 9, 12, 13, 14, 15, 16, 18, 21, 22, 23, 24, 31, 46, 50, 56, 73]",24.77777777777778,18.887254831280494,-0.6650201086169799,73.0,0.489249473506904,0.9992341930679663,"[46, 67, 68, 76, 196, 240]",115.5,74.13894613044707,-0.5922421752064592,240.0,0.0331415511318773,0.9943176052765094,-0.5922421752064592,718.0,"[1, 2, 9, 12, 13, 14, 15, 16, 18, 21, 22, 23, 24, 32, 58, 64, 72, 101, 126, 159, 160, 176, 499, 718]",98.125,165.63924467045845,0.3804767373923507,0.997831337021435
0.0,0.8,0.8,32.0,-1.0,0.0,"[1, 2, 5, 6, 10, 11, 12, 13, 16, 18, 19, 20, 21, 25, 29, 40, 61, 68]",20.944444444444443,18.09994543338068,-0.6666835833313428,68.0,0.5838220050478402,0.9994217664049102,"[62, 69, 84, 89, 311, 313]",154.66666666666666,111.61043360227973,-0.5750272213829148,313.0,0.0268365241558225,0.9923304583121936,-0.5750272213829148,859.0,"[1, 2, 5, 6, 10, 11, 12, 13, 16, 18, 19, 20, 21, 25, 29, 42, 75, 89, 155, 170, 191, 196, 856, 859]",118.375,231.05677738382832,0.4538540329934777,0.9973142837808118
0.0,0.8,0.8,64.0,-1.0,0.0,"[8, 9, 10, 13, 17, 18, 19, 21, 22, 24, 25, 26, 29, 31, 32, 33, 42, 43]",23.444444444444443,10.067672257843816,-0.6951240784929228,43.0,0.3742160437363687,0.9992920164274754,"[54, 91, 96, 108, 206, 219]",129.0,61.411182477895125,-0.5850582301315217,219.0,0.026742113744624,0.99363267376966,-0.5850582301315217,627.0,"[8, 9, 10, 13, 17, 18, 19, 21, 22, 24, 25, 26, 29, 31, 32, 33, 44, 45, 139, 194, 199, 214, 611, 627]",100.41666666666669,168.1846496826892,0.3009550581252981,0.9977689522746114
0.0,0.8,0.8,128.0,-1.0,0.0,"[7, 8, 10, 11, 13, 14, 15, 17, 18, 20, 21, 25, 30, 32, 33, 34, 51, 54]",22.944444444444443,13.36027370903182,-0.6838675697510533,54.0,0.4040765797383444,0.9993174022926258,"[42, 72, 87, 96, 169, 216]",113.66666666666669,59.76249288270658,-0.5864687645373252,216.0,0.0308500505781672,0.9944106206663283,-0.5864687645373252,540.0,"[7, 8, 10, 11, 13, 14, 15, 17, 18, 20, 21, 25, 30, 32, 33, 34, 56, 59, 124, 170, 191, 200, 401, 540]",85.375,131.0237931636846,0.3253328960472967,0.9981506623356848
0.0,0.8,0.8,256.0,-1.0,0.0,"[5, 6, 8, 9, 10, 12, 16, 18, 19, 20, 22, 29, 30, 32, 33, 34, 53, 59]",23.05555555555556,14.920054446661984,-0.6739761310450922,59.0,0.4191114456729757,0.9993117609892588,"[43, 71, 76, 87, 172, 217]",111.0,61.88968680913916,-0.5842798506544853,217.0,0.032265843461648,0.9945459157787924,-0.5842798506544853,546.0,"[5, 6, 8, 9, 10, 12, 16, 18, 19, 20, 22, 31, 32, 34, 35, 36, 60, 67, 133, 169, 174, 190, 408, 546]",85.83333333333333,131.72182388992678,0.3306888289811353,0.9981390312811924
0.0,0.8,1.0,16.0,-1.0,0.0,"[16, 17, 18, 20, 24, 25, 28, 32, 33, 35, 38, 39, 42, 43, 45, 47, 48, 49]",33.27777777777778,10.993965797227917,-0.6971250978276727,49.0,0.2609549928086666,0.9987984023828864,"[11, 53, 63, 86, 204, 282]",116.5,94.86964741159314,-0.5892007114477373,282.0,0.0447603358596614,0.9942668696093352,-0.5892007114477373,736.0,"[18, 19, 20, 22, 26, 27, 30, 34, 35, 37, 41, 42, 46, 47, 49, 51, 53, 54, 70, 134, 146, 181, 513, 736]",101.29166666666669,166.04203262193047,0.212100121306449,0.997748862271397
0.0,0.8,1.0,32.0,-1.0,0.0,"[5, 7, 10, 11, 15, 16, 17, 23, 24, 26, 29, 30, 31, 37, 40, 47, 75, 162]",33.611111111111114,35.16649113524738,-0.6290613000537986,162.0,0.3360446499118457,0.9987800681469448,"[56, 59, 60, 105, 195, 228]",117.16666666666669,69.38159378073954,-0.5937795768157829,228.0,0.0319679168586394,0.9942330458312194,-0.5937795768157829,645.0,"[5, 7, 10, 11, 17, 18, 19, 25, 26, 28, 31, 32, 33, 39, 42, 52, 115, 135, 140, 141, 266, 267, 560, 645]",111.0,165.7450351192055,0.2564027283362776,0.9975019667055778
0.0,0.8,1.0,64.0,-1.0,0.0,"[7, 8, 9, 10, 11, 12, 13, 15, 17, 19, 26, 29, 34, 35, 36, 40, 51, 66]",24.33333333333333,16.152055252780958,-0.6586556088745473,66.0,0.4027893665077395,0.9992468860005416,"[57, 64, 81, 100, 140, 167]",101.5,39.96143974716961,-0.5961729107679032,167.0,0.0329122210188367,0.9950279046169458,-0.5961729107679032,499.0,"[7, 8, 9, 10, 11, 12, 13, 15, 17, 19, 28, 31, 36, 37, 38, 42, 63, 90, 145, 157, 179, 200, 304, 499]",82.08333333333333,115.2384906280112,0.3159469915339889,0.9982341944543132
0.0,0.8,1.0,128.0,-1.0,0.0,"[8, 9, 11, 13, 14, 16, 20, 22, 23, 25, 28, 30, 36, 38, 39, 40, 49, 57]",26.55555555555556,13.79702956042923,-0.6689892642577542,57.0,0.3408032395364856,0.9991340599332068,"[59, 61, 85, 95, 157, 177]",105.66666666666669,45.528989543903656,-0.5918419997950998,177.0,0.0321468095726559,0.9948165060037206,-0.5918419997950998,478.0,"[8, 9, 11, 13, 14, 16, 20, 22, 23, 25, 30, 32, 39, 42, 43, 44, 58, 79, 149, 152, 183, 195, 357, 478]",85.08333333333333,115.56668950100727,0.2669912141442892,0.9981580639158164
0.0,0.8,1.0,256.0,-1.0,0.0,"[11, 13, 14, 15, 21, 23, 24, 26, 28, 29, 32, 35, 37, 38, 40, 43, 52, 55]",29.77777777777778,12.554572232880629,-0.672188060672941,55.0,0.2943308852947994,0.9989704621355718,"[64, 67, 80, 94, 169, 194]",111.33333333333331,51.06749346589167,-0.5861698673780166,194.0,0.0310070952710221,0.9945290038897344,-0.5861698673780166,509.0,"[11, 13, 14, 15, 23, 25, 26, 28, 30, 31, 34, 37, 39, 40, 45, 48, 61, 66, 159, 162, 177, 194, 408, 509]",91.45833333333331,123.91562289405732,0.2286840735301363,0.9979962865215112
0.0,0.4,0.6,16.0,-1.0,0.0,"[7, 8, 10, 11, 14, 16, 17, 18, 19, 24, 33, 34, 35, 36, 37, 40, 46, 51]",25.33333333333333,13.408123574079177,-0.6837258482446577,51.0,0.364363764986886,0.9991975245960828,"[58, 95, 112, 118, 126, 194]",117.16666666666669,40.82653004549316,-0.6146268583720335,194.0,0.0282647341656397,0.9942330458312194,-0.6146268583720335,397.0,"[7, 8, 10, 11, 14, 16, 17, 18, 19, 25, 37, 38, 39, 41, 43, 50, 69, 76, 132, 181, 208, 219, 232, 397]",79.45833333333333,96.73890081324863,0.2759019764408232,0.9983013373597928
0.0,1.0,0.4,16.0,-1.0,0.0,"[4, 7, 9, 10, 12, 13, 15, 16, 17, 18, 22, 24, 28, 33, 39, 40, 52, 95]",25.22222222222222,21.062224097910867,-0.6341586743691541,95.0,0.4104681676921099,0.9992017555736076,"[56, 123, 134, 157, 207, 431]",184.66666666666663,118.93228699091298,-0.56392225132164,431.0,0.0200097958712844,0.9908083882969728,-0.56392225132164,1195.0,"[4, 9, 11, 12, 18, 19, 21, 23, 25, 29, 33, 35, 40, 45, 53, 54, 74, 140, 166, 248, 266, 384, 477, 1195]",140.875,252.2193675652209,0.2378082806302897,0.9967422473734964
0.0,1.0,0.4,32.0,-1.0,0.0,"[6, 8, 9, 10, 11, 12, 13, 14, 16, 17, 20, 22, 25, 27, 34, 42, 63, 127]",26.444444444444443,28.0123429585012,-0.6391031222433928,127.0,0.4296025737429294,0.9991397012365736,"[68, 79, 82, 108, 161, 213]",118.5,52.10486221713542,-0.601995724015342,213.0,0.028811609274244,0.9941653982749872,-0.601995724015342,470.0,"[8, 10, 11, 12, 13, 15, 18, 19, 21, 22, 25, 27, 31, 33, 41, 51, 82, 190, 201, 209, 212, 258, 356, 470]",97.29166666666669,123.99478455653778,0.2753595334049004,0.9978482549188789
0.0,1.0,0.4,64.0,-1.0,0.0,"[4, 6, 7, 9, 12, 13, 15, 16, 17, 18, 19, 21, 25, 28, 53, 68, 80, 123]",29.666666666666668,30.659419433511783,-0.6427199896176147,123.0,0.4129843727954602,0.9989761034389384,"[57, 101, 108, 115, 117, 220]",119.66666666666669,49.17203360538274,-0.6040756457635001,220.0,0.028318999388057,0.9941062066632844,-0.6040756457635001,477.0,"[4, 8, 9, 11, 15, 16, 18, 20, 22, 23, 24, 26, 31, 34, 65, 91, 115, 149, 186, 246, 255, 263, 265, 477]",98.875,120.10943360813366,0.2687851266371592,0.99780807491245
0.0,1.0,0.4,128.0,-1.0,0.0,"[5, 6, 7, 9, 11, 12, 16, 18, 20, 21, 22, 24, 25, 30, 64, 71, 116, 140]",34.27777777777778,37.64277347727886,-0.6220958104389988,140.0,0.3828081396434257,0.9987419893492192,"[60, 63, 79, 93, 182, 257]",122.33333333333331,72.84610871937879,-0.588743773425508,257.0,0.0300361609366078,0.9939709115508204,-0.588743773425508,555.0,"[7, 8, 9, 11, 13, 14, 19, 21, 23, 24, 27, 29, 30, 36, 85, 101, 170, 178, 182, 205, 222, 256, 383, 555]",108.66666666666669,136.26618150598563,0.2552322915274037,0.9975595932937454
0.0,1.0,0.4,256.0,-1.0,0.0,"[7, 8, 10, 11, 13, 15, 18, 19, 20, 21, 24, 25, 26, 27, 59, 63, 92, 96]",30.77777777777778,26.81118248367348,-0.6347734856974154,96.0,0.356365605023253,0.9989196904052712,"[62, 71, 73, 87, 217, 230]",123.33333333333331,71.30373217596834,-0.589221627176019,230.0,0.0300832299039833,0.9939201758836462,-0.589221627176019,496.0,"[7, 8, 10, 11, 15, 17, 20, 21, 22, 23, 26, 27, 29, 30, 78, 87, 145, 153, 164, 176, 178, 197, 460, 496]",100.0,130.68983638115603,0.2611954900688555,0.9977795259605136
0.0,1.0,0.6,16.0,-1.0,0.0,"[5, 6, 7, 9, 10, 11, 13, 15, 16, 17, 24, 25, 41, 44, 45, 50, 60, 187]",32.5,40.99491838427457,-0.618762312928907,187.0,0.406536876274442,0.9988336605289286,"[45, 104, 122, 179, 262, 327]",173.16666666666666,96.10656700882735,-0.5822073410970438,327.0,0.0209703529035602,0.991391848469474,-0.5822073410970438,909.0,"[7, 8, 9, 11, 12, 13, 15, 17, 18, 19, 28, 29, 53, 57, 58, 70, 89, 116, 237, 267, 318, 429, 637, 909]",142.75,223.1182888813316,0.2679738610025396,0.996695194471231
0.0,1.0,0.6,32.0,-1.0,0.0,"[5, 6, 11, 12, 13, 14, 15, 16, 17, 19, 29, 30, 38, 39, 44, 70, 82, 86]",30.33333333333333,24.63285971578976,-0.6625863688508615,86.0,0.3599457560893528,0.9989422556187382,"[34, 53, 54, 102, 259, 329]",138.5,113.66141239077872,-0.5848453661756985,329.0,0.0332434928274066,0.9931506849315068,-0.5848453661756985,916.0,"[7, 8, 13, 14, 15, 16, 17, 18, 19, 21, 37, 38, 52, 53, 58, 97, 114, 116, 124, 180, 181, 251, 751, 916]",129.83333333333334,222.8563937207596,0.2431807563724727,0.9970224500499076
0.0,1.0,0.6,64.0,-1.0,0.0,"[6, 9, 10, 12, 14, 15, 18, 20, 22, 23, 25, 26, 29, 30, 39, 67, 68, 71]",28.0,19.89416441516903,-0.6752642159078838,71.0,0.3530861643244347,0.9990607229894396,"[47, 66, 75, 95, 205, 255]",123.83333333333331,77.73548453284096,-0.592041287595117,255.0,0.0302674241454584,0.9938948080500593,-0.592041287595117,551.0,"[6, 11, 12, 14, 16, 17, 20, 22, 24, 25, 27, 28, 33, 34, 45, 85, 88, 91, 145, 171, 180, 206, 468, 551]",96.625,137.81231575951404,0.2565279604886925,0.9978651728163224
0.0,1.0,0.6,128.0,-1.0,0.0,"[5, 6, 15, 16, 17, 18, 19, 20, 22, 23, 24, 26, 27, 29, 31, 45, 61, 78]",26.77777777777778,17.69355047453907,-0.6660240869982271,78.0,0.3586708366579693,0.9991227773264736,"[43, 84, 90, 95, 198, 252]",127.0,72.98858358218313,-0.5878108949059568,252.0,0.0285943305527148,0.993734145104008,-0.5878108949059568,613.0,"[5, 6, 17, 18, 19, 20, 21, 22, 24, 26, 27, 29, 31, 33, 35, 54, 72, 98, 137, 216, 223, 228, 456, 613]",101.25,148.74005569000795,0.261364577679287,0.9977478049028068
0.0,1.0,0.6,256.0,-1.0,0.0,"[7, 11, 15, 16, 17, 19, 20, 21, 22, 23, 29, 30, 31, 32, 35, 55, 57, 78]",28.77777777777778,17.570668600304554,-0.659555710252357,78.0,0.3246704939988556,0.9990212338658724,"[53, 64, 66, 90, 214, 262]",124.83333333333331,81.95611969557586,-0.581905773362263,262.0,0.0310470272945631,0.9938440723828852,-0.581905773362263,629.0,"[7, 11, 17, 18, 19, 21, 22, 23, 24, 25, 33, 34, 35, 36, 39, 66, 71, 99, 151, 166, 168, 199, 477, 629]",99.58333333333331,148.97312863585685,0.2406821232387948,0.997790099646416
0.0,0.4,0.6,32.0,-1.0,0.0,"[1, 2, 4, 5, 8, 10, 12, 13, 14, 16, 17, 20, 24, 25, 30, 44, 50, 65]",20.0,17.03917055884274,-0.6639691504628358,65.0,0.6150477790183674,0.999466896831844,"[81, 110, 114, 181, 198, 226]",151.66666666666666,52.72781260608316,-0.5928975933789481,226.0,0.0217906553334261,0.9924826653137157,-0.5928975933789481,450.0,"[1, 2, 4, 5, 8, 10, 12, 13, 14, 16, 17, 20, 24, 25, 30, 49, 59, 95, 161, 204, 214, 383, 408, 450]",92.66666666666669,135.64158244759932,0.47399042025965,0.9979656228323944
0.0,1.0,0.8,16.0,-1.0,0.0,"[3, 11, 12, 18, 19, 20, 27, 28, 31, 35, 36, 43, 45, 48, 50, 56, 62, 74]",34.333333333333336,18.66369023889256,-0.6744863757344356,74.0,0.2744374444078427,0.9987405790233777,"[63, 104, 146, 152, 166, 337]",161.33333333333334,85.7897947828813,-0.5771096986920053,337.0,0.0216486926688883,0.9919922205310332,-0.5771096986920053,841.0,"[3, 13, 14, 21, 24, 25, 32, 33, 36, 40, 41, 50, 53, 56, 58, 64, 73, 101, 153, 279, 331, 343, 423, 841]",129.45833333333334,188.4789951087978,0.1929626048304397,0.997032495051515
0.0,1.0,0.8,32.0,-1.0,0.0,"[12, 13, 14, 17, 20, 22, 23, 26, 27, 28, 34, 35, 37, 40, 47, 53, 61, 73]",32.333333333333336,16.666666666666664,-0.6784772572946463,73.0,0.2792244676526193,0.998840712158137,"[49, 71, 109, 160, 187, 188]",127.33333333333331,54.70120859928254,-0.6064547926879186,188.0,0.0266254957768482,0.9937172332149502,-0.6064547926879186,443.0,"[14, 15, 16, 19, 22, 24, 25, 28, 30, 31, 41, 42, 45, 49, 57, 68, 80, 106, 142, 177, 282, 391, 441, 443]",107.83333333333331,134.52127051965508,0.1983996191364041,0.99758074066555
0.0,1.0,0.8,64.0,-1.0,0.0,"[9, 10, 14, 15, 17, 18, 19, 21, 23, 24, 27, 31, 32, 33, 39, 54, 58, 72]",28.666666666666668,16.862186493255653,-0.6759561757957099,72.0,0.3285977524695652,0.999026875169239,"[88, 90, 109, 163, 193, 206]",141.5,48.03731188704602,-0.5970661277196082,206.0,0.0234469368349694,0.9929984779299847,-0.5970661277196082,469.0,"[11, 12, 16, 17, 19, 20, 21, 23, 25, 26, 29, 33, 35, 38, 45, 68, 72, 91, 196, 201, 260, 392, 446, 469]",106.875,140.44254830712808,0.2361030166865447,0.9976050601431254
0.0,1.0,0.8,128.0,-1.0,0.0,"[7, 8, 9, 10, 16, 17, 20, 21, 23, 24, 25, 29, 31, 35, 39, 53, 63, 85]",28.61111111111111,20.036463673592948,-0.6641548614426128,85.0,0.3428783968364438,0.9990296958209224,"[62, 66, 75, 102, 186, 211]",117.0,59.45866911841648,-0.5909990017900307,211.0,0.030160914703843,0.9942415017757484,-0.5909990017900307,553.0,"[9, 10, 11, 12, 18, 19, 22, 23, 25, 26, 27, 31, 33, 38, 44, 63, 79, 107, 187, 191, 203, 243, 457, 553]",101.29166666666669,140.1470891500149,0.247939410211372,0.9977467475342164
0.0,1.0,0.8,256.0,-1.0,0.0,"[9, 10, 11, 14, 17, 18, 19, 20, 21, 26, 27, 29, 30, 38, 45, 48, 62, 78]",29.0,18.29085989109193,-0.6630848629954955,78.0,0.3262886588003783,0.9990099512591388,"[59, 83, 95, 99, 180, 223]",123.16666666666669,58.17335205133781,-0.5871791131993037,223.0,0.0279520222051988,0.9939286318281751,-0.5871791131993037,575.0,"[11, 12, 13, 16, 19, 20, 21, 22, 23, 28, 29, 31, 32, 43, 52, 56, 75, 95, 183, 213, 229, 234, 424, 575]",102.33333333333331,140.53162949631263,0.238120870371242,0.9977203133194606
0.0,1.0,1.0,16.0,-1.0,0.0,"[4, 17, 22, 25, 26, 28, 29, 30, 35, 36, 39, 41, 42, 48, 50, 51, 53, 57]",35.166666666666664,13.549292724468438,-0.6980837024480194,57.0,0.2582534123222345,0.9987053208773355,"[28, 36, 54, 107, 195, 253]",112.16666666666669,84.64714341836284,-0.5894205712215287,253.0,0.0389275025093797,0.9944867241670896,-0.5894205712215287,544.0,"[6, 19, 24, 27, 28, 30, 31, 32, 40, 41, 44, 46, 47, 53, 55, 56, 59, 66, 105, 119, 145, 255, 464, 544]",97.33333333333331,133.3568729220791,0.2006383227632155,0.9978524843932396
0.0,1.0,1.0,32.0,-1.0,0.0,"[17, 18, 20, 21, 22, 23, 24, 28, 29, 30, 32, 35, 36, 40, 42, 52, 56, 64]",32.72222222222222,13.206923922934244,-0.689893303429782,64.0,0.27567656250043,0.9988223779221952,"[44, 50, 63, 64, 150, 174]",90.83333333333331,51.271878798768,-0.6091050154848455,174.0,0.0401104020500572,0.995569085066802,-0.6091050154848455,378.0,"[19, 21, 23, 24, 25, 26, 27, 33, 34, 35, 38, 41, 43, 47, 49, 62, 68, 87, 126, 133, 175, 177, 342, 378]",84.70833333333333,94.90849942912853,0.2039682609524119,0.9981681089174236
0.0,1.0,1.0,64.0,-1.0,0.0,"[10, 13, 15, 16, 17, 18, 19, 20, 22, 25, 28, 30, 36, 40, 48, 50, 55, 78]",30.0,17.52141546793523,-0.6701112725993965,78.0,0.3102854160993996,0.9989591795288384,"[61, 70, 79, 80, 184, 205]",113.16666666666669,58.17048698056047,-0.593826795302132,205.0,0.0315636267441813,0.9944359884999154,-0.593826795302132,492.0,"[12, 15, 17, 18, 19, 20, 21, 22, 24, 27, 32, 34, 40, 48, 56, 59, 67, 104, 181, 195, 205, 206, 392, 492]",96.08333333333331,122.70999574425691,0.2260121961906834,0.9978789186079954
0.0,1.0,1.0,128.0,-1.0,0.0,"[10, 11, 13, 15, 16, 20, 21, 23, 24, 25, 26, 34, 37, 38, 44, 46, 57, 73]",29.61111111111111,16.55676729346271,-0.6704053573555137,73.0,0.3098477854133794,0.998978924090622,"[63, 72, 76, 81, 197, 210]",116.5,61.867465871274646,-0.5892846141048551,210.0,0.0310765555236716,0.9942668696093352,-0.5892846141048551,546.0,"[12, 13, 15, 17, 18, 22, 23, 26, 27, 28, 30, 39, 42, 44, 50, 52, 68, 92, 184, 196, 201, 207, 528, 546]",103.33333333333331,145.04616123458385,0.2243533418476006,0.997694936473295
0.0,1.0,1.0,256.0,-1.0,0.0,"[11, 12, 16, 19, 21, 22, 23, 26, 27, 28, 34, 36, 39, 40, 45, 46, 48, 74]",31.5,15.199597947899075,-0.6664452615935811,74.0,0.2826503509485741,0.9988830219333874,"[57, 68, 79, 86, 195, 211]",116.0,62.3431364840322,-0.5840837733779242,211.0,0.0309198300674428,0.9942922374429224,-0.5840837733779242,552.0,"[13, 14, 18, 21, 23, 24, 25, 28, 29, 30, 37, 41, 45, 46, 52, 53, 56, 90, 152, 190, 204, 215, 528, 552]",103.58333333333331,144.6763389623734,0.2105588462159909,0.9976885922617535
0.0,0.4,0.6,64.0,-1.0,0.0,"[3, 5, 6, 7, 8, 9, 13, 15, 17, 18, 19, 23, 24, 29, 32, 39, 65, 68]",22.22222222222222,18.383433228968705,-0.6690204535567674,68.0,0.4879751835469361,0.9993540707645094,"[65, 89, 112, 134, 178, 184]",127.0,43.61192497471305,-0.5999403698128218,184.0,0.0258652615573282,0.993734145104008,-0.5999403698128218,383.0,"[3, 5, 6, 7, 8, 9, 13, 15, 17, 18, 19, 23, 24, 29, 33, 42, 75, 80, 150, 179, 209, 302, 377, 383]",84.41666666666667,116.4888823975156,0.3833692856691926,0.9981749818132604
0.0,0.4,0.6,128.0,-1.0,0.0,"[2, 3, 4, 8, 9, 12, 13, 14, 15, 21, 22, 23, 25, 26, 29, 30, 45, 60]",20.05555555555556,14.508511763108128,-0.6706951192239636,60.0,0.525936442645588,0.9994640761801606,"[41, 89, 104, 105, 155, 200]",115.66666666666669,50.324502536593,-0.5939537369627196,200.0,0.0293436017453865,0.9943091493319804,-0.5939537369627196,464.0,"[2, 3, 4, 8, 9, 12, 13, 14, 15, 21, 22, 23, 25, 26, 29, 30, 48, 68, 117, 181, 199, 200, 405, 464]",80.75,122.6802245677762,0.4168701266001425,0.9982680302492006
0.0,0.4,0.6,256.0,-1.0,0.0,"[3, 4, 5, 7, 9, 10, 11, 18, 20, 22, 23, 24, 26, 28, 31, 32, 64, 70]",22.61111111111111,18.184666583840137,-0.6530426447252818,70.0,0.479476149451167,0.999334326202726,"[76, 97, 99, 103, 139, 209]",120.5,43.73309197087868,-0.5929604428203732,209.0,0.0279322983650147,0.9940639269406392,-0.5929604428203732,444.0,"[3, 4, 5, 7, 9, 10, 11, 18, 20, 22, 23, 24, 26, 28, 31, 34, 76, 91, 161, 186, 188, 194, 318, 444]",80.54166666666667,111.1339204018687,0.3782042528448298,0.9982733170921516
0.0,0.4,0.4,16.0,-1.0,1.0,"[8, 9, 10, 12, 13, 16, 18, 21, 22, 23, 24, 25, 28, 42, 54, 75, 83, 97]",32.22222222222222,26.342942456831786,-0.6407930224997888,97.0,0.3371420960834554,0.998854815416554,"[86, 106, 121, 140, 204, 210]",144.5,47.09476262459199,-0.607157746463642,210.0,0.0228236468332039,0.9928462709284628,-0.607157746463642,383.0,"[9, 10, 11, 13, 15, 18, 20, 24, 25, 26, 27, 28, 31, 54, 85, 137, 158, 175, 195, 209, 225, 249, 342, 383]",102.875,110.72801230191632,0.2332529149852903,0.9977102683178536
0.0,0.4,0.8,16.0,-1.0,1.0,"[4, 8, 9, 11, 12, 15, 18, 19, 20, 22, 29, 30, 31, 32, 45, 46, 84, 85]",28.88888888888889,22.786177313081936,-0.6557136458713347,85.0,0.3689731777647378,0.9990240545175556,"[58, 74, 118, 166, 190, 238]",140.66666666666666,63.69371153331299,-0.5944652251448833,238.0,0.0242190657000662,0.9930407576526298,-0.5944652251448833,471.0,"[4, 8, 9, 11, 12, 17, 20, 21, 22, 25, 34, 35, 37, 38, 62, 64, 135, 139, 145, 167, 230, 318, 356, 471]",99.16666666666669,123.96964234126926,0.2643182762171467,0.9978059601752696
0.0,0.4,0.8,32.0,-1.0,1.0,"[1, 2, 8, 9, 10, 11, 12, 16, 19, 23, 24, 25, 27, 30, 43, 54, 56, 61]",23.944444444444443,17.93962783654054,-0.6698749685029505,61.0,0.4992759736288299,0.9992680408881668,"[69, 92, 106, 115, 145, 201]",121.33333333333331,42.38972621861208,-0.5975326665247791,201.0,0.027274980739237,0.9940216472179942,-0.5975326665247791,393.0,"[1, 2, 9, 10, 11, 12, 13, 18, 21, 25, 26, 27, 29, 32, 52, 67, 69, 74, 157, 187, 231, 240, 290, 393]",83.16666666666667,105.24521630722964,0.3675194490427583,0.9982072315552624
0.0,0.4,0.8,64.0,-1.0,1.0,"[1, 3, 5, 7, 13, 14, 17, 18, 19, 20, 23, 24, 26, 27, 44, 49, 60, 67]",24.27777777777778,18.48364308593939,-0.6671468462901007,67.0,0.4831880307291185,0.9992497066522248,"[61, 71, 77, 78, 133, 144]",94.0,32.103997674225354,-0.6139849499856675,144.0,0.0356776997632701,0.9954084221207508,-0.6139849499856675,263.0,"[1, 3, 5, 7, 13, 14, 17, 18, 20, 21, 24, 25, 27, 28, 49, 54, 68, 84, 146, 159, 168, 169, 245, 263]",67.83333333333333,77.39437246265965,0.379851413361006,0.9985958145121724
0.0,0.4,0.8,128.0,-1.0,1.0,"[5, 6, 8, 12, 14, 15, 17, 18, 21, 22, 24, 25, 29, 30, 36, 42, 62, 65]",25.05555555555556,16.66490731454781,-0.6678705861996511,65.0,0.3855637273472995,0.9992102175286578,"[74, 82, 85, 113, 150, 167]",111.83333333333331,35.456154457144514,-0.6025465033093359,167.0,0.0296429303662358,0.9945036360561474,-0.6025465033093359,323.0,"[5, 6, 8, 12, 14, 15, 17, 18, 21, 23, 25, 26, 33, 34, 41, 48, 72, 79, 166, 175, 178, 215, 297, 323]",77.125,92.89299960169228,0.2995646922966895,0.9983600213165508
0.0,0.4,0.8,256.0,-1.0,1.0,"[7, 8, 10, 13, 16, 17, 18, 19, 21, 22, 23, 25, 27, 29, 39, 46, 61, 65]",25.88888888888889,16.295496613375832,-0.6606347834303643,65.0,0.3649779486347921,0.9991679077534074,"[71, 86, 90, 106, 166, 168]",114.5,38.495670752263386,-0.5967616835127459,168.0,0.0290407118379459,0.9943683409436832,-0.5967616835127459,302.0,"[7, 8, 10, 13, 16, 17, 18, 19, 21, 22, 23, 26, 28, 31, 43, 53, 72, 77, 163, 178, 182, 200, 298, 302]",76.125,89.80595400640205,0.2894295131544155,0.9983853981627164
0.0,0.4,1.0,16.0,-1.0,1.0,"[1, 2, 5, 6, 7, 8, 10, 12, 14, 15, 18, 19, 20, 31, 51, 67, 115, 130]",29.5,36.84841320268155,-0.624355043605481,130.0,0.5975761859549232,0.9990014893040888,"[69, 88, 114, 133, 162, 218]",130.66666666666666,49.18558957888197,-0.5927873314935388,218.0,0.0253330228507918,0.99354811432437,-0.5927873314935388,452.0,"[1, 2, 5, 6, 7, 8, 10, 12, 14, 15, 19, 20, 21, 34, 67, 109, 150, 201, 218, 235, 260, 267, 316, 452]",102.04166666666669,125.56056943651626,0.4515617805101431,0.9977345877954288
0.0,0.4,1.0,32.0,-1.0,1.0,"[1, 3, 4, 5, 7, 10, 12, 13, 19, 22, 23, 25, 27, 31, 49, 56, 63, 67]",24.27777777777778,20.531291986070528,-0.6620166791893806,67.0,0.5377549983315368,0.999249706652225,"[62, 105, 134, 140, 153, 194]",131.33333333333334,40.782621571230834,-0.5941302104169444,194.0,0.0249572855320404,0.993514290546254,-0.5941302104169444,485.0,"[1, 3, 4, 5, 7, 10, 12, 13, 19, 22, 23, 25, 28, 32, 59, 71, 86, 92, 145, 202, 329, 339, 363, 485]",98.95833333333331,136.26887611344793,0.4109366214871898,0.9978059601752692
0.0,0.4,1.0,64.0,-1.0,1.0,"[7, 9, 10, 11, 13, 16, 17, 18, 19, 20, 21, 26, 27, 30, 41, 42, 68, 69]",25.77777777777778,17.896478721169814,-0.6654518723912329,69.0,0.3782997895770399,0.999173549056774,"[72, 92, 111, 112, 150, 166]",117.16666666666669,32.14766278008749,-0.602500711229127,166.0,0.027974540618595,0.9942330458312194,-0.602500711229127,385.0,"[7, 9, 10, 11, 13, 16, 17, 18, 19, 20, 21, 26, 27, 30, 43, 44, 87, 90, 157, 183, 209, 211, 358, 385]",83.79166666666667,107.73694010825112,0.3008846895572029,0.9981908423421136
0.0,0.4,1.0,128.0,-1.0,1.0,"[7, 9, 10, 12, 13, 16, 17, 18, 20, 21, 22, 23, 27, 28, 41, 44, 66, 67]",25.61111111111111,17.37539412467108,-0.6633881258535859,67.0,0.3777428232015687,0.999182011011824,"[75, 93, 98, 103, 165, 170]",117.33333333333331,36.53613127971938,-0.5984396091925208,170.0,0.0283138423302963,0.9942245898866904,-0.5984396091925208,386.0,"[7, 9, 10, 12, 13, 16, 17, 18, 20, 21, 22, 23, 28, 30, 46, 49, 82, 83, 167, 191, 196, 202, 378, 386]",84.41666666666667,109.45353529643933,0.29697842935857,0.9981749818132604
0.0,0.4,1.0,256.0,-1.0,1.0,"[6, 7, 8, 11, 12, 15, 16, 17, 19, 21, 22, 23, 27, 31, 38, 42, 65, 67]",24.83333333333333,17.496825108827284,-0.6555205217650256,67.0,0.3959091567139432,0.9992215001353912,"[67, 75, 77, 80, 167, 171]",106.16666666666669,44.618444118498296,-0.5903966649205721,171.0,0.0325968196367931,0.9947911381701336,-0.5903966649205721,337.0,"[6, 7, 8, 11, 12, 15, 16, 17, 19, 21, 22, 23, 28, 34, 43, 47, 76, 79, 154, 165, 168, 171, 333, 337]",75.5,95.10345244346637,0.3142817045806595,0.9984012586915698
0.0,0.4,0.4,32.0,-1.0,1.0,"[2, 3, 5, 6, 7, 8, 9, 12, 16, 17, 18, 21, 22, 23, 53, 72, 76, 96]",25.88888888888889,27.5436802368103,-0.6305809954116757,96.0,0.547668621063531,0.9991679077534074,"[36, 149, 166, 184, 203, 236]",162.33333333333334,62.85079333009427,-0.595367507953999,236.0,0.0218443811411022,0.9919414848638592,-0.595367507953999,419.0,"[2, 3, 5, 6, 7, 8, 9, 12, 16, 17, 18, 21, 23, 24, 70, 98, 120, 130, 195, 262, 289, 319, 346, 419]",100.79166666666669,127.80909564876652,0.4161412484449649,0.9977594359572992
0.0,0.6,0.4,16.0,-1.0,1.0,"[3, 4, 5, 6, 7, 8, 12, 13, 14, 15, 23, 24, 36, 39, 98, 103, 137, 159]",39.22222222222222,47.97401560052594,-0.6172851406966385,159.0,0.5183269001618755,0.9985262094954418,"[51, 57, 62, 75, 90, 140]",79.16666666666667,30.041175446746788,-0.6307127825520087,140.0,0.0424714484926209,0.9961610011838322,-0.6172851406966385,350.0,"[3, 4, 5, 6, 7, 8, 12, 13, 14, 15, 23, 24, 40, 43, 111, 119, 127, 160, 187, 188, 198, 272, 280, 350]",92.04166666666669,103.03295555576165,0.4073448185554173,0.9979952291529208
0.0,0.6,0.4,32.0,-1.0,1.0,"[1, 2, 3, 4, 5, 6, 9, 11, 17, 19, 20, 23, 24, 26, 67, 69, 106, 154]",31.444444444444443,40.50270528992439,-0.6100008837449308,154.0,0.6371863742043888,0.9988886632367544,"[51, 64, 69, 98, 99, 141]",87.0,29.804921293862417,-0.6264624108992649,141.0,0.0380351120886407,0.995763571790969,-0.6100008837449308,360.0,"[1, 2, 3, 4, 5, 6, 9, 11, 17, 19, 20, 24, 25, 27, 115, 120, 128, 135, 142, 191, 193, 216, 262, 360]",84.79166666666667,98.26621120145464,0.4919384443563516,0.9981665228645384
0.0,0.6,0.4,64.0,-1.0,1.0,"[1, 2, 3, 4, 5, 7, 8, 10, 11, 12, 18, 21, 30, 32, 59, 61, 90, 96]",26.11111111111111,29.3141772467576,-0.6312750020287438,96.0,0.6738862379734846,0.999156625146674,"[48, 49, 58, 75, 132, 147]",84.83333333333333,39.88908232698377,-0.6154300389955293,147.0,0.0409003742562855,0.995873499069846,-0.6154300389955293,299.0,"[1, 2, 3, 4, 5, 7, 8, 10, 11, 12, 18, 21, 34, 36, 87, 90, 119, 121, 132, 153, 185, 198, 244, 299]",75.0,85.73700095835714,0.518877558000113,0.9984139471146528
0.0,0.6,0.4,128.0,-1.0,1.0,"[1, 2, 3, 4, 5, 6, 8, 9, 14, 17, 18, 19, 20, 21, 56, 63, 86, 89]",24.5,27.75337817275584,-0.6288556145368087,89.0,0.6931158365250646,0.9992384240454916,"[48, 62, 66, 82, 158, 170]",97.66666666666669,48.061303445588,-0.6045085653165465,170.0,0.0357110197293663,0.9952223913411128,-0.6045085653165465,346.0,"[1, 2, 3, 4, 5, 6, 8, 9, 14, 17, 18, 19, 20, 21, 72, 84, 121, 136, 140, 165, 170, 171, 328, 346]",78.33333333333333,98.45120054569618,0.5364413869285432,0.998329357627434
0.0,0.6,0.4,256.0,-1.0,1.0,"[1, 2, 3, 4, 7, 8, 10, 11, 12, 14, 18, 19, 20, 21, 51, 59, 81, 82]",23.5,25.447658700425336,-0.6326619528401786,82.0,0.6616607615032762,0.999289195775792,"[46, 48, 53, 66, 182, 185]",96.66666666666669,61.73509716702666,-0.60229132916051,185.0,0.0400867651995625,0.9952731270082869,-0.60229132916051,357.0,"[1, 2, 3, 4, 7, 8, 10, 11, 12, 14, 18, 19, 20, 21, 61, 71, 117, 119, 128, 145, 150, 155, 353, 357]",75.25,99.77735631561568,0.515987541624457,0.9984076029031111
0.0,0.6,0.6,16.0,-1.0,1.0,"[2, 3, 4, 6, 7, 20, 26, 32, 33, 34, 35, 36, 37, 39, 42, 45, 82, 95]",32.111111111111114,24.549018737775533,-0.6476452094523525,95.0,0.4091896877192253,0.998863277371604,"[24, 50, 62, 66, 151, 156]",84.83333333333333,50.38656125948224,-0.6249409383953984,156.0,0.0437056575483193,0.9958777270421106,-0.6249409383953984,282.0,"[2, 3, 4, 6, 7, 24, 30, 36, 39, 40, 41, 42, 44, 46, 50, 54, 83, 128, 143, 144, 151, 190, 276, 282]",77.70833333333333,79.85741416563789,0.3120348967188043,0.9983510336835338
0.0,0.6,0.6,32.0,-1.0,1.0,"[2, 4, 5, 6, 7, 8, 9, 10, 16, 26, 28, 29, 32, 39, 43, 61, 64, 90]",26.61111111111111,24.1480132352514,-0.6513768085281897,90.0,0.49469319110527,0.9991340599332068,"[26, 55, 67, 89, 128, 204]",94.83333333333331,57.9523271510491,-0.6071061909872335,204.0,0.0388365631931268,0.9953661423981058,-0.6071061909872335,382.0,"[2, 4, 5, 6, 7, 8, 9, 10, 16, 29, 31, 33, 38, 47, 54, 85, 87, 97, 128, 142, 176, 179, 248, 382]",75.95833333333333,91.9272716003738,0.3795236559865825,0.9983912136899626
0.0,0.6,0.6,64.0,-1.0,1.0,"[3, 6, 7, 8, 10, 11, 12, 15, 16, 18, 20, 21, 23, 29, 32, 48, 58, 76]",22.944444444444443,19.048103499130303,-0.6567396145016822,76.0,0.4653804629560994,0.9993174022926256,"[23, 49, 69, 93, 139, 187]",93.33333333333331,55.322288054233226,-0.6010392743240045,187.0,0.0398067309128039,0.9954422458988668,-0.6010392743240045,397.0,"[3, 6, 7, 8, 10, 11, 12, 15, 16, 18, 20, 21, 23, 29, 33, 57, 70, 95, 117, 131, 157, 194, 321, 397]",73.79166666666667,101.01607923439164,0.3711136214558519,0.9984446108037692
0.0,0.6,0.6,128.0,-1.0,1.0,"[3, 6, 7, 9, 10, 11, 14, 15, 17, 18, 20, 22, 24, 25, 30, 48, 75, 80]",24.11111111111111,21.4473227774701,-0.6430243175848547,80.0,0.4547532750473927,0.999258168607275,"[27, 63, 74, 98, 145, 192]",99.83333333333331,54.569272998231845,-0.5963933384361751,192.0,0.0359787824124852,0.9951124640622356,-0.5963933384361751,407.0,"[3, 6, 7, 9, 10, 11, 14, 15, 17, 18, 20, 22, 24, 25, 31, 54, 94, 113, 135, 147, 161, 196, 306, 407]",76.875,102.18827089413604,0.3614364839523964,0.998366365528092
0.0,0.6,0.6,256.0,-1.0,1.0,"[3, 4, 5, 7, 9, 12, 13, 15, 16, 17, 19, 25, 28, 31, 35, 46, 68, 77]",23.88888888888889,20.56936473088313,-0.6536261526493443,77.0,0.4732142978587076,0.9992694512140086,"[35, 52, 70, 79, 203, 229]",111.33333333333331,75.66299550565579,-0.5887538877226007,229.0,0.0352257394194802,0.9945290038897344,-0.5887538877226007,522.0,"[3, 4, 5, 7, 9, 12, 13, 15, 16, 17, 19, 25, 28, 31, 40, 52, 89, 108, 114, 139, 164, 173, 424, 522]",84.54166666666667,128.73583390243587,0.3735022535953462,0.9981718097074896
0.0,0.4,0.4,64.0,-1.0,1.0,"[1, 4, 7, 10, 12, 13, 14, 15, 16, 17, 18, 19, 20, 22, 52, 67, 70, 73]",25.0,22.5905584998099,-0.6585327955094928,73.0,0.4964777151669108,0.9992130381803412,"[39, 105, 114, 121, 186, 188]",125.5,51.025320511813874,-0.6089188861828598,188.0,0.0271431499081878,0.9938102486047692,-0.6089188861828598,322.0,"[1, 4, 7, 10, 12, 13, 14, 15, 16, 17, 18, 19, 20, 22, 63, 91, 98, 108, 113, 207, 220, 229, 320, 322]",81.625,99.8272727014016,0.3865269947400428,0.9982458255088058
0.0,0.6,0.8,16.0,-1.0,1.0,"[5, 6, 11, 12, 14, 17, 23, 29, 30, 31, 32, 34, 35, 40, 46, 48, 53, 75]",30.05555555555556,17.70270607757853,-0.6899567969813444,75.0,0.3199923605174208,0.9989718724614136,"[47, 52, 74, 111, 116, 196]",99.33333333333331,50.62827492836609,-0.6061176760076732,196.0,0.0350050673261028,0.9951378318958228,-0.6061176760076732,352.0,"[5, 6, 11, 12, 14, 18, 24, 34, 35, 36, 37, 39, 40, 45, 56, 58, 63, 97, 131, 137, 164, 213, 218, 352]",76.875,83.98428052320267,0.245464311589373,0.9983732384239288
0.0,0.6,0.8,32.0,-1.0,1.0,"[8, 12, 14, 18, 21, 22, 24, 31, 32, 35, 37, 38, 41, 42, 44, 45, 49, 52]",31.38888888888889,12.970645871389276,-0.7037006412473177,52.0,0.2791668493491094,0.9988900735625958,"[48, 58, 70, 88, 130, 180]",95.66666666666669,46.00603825103348,-0.6114065663422114,180.0,0.0359037753434305,0.9953238626754608,-0.6114065663422114,328.0,"[8, 12, 14, 18, 22, 24, 28, 35, 36, 40, 42, 43, 48, 49, 51, 52, 58, 61, 131, 145, 159, 184, 248, 328]",76.5,79.93695432443413,0.2161224911973482,0.9983764105296994
0.0,0.6,0.8,64.0,-1.0,1.0,"[10, 11, 13, 18, 20, 25, 26, 28, 29, 32, 33, 34, 39, 40, 41, 43, 56, 65]",31.27777777777778,14.359687227929117,-0.6738509517317683,65.0,0.2828138082091698,0.998894304540121,"[35, 49, 58, 97, 160, 218]",102.83333333333331,65.92272412116746,-0.5914768648655053,218.0,0.0368536570358256,0.9949602570607136,-0.5914768648655053,464.0,"[10, 11, 13, 18, 20, 25, 26, 28, 29, 33, 34, 35, 42, 43, 44, 47, 63, 75, 116, 135, 147, 201, 328, 464]",82.79166666666667,107.41778994757908,0.2321622788522279,0.9982162191882792
0.0,0.6,0.8,128.0,-1.0,1.0,"[5, 9, 13, 17, 19, 20, 21, 23, 24, 27, 29, 32, 34, 36, 38, 41, 54, 58]",27.77777777777778,13.810445143503824,-0.6834517045287524,58.0,0.3229814343263241,0.9990720055961728,"[40, 44, 51, 105, 186, 188]",102.33333333333331,63.59944094792728,-0.5956558703804261,188.0,0.0376949878347795,0.9949856248943006,-0.5956558703804261,373.0,"[5, 9, 13, 17, 19, 20, 21, 23, 24, 27, 29, 33, 35, 37, 39, 42, 60, 65, 124, 128, 136, 206, 370, 373]",77.29166666666667,100.94944244796775,0.266405837645585,0.9983557918421898
0.0,0.6,0.8,256.0,-1.0,1.0,"[5, 7, 13, 14, 16, 20, 21, 22, 24, 30, 32, 33, 36, 37, 42, 44, 51, 61]",28.22222222222222,14.830732189745408,-0.6732001255021892,61.0,0.3231150670529086,0.999049440382706,"[54, 57, 58, 82, 187, 215]",108.83333333333331,66.305898849365,-0.5890940350338626,215.0,0.0347926347018835,0.9946558430576696,-0.5890940350338626,503.0,"[5, 7, 13, 14, 16, 20, 21, 22, 24, 30, 35, 36, 39, 40, 46, 48, 59, 69, 140, 143, 144, 174, 429, 503]",86.54166666666667,124.19137757464844,0.2586895822320775,0.9981210560151584
0.0,0.6,1.0,16.0,-1.0,1.0,"[6, 7, 11, 13, 14, 15, 16, 25, 26, 27, 28, 29, 38, 39, 40, 47, 48, 57]",27.0,14.742229591663987,-0.712426798954426,57.0,0.3593124737620239,0.9991255979781568,"[8, 67, 114, 131, 137, 180]",106.16666666666669,55.15256617380152,-0.6064045425003258,180.0,0.0469217617642793,0.9947911381701336,-0.6064045425003258,392.0,"[6, 7, 11, 13, 14, 15, 16, 25, 26, 27, 28, 29, 38, 39, 40, 50, 51, 60, 74, 188, 256, 282, 313, 392]",83.33333333333333,109.70022282971394,0.2945195115238437,0.9982082889238526
0.0,0.6,1.0,32.0,-1.0,1.0,"[14, 16, 18, 20, 27, 28, 29, 30, 31, 32, 35, 37, 40, 41, 42, 48, 52, 53]",32.94444444444444,11.389430881412345,-0.7024449726642024,53.0,0.2660159166919279,0.9988110953154616,"[10, 73, 76, 90, 165, 178]",98.66666666666669,57.45046175232672,-0.605984704457481,178.0,0.0458877140667521,0.9951716556739388,-0.605984704457481,378.0,"[14, 16, 18, 20, 27, 28, 29, 30, 31, 33, 36, 38, 43, 44, 45, 51, 57, 58, 80, 157, 164, 185, 363, 378]",81.04166666666667,98.6240670283994,0.2230388464488789,0.9982611573533642
0.0,0.6,1.0,64.0,-1.0,1.0,"[11, 12, 15, 17, 19, 20, 25, 26, 27, 28, 31, 33, 35, 38, 40, 46, 58, 59]",30.0,13.81223290340044,-0.6795227796293372,59.0,0.295196402583177,0.9989591795288384,"[23, 55, 61, 63, 169, 176]",91.16666666666669,59.03788802305027,-0.5960802463642659,176.0,0.0426984994169324,0.995552173177744,-0.5960802463642659,467.0,"[11, 12, 15, 17, 19, 20, 27, 28, 29, 30, 33, 35, 37, 41, 43, 50, 63, 64, 98, 142, 148, 151, 454, 467]",84.75,120.56611256899676,0.2399156554438389,0.9981665228645384
0.0,0.6,1.0,128.0,-1.0,1.0,"[8, 11, 12, 14, 17, 18, 20, 23, 27, 28, 30, 31, 32, 33, 38, 39, 53, 55]",27.166666666666668,13.05650114778926,-0.6801583817396883,55.0,0.3275312381708616,0.99910303276469,"[51, 57, 72, 77, 156, 168]",96.83333333333331,47.01565932986819,-0.5993148865207594,168.0,0.0360126414692978,0.9952646710637578,-0.5993148865207594,370.0,"[8, 11, 12, 14, 17, 18, 20, 23, 27, 29, 31, 32, 33, 34, 41, 42, 62, 65, 134, 141, 158, 167, 345, 370]",76.41666666666667,97.00683681518991,0.2649687665004045,0.9983779965825847
0.0,0.6,1.0,256.0,-1.0,1.0,"[11, 12, 13, 14, 19, 20, 21, 22, 29, 30, 31, 33, 35, 39, 41, 44, 49, 52]",28.61111111111111,12.561576727327791,-0.682559634340325,52.0,0.3082958707910592,0.9990296958209224,"[53, 54, 68, 74, 178, 179]",101.0,55.29315810598391,-0.5946570879906203,179.0,0.0359476838985486,0.9950532724505328,-0.5946570879906203,451.0,"[11, 12, 13, 14, 19, 20, 21, 22, 30, 33, 34, 36, 38, 42, 45, 48, 55, 59, 139, 140, 155, 164, 450, 451]",85.45833333333333,119.24553771059482,0.245994375974684,0.9981485475985044
0.0,0.4,0.4,128.0,-1.0,1.0,"[4, 7, 8, 10, 12, 13, 14, 15, 17, 18, 20, 21, 24, 26, 59, 64, 80, 90]",27.88888888888889,25.54492532532721,-0.6322006413115558,90.0,0.4125285629003642,0.9990663642928064,"[64, 85, 94, 112, 213, 226]",132.33333333333334,63.342104655767656,-0.5974540826938264,226.0,0.0261344070110234,0.99346355487908,-0.5974540826938264,408.0,"[4, 7, 8, 10, 12, 13, 14, 15, 17, 18, 20, 21, 26, 28, 76, 85, 133, 146, 158, 178, 193, 217, 389, 408]",91.5,114.33138968221571,0.3177546900580668,0.9979952291529208
0.0,0.8,0.4,16.0,-1.0,1.0,"[16, 21, 24, 25, 26, 27, 28, 29, 35, 42, 45, 47, 49, 52, 155, 209, 417, 516]",97.94444444444444,139.92675553152887,-0.5920517533856333,516.0,0.1756471657513987,0.9955109328459248,"[22, 41, 185, 242, 411, 460]",226.8333333333333,166.7107441715207,-0.5753483486403864,460.0,0.0253648505796664,0.9886690343311348,-0.5753483486403864,1053.0,"[21, 26, 34, 35, 36, 37, 38, 39, 47, 57, 61, 65, 69, 73, 76, 136, 245, 375, 407, 576, 687, 852, 979, 1053]",251.0,323.26897985011385,0.1144164131334227,0.9939486795581044
0.0,0.8,0.4,32.0,-1.0,1.0,"[6, 7, 8, 12, 13, 14, 16, 18, 21, 25, 29, 32, 36, 39, 194, 282, 286, 300]",74.33333333333333,104.47859961627442,-0.5876157089759682,300.0,0.300683917919552,0.9967082994855132,"[32, 58, 103, 110, 188, 339]",138.33333333333334,102.0990804181028,-0.5803143277290054,339.0,0.0292529113836096,0.993159140876036,-0.5803143277290054,716.0,"[6, 7, 8, 12, 13, 14, 17, 19, 24, 29, 35, 38, 45, 49, 126, 162, 255, 271, 342, 420, 528, 539, 577, 716]",177.16666666666666,218.45550017235905,0.2224695553763505,0.9958212793314049
0.0,0.8,0.4,64.0,-1.0,1.0,"[2, 3, 4, 5, 7, 11, 12, 13, 14, 21, 22, 24, 30, 33, 129, 177, 179, 191]",48.72222222222222,65.82198683279991,-0.6163567376986822,191.0,0.4748686503598402,0.9980086199115444,"[67, 83, 98, 103, 196, 236]",130.5,62.61189982742897,-0.5983881380502,236.0,0.0265671479876598,0.993556570268899,-0.5983881380502,501.0,"[2, 3, 4, 5, 7, 11, 12, 13, 14, 21, 22, 25, 33, 36, 172, 209, 226, 227, 232, 293, 297, 338, 445, 501]",131.16666666666666,152.58567720755735,0.3650342852808858,0.9969886142550204
0.0,0.8,0.4,128.0,-1.0,1.0,"[2, 6, 7, 9, 10, 11, 13, 15, 16, 17, 19, 22, 25, 27, 76, 80, 190, 210]",41.94444444444444,59.73875740089066,-0.6057155612890845,210.0,0.4283228189493239,0.9983527394169148,"[56, 58, 60, 71, 191, 239]",112.5,73.94310876162385,-0.5944811722670578,239.0,0.0349934237714185,0.9944698122780312,-0.5944811722670578,508.0,"[2, 6, 7, 9, 10, 11, 13, 15, 16, 17, 19, 22, 27, 30, 121, 130, 140, 143, 145, 187, 345, 394, 432, 508]",114.54166666666669,149.3683866504407,0.3331837025242862,0.9974105043225228
0.0,0.8,0.4,256.0,-1.0,1.0,"[3, 4, 6, 9, 10, 11, 13, 14, 17, 18, 19, 24, 26, 27, 61, 63, 91, 140]",30.88888888888889,35.023625183405194,-0.6246046729495338,140.0,0.4406005638344763,0.9989140491019044,"[56, 62, 63, 77, 212, 214]",114.0,70.28750481652719,-0.598125350142433,214.0,0.0335507659630531,0.9943937087772704,-0.598125350142433,468.0,"[3, 4, 6, 9, 10, 11, 13, 14, 17, 18, 19, 27, 30, 31, 83, 86, 140, 148, 149, 167, 170, 255, 464, 468]",97.58333333333331,130.6834332355185,0.3372574831244249,0.997840853338747
0.0,0.8,0.6,16.0,-1.0,1.0,"[6, 8, 9, 11, 13, 15, 18, 23, 24, 30, 31, 36, 43, 52, 103, 105, 1065, 1154]",152.55555555555554,339.8114219227126,-0.542105383029256,1154.0,0.2767377845771608,0.9927410528928604,"[94, 124, 163, 216, 438, 501]",256.0,156.55989269286053,-0.5743080124878873,501.0,0.0145137216071217,0.987189244038559,-0.542105383029256,1993.0,"[8, 10, 12, 15, 17, 20, 23, 30, 31, 38, 39, 44, 55, 67, 143, 149, 250, 319, 432, 547, 1109, 1276, 1801, 1993]",351.1666666666667,570.9219639222937,0.1700485302756181,0.9914083515200732
0.0,0.8,0.6,32.0,-1.0,1.0,"[9, 11, 15, 16, 17, 19, 20, 21, 22, 24, 26, 28, 29, 32, 38, 54, 169, 423]",54.05555555555556,95.9782800789511,-0.5912691684669108,423.0,0.3045082572203807,0.9977378373499414,"[102, 120, 134, 153, 295, 305]",184.8333333333333,82.90439607698067,-0.5875710146751097,305.0,0.0186039537460622,0.9907999323524438,-0.5875710146751097,800.0,"[11, 13, 17, 18, 19, 21, 22, 23, 24, 26, 28, 31, 32, 35, 46, 67, 268, 283, 290, 310, 369, 708, 785, 800]",176.91666666666666,249.0936766002345,0.2155580914227144,0.995827623542946
0.0,0.8,0.6,64.0,-1.0,1.0,"[13, 14, 15, 16, 17, 18, 19, 21, 23, 24, 26, 27, 28, 31, 38, 40, 129, 193]",38.44444444444444,45.24405697280057,-0.6178403069225687,193.0,0.3174956959428442,0.9985304404729668,"[75, 78, 95, 128, 220, 235]",138.5,65.38284688407707,-0.598953939992986,235.0,0.0250104156606116,0.9931506849315068,-0.598953939992986,519.0,"[15, 16, 17, 18, 19, 20, 21, 23, 25, 26, 28, 29, 30, 34, 46, 48, 190, 195, 220, 225, 265, 357, 483, 519]",119.54166666666669,150.3795141097646,0.2305707082172005,0.997283620091695
0.0,0.8,0.6,128.0,-1.0,1.0,"[14, 15, 16, 18, 20, 21, 22, 23, 24, 25, 27, 29, 31, 32, 34, 46, 92, 95]",32.44444444444444,22.88187594830416,-0.6391948049456465,95.0,0.3018066954362804,0.9988350708547704,"[59, 67, 74, 84, 228, 231]",123.83333333333331,75.0986388395659,-0.5912671138651271,231.0,0.0304772229176745,0.9938948080500593,-0.5912671138651271,499.0,"[16, 17, 18, 20, 22, 23, 24, 25, 26, 27, 29, 31, 34, 35, 37, 56, 146, 155, 159, 168, 171, 183, 496, 499]",100.70833333333331,133.34744065993752,0.2254846363420837,0.9977615506944796
0.0,0.8,0.6,256.0,-1.0,1.0,"[9, 10, 12, 13, 16, 18, 20, 21, 23, 24, 25, 26, 29, 31, 35, 41, 89, 93]",29.72222222222222,23.21112174884071,-0.6440481275873327,93.0,0.3365756849154113,0.9989732827872552,"[62, 64, 76, 80, 196, 209]",114.5,62.65181561614955,-0.5951968430866048,209.0,0.0318451757535858,0.9943683409436834,-0.5951968430866048,469.0,"[9, 10, 12, 13, 18, 20, 22, 23, 25, 26, 27, 28, 32, 34, 39, 48, 145, 154, 155, 157, 170, 177, 447, 469]",94.16666666666669,124.43996767741284,0.2526537694249355,0.997927557563146
0.0,0.4,0.4,256.0,-1.0,1.0,"[6, 7, 8, 9, 12, 13, 14, 15, 16, 17, 18, 19, 22, 24, 66, 70, 90, 98]",29.11111111111111,28.82878362734194,-0.6195955710823247,98.0,0.4210798971846812,0.9990043099557722,"[55, 65, 66, 72, 210, 215]",113.83333333333331,69.96050473104252,-0.5920600374074907,215.0,0.0336129417524766,0.9944021647217994,-0.5920600374074907,391.0,"[6, 7, 8, 9, 12, 13, 14, 15, 16, 17, 18, 19, 22, 24, 108, 116, 130, 148, 149, 156, 173, 188, 383, 391]",89.25,109.42739221358912,0.328991923792386,0.9980523270567934
0.0,0.8,0.8,16.0,-1.0,1.0,"[26, 30, 31, 32, 33, 34, 35, 43, 44, 48, 55, 56, 59, 62, 63, 64, 249, 317]",71.16666666666667,76.73782929197596,-0.6064620006451986,317.0,0.1694104758437325,0.9968747179348316,"[16, 39, 72, 82, 447, 495]",191.8333333333333,199.0472445314317,-0.5710975413417047,495.0,0.037922683366905,0.9904447826822256,-0.5710975413417047,1373.0,"[35, 39, 40, 41, 42, 44, 45, 57, 58, 62, 67, 72, 73, 76, 80, 81, 82, 124, 247, 260, 396, 532, 1217, 1373]",214.29166666666663,348.24637820163406,0.1222195570013507,0.9948812786546888
0.0,0.8,0.8,32.0,-1.0,1.0,"[13, 14, 17, 18, 20, 21, 22, 23, 24, 27, 28, 29, 30, 34, 47, 65, 179, 204]",45.27777777777778,53.23303647961016,-0.6135208774365726,204.0,0.2784208696916431,0.9981835003159132,"[35, 38, 47, 69, 158, 212]",93.16666666666669,67.65948237723634,-0.5929322474549402,212.0,0.0438252109430498,0.995450701843396,-0.5929322474549402,465.0,"[15, 16, 19, 20, 22, 24, 26, 27, 28, 31, 32, 33, 34, 39, 54, 84, 112, 117, 133, 211, 261, 327, 383, 465]",104.70833333333331,126.40690881918688,0.2082550928778327,0.9976600433098176
0.0,0.8,0.8,64.0,-1.0,1.0,"[14, 16, 17, 18, 20, 21, 23, 24, 25, 26, 28, 29, 31, 32, 33, 38, 79, 119]",32.94444444444444,25.07870327637957,-0.6468581952296236,119.0,0.3010380977997193,0.99880968498962,"[55, 56, 67, 112, 179, 221]",115.0,64.19501538281614,-0.5953351044677282,221.0,0.0315781318623662,0.9943429731100965,-0.5953351044677282,476.0,"[16, 18, 19, 20, 22, 23, 25, 26, 27, 28, 31, 32, 34, 35, 37, 42, 113, 145, 146, 183, 186, 245, 407, 476]",97.33333333333331,122.60052564687024,0.225833477386412,0.9978471975502884
0.0,0.8,0.8,128.0,-1.0,1.0,"[12, 13, 15, 16, 17, 18, 19, 22, 24, 25, 26, 27, 30, 31, 33, 38, 77, 81]",29.11111111111111,18.9850493485119,-0.6576133168495526,81.0,0.3273752787247743,0.9990043099557722,"[61, 85, 90, 91, 209, 252]",131.33333333333334,71.90425733030153,-0.5833062092218407,252.0,0.0274908667437723,0.993514290546254,-0.5833062092218407,609.0,"[14, 15, 17, 19, 20, 21, 22, 25, 27, 28, 29, 30, 33, 34, 36, 43, 111, 115, 156, 183, 189, 190, 463, 609]",101.20833333333331,145.24002523600564,0.2369437540418292,0.997748862271397
0.0,0.8,0.8,256.0,-1.0,1.0,"[11, 12, 13, 14, 16, 20, 21, 22, 23, 24, 29, 30, 31, 34, 37, 38, 68, 82]",29.166666666666668,18.291619210264937,-0.6577436023508445,82.0,0.3221055615026469,0.9990014893040888,"[50, 82, 86, 88, 193, 220]",119.83333333333331,63.05134591919686,-0.5892339213984841,220.0,0.0296513288852066,0.9940977507187552,-0.5892339213984841,485.0,"[13, 14, 15, 16, 18, 22, 23, 24, 25, 26, 32, 33, 34, 37, 40, 41, 82, 116, 141, 180, 184, 186, 442, 485]",92.875,125.2435335988782,0.240759437955348,0.9979603359894432
0.0,0.8,1.0,16.0,-1.0,1.0,"[13, 22, 34, 36, 37, 40, 41, 43, 45, 46, 47, 56, 59, 61, 63, 64, 102, 108]",50.94444444444444,23.22468089057708,-0.6708448695699069,108.0,0.177598947344553,0.9978957938442098,"[47, 74, 87, 157, 191, 234]",131.66666666666666,67.23507682419613,-0.5927641251313142,234.0,0.0266805207518327,0.993497378657196,-0.5927641251313142,661.0,"[20, 35, 50, 53, 54, 63, 64, 68, 73, 74, 75, 88, 91, 95, 98, 99, 146, 154, 159, 206, 261, 477, 590, 661]",156.41666666666666,169.51595713154035,0.1037713597031532,0.99634784888934
0.0,0.8,1.0,32.0,-1.0,1.0,"[12, 13, 14, 20, 25, 26, 27, 32, 34, 38, 40, 41, 42, 43, 45, 46, 51, 53]",33.44444444444444,12.636904606140355,-0.6791647901245655,53.0,0.2597922775232228,0.9987842991244698,"[100, 124, 128, 141, 193, 241]",154.5,47.870484991624366,-0.5838125627819883,241.0,0.0214563879826278,0.9923389142567224,-0.5838125627819883,771.0,"[14, 15, 16, 22, 27, 28, 29, 35, 41, 45, 47, 48, 49, 50, 55, 57, 64, 68, 238, 309, 348, 378, 513, 771]",136.125,189.50116809226623,0.1807254240722396,0.9968627873927828
0.0,0.8,1.0,64.0,-1.0,1.0,"[14, 15, 19, 20, 23, 28, 29, 30, 31, 33, 37, 38, 40, 41, 42, 46, 47, 52]",32.5,10.955718953029864,-0.6900946500809446,52.0,0.2660059791362757,0.9988322502030867,"[96, 100, 116, 121, 174, 267]",145.66666666666666,59.951832517632205,-0.5849272792841116,267.0,0.0234240215280201,0.9927870793167596,-0.5849272792841116,748.0,"[16, 17, 21, 22, 25, 30, 31, 32, 33, 35, 40, 41, 43, 44, 45, 52, 54, 63, 226, 232, 279, 285, 428, 748]",118.41666666666669,170.30460863471143,0.1990574513933821,0.9973121690436312
0.0,0.8,1.0,128.0,-1.0,1.0,"[15, 18, 21, 22, 23, 24, 25, 26, 29, 30, 33, 35, 37, 38, 41, 43, 45, 54]",31.05555555555556,10.162415626120824,-0.6814284478322721,54.0,0.2803464193605385,0.9989055871468544,"[85, 88, 95, 103, 192, 212]",129.16666666666666,52.13257672085235,-0.592606973091596,212.0,0.0265415718155794,0.9936242178251312,-0.592606973091596,473.0,"[17, 20, 23, 24, 25, 26, 27, 28, 31, 33, 36, 38, 40, 41, 44, 46, 51, 65, 180, 187, 196, 206, 433, 473]",95.41666666666669,123.23619485452409,0.2142552004828731,0.9978958365054392
0.0,0.8,1.0,256.0,-1.0,1.0,"[10, 14, 16, 18, 22, 24, 25, 26, 27, 28, 29, 32, 33, 36, 39, 40, 57, 61]",29.83333333333333,13.060755465643377,-0.6758972109096673,61.0,0.2957278991133359,0.9989676414838884,"[69, 73, 92, 99, 180, 203]",119.33333333333331,52.474332349783694,-0.5904635423221859,203.0,0.0287061963295764,0.9941231185523424,-0.5904635423221859,517.0,"[12, 16, 18, 20, 24, 26, 27, 28, 29, 30, 31, 34, 35, 38, 42, 43, 70, 74, 165, 170, 191, 200, 416, 517]",94.0,126.70372264986273,0.2258406829015986,0.997931787037507
0.0,0.4,0.6,16.0,-1.0,1.0,"[1, 2, 3, 6, 9, 13, 15, 21, 22, 28, 30, 31, 33, 37, 56, 73, 74, 104]",31.0,27.900617277122105,-0.6336978425325737,104.0,0.484085366035948,0.998916869753588,"[92, 171, 172, 250, 269, 293]",207.8333333333333,69.31910911782471,-0.591165592144782,293.0,0.015845418068285,0.9896330120074412,-0.591165592144782,735.0,"[1, 2, 3, 6, 9, 13, 16, 25, 26, 35, 38, 39, 41, 51, 92, 123, 125, 189, 208, 417, 418, 612, 641, 735]",161.04166666666666,221.7702413096842,0.3366779118495191,0.9962352391344804
0.0,1.0,0.4,16.0,-1.0,1.0,"[5, 6, 7, 8, 9, 10, 13, 14, 15, 19, 27, 28, 29, 33, 69, 76, 97, 148]",34.05555555555556,37.80281033383368,-0.6213980408015729,148.0,0.4131294145667317,0.9987532719559528,"[86, 294, 364, 371, 428, 450]",332.1666666666667,120.8613760562994,-0.5650827193410543,450.0,0.0104116056316591,0.9833248773888044,-0.5650827193410543,1108.0,"[7, 8, 9, 10, 11, 12, 17, 18, 19, 23, 34, 35, 36, 45, 119, 128, 176, 217, 252, 709, 865, 873, 1073, 1108]",241.8333333333333,363.335550451951,0.2477554783844947,0.9941813006479556
0.0,1.0,0.4,32.0,-1.0,1.0,"[2, 3, 5, 8, 9, 11, 12, 14, 16, 19, 20, 21, 30, 33, 39, 46, 79, 86]",25.166666666666668,23.52835169180649,-0.6368646316613547,86.0,0.4952143960085764,0.999204576225291,"[83, 170, 194, 218, 262, 304]",205.16666666666663,70.05811080016994,-0.5813291637746997,304.0,0.0160743752672222,0.9897683071199054,-0.5813291637746997,643.0,"[2, 3, 5, 8, 9, 11, 12, 14, 19, 23, 24, 25, 36, 40, 51, 59, 129, 157, 179, 363, 398, 461, 548, 643]",134.125,190.3661630691407,0.3499907079804871,0.996913541085114
0.0,1.0,0.4,64.0,-1.0,1.0,"[2, 3, 5, 6, 8, 10, 11, 12, 13, 14, 15, 19, 21, 24, 38, 60, 81, 84]",23.666666666666668,24.77678124553084,-0.6477349347571234,84.0,0.556712002350404,0.999280733820742,"[85, 125, 149, 164, 190, 199]",152.0,38.78143885933064,-0.6006277577315909,199.0,0.0214592868692066,0.9924657534246576,-0.6006277577315909,449.0,"[2, 3, 5, 6, 8, 10, 11, 12, 13, 14, 15, 22, 24, 27, 50, 80, 123, 135, 187, 277, 319, 391, 437, 449]",109.16666666666669,146.91683210427442,0.4116859027889692,0.9975469048706628
0.0,1.0,0.4,128.0,-1.0,1.0,"[3, 4, 5, 6, 8, 9, 10, 13, 15, 16, 20, 24, 25, 26, 51, 68, 94, 133]",29.444444444444443,34.48223733109592,-0.6225179268481684,133.0,0.4936729997173973,0.998987386045672,"[74, 91, 103, 126, 196, 238]",138.0,59.21430007467228,-0.5895047557702885,238.0,0.024514011490841,0.993176052765094,-0.5895047557702885,525.0,"[3, 4, 5, 6, 8, 9, 10, 13, 15, 16, 22, 26, 28, 30, 67, 95, 161, 170, 223, 225, 240, 268, 444, 525]",108.875,142.91731656800724,0.3695630213169735,0.9975543064507943
0.0,1.0,0.4,256.0,-1.0,1.0,"[2, 3, 6, 8, 9, 11, 13, 15, 16, 21, 22, 24, 25, 28, 61, 65, 96, 101]",29.22222222222222,29.69016963305373,-0.6231952922681622,101.0,0.458084375348652,0.9989986686524054,"[61, 73, 83, 85, 214, 229]",124.16666666666669,69.39840696218386,-0.5888842580751806,229.0,0.0294265773472236,0.9938778961610012,-0.5888842580751806,492.0,"[2, 3, 6, 8, 9, 11, 13, 17, 18, 23, 24, 26, 27, 33, 81, 95, 151, 166, 170, 183, 185, 187, 468, 492]",99.91666666666669,132.87052490634966,0.3400778453163819,0.997781640697694
0.0,1.0,0.6,16.0,-1.0,1.0,"[4, 8, 18, 19, 20, 21, 23, 25, 27, 28, 29, 32, 33, 39, 41, 53, 56, 73]",30.5,16.59735588044741,-0.6519677813361302,73.0,0.3096401900534847,0.9989394349670548,"[63, 72, 165, 223, 237, 419]",196.5,119.83565134522084,-0.5689587689792928,419.0,0.019197781174378,0.9902080162354135,-0.5689587689792928,1029.0,"[4, 10, 23, 24, 26, 27, 29, 31, 33, 34, 35, 39, 40, 51, 53, 71, 76, 109, 154, 166, 310, 452, 497, 1029]",138.45833333333334,226.9871470602588,0.2033373853907104,0.9968083329103858
0.0,1.0,0.6,32.0,-1.0,1.0,"[2, 12, 18, 19, 21, 22, 23, 25, 26, 29, 37, 42, 43, 46, 50, 59, 63, 67]",33.55555555555556,17.79270206892647,-0.6639941435870651,67.0,0.2889445216213187,0.998778657821103,"[89, 114, 160, 179, 216, 441]",199.8333333333333,115.53847363060017,-0.5687443037056891,441.0,0.0177716289575675,0.9900388973448334,-0.5687443037056891,869.0,"[2, 12, 21, 22, 26, 27, 28, 31, 32, 38, 55, 61, 65, 69, 73, 84, 88, 95, 219, 253, 362, 389, 469, 869]",141.25,198.1367898700289,0.1842244691228343,0.9967332597404794
0.0,1.0,0.6,64.0,-1.0,1.0,"[4, 5, 10, 12, 15, 16, 17, 18, 23, 24, 27, 28, 30, 36, 38, 42, 58, 76]",26.61111111111111,17.941692255404845,-0.6662004244923332,76.0,0.3677601481268855,0.9991312392815236,"[65, 94, 102, 158, 241, 266]",154.33333333333334,75.66740087749515,-0.5893698991436502,266.0,0.0224487850792716,0.9923473702012516,-0.5893698991436502,570.0,"[4, 5, 10, 12, 17, 18, 19, 20, 26, 27, 30, 31, 33, 41, 47, 52, 76, 100, 163, 225, 268, 382, 528, 570]",112.66666666666669,161.03303663810382,0.2642704289158772,0.9974580859090832
0.0,1.0,0.6,128.0,-1.0,1.0,"[10, 12, 14, 15, 17, 18, 19, 20, 23, 26, 28, 30, 32, 33, 34, 35, 80, 86]",29.55555555555556,20.40485296911884,-0.6516756284490973,86.0,0.3257156685275728,0.9989817447423052,"[75, 87, 102, 126, 262, 275]",154.5,82.18018820453828,-0.5836590898862215,275.0,0.023063631136034,0.9923389142567224,-0.5836590898862215,588.0,"[12, 14, 16, 17, 19, 20, 21, 22, 25, 28, 30, 35, 37, 38, 40, 41, 107, 117, 201, 216, 237, 294, 571, 588]",114.41666666666669,161.3221199615505,0.2318822431885894,0.9974136764282936
0.0,1.0,0.6,256.0,-1.0,1.0,"[7, 9, 11, 14, 15, 16, 18, 21, 24, 25, 26, 27, 34, 35, 37, 40, 64, 81]",28.0,18.550232103968703,-0.6524367715599398,81.0,0.3399901368344996,0.9990607229894396,"[64, 73, 88, 101, 223, 245]",132.33333333333334,73.088226746097,-0.5839589448075685,245.0,0.0272714083904942,0.99346355487908,-0.5839589448075685,603.0,"[9, 11, 13, 16, 17, 18, 20, 23, 26, 27, 28, 29, 42, 43, 47, 51, 82, 105, 166, 204, 220, 256, 498, 603]",106.41666666666669,151.97365908457806,0.2395312565067457,0.997616691197618
0.0,0.4,0.6,32.0,-1.0,1.0,"[1, 3, 4, 7, 8, 9, 11, 14, 21, 23, 25, 26, 27, 31, 32, 38, 63, 76]",23.27777777777778,19.660466693781306,-0.6504015532407358,76.0,0.5323348334861288,0.9993004783825256,"[91, 136, 148, 151, 174, 203]",150.5,34.3159341025905,-0.597142080680605,203.0,0.0217912520446002,0.9925418569254186,-0.597142080680605,615.0,"[1, 3, 4, 7, 9, 10, 13, 16, 24, 26, 29, 30, 31, 35, 36, 44, 81, 114, 190, 400, 427, 431, 468, 615]",126.83333333333331,183.0308868894962,0.3761192213085304,0.9970985805884044
0.0,1.0,0.8,16.0,-1.0,1.0,"[6, 16, 23, 25, 26, 27, 31, 34, 38, 39, 40, 47, 53, 58, 60, 74, 75, 76]",41.55555555555556,20.15005437605628,-0.6626209501507792,76.0,0.2233682689341,0.9983767149562236,"[89, 105, 107, 190, 565, 580]",272.6666666666667,214.4906110351272,-0.5453200943858674,580.0,0.0164279956614411,0.9863436495856588,-0.5453200943858674,1543.0,"[8, 18, 28, 30, 31, 32, 37, 42, 46, 48, 49, 60, 75, 84, 86, 111, 112, 113, 219, 255, 258, 416, 1465, 1543]",215.25,400.1572867844176,0.1432046859846304,0.9948574878614086
0.0,1.0,0.8,32.0,-1.0,1.0,"[17, 18, 22, 23, 29, 33, 34, 36, 43, 45, 46, 49, 50, 51, 53, 54, 60, 64]",40.388888888888886,14.05994661317859,-0.67507019196813,64.0,0.2142505063164126,0.998431717664049,"[128, 129, 135, 211, 330, 366]",216.5,97.80380019883344,-0.5683902447992933,366.0,0.0160068169895407,0.9891933028919332,-0.5683902447992933,734.0,"[19, 20, 24, 25, 31, 35, 36, 42, 50, 52, 53, 57, 58, 60, 64, 65, 76, 86, 289, 291, 323, 473, 682, 734]",151.875,203.4578810835304,0.1512108497929809,0.9964631020656752
0.0,1.0,0.8,64.0,-1.0,1.0,"[16, 17, 26, 31, 34, 35, 36, 37, 38, 39, 40, 42, 43, 44, 48, 49, 57, 60]",38.44444444444444,11.28530126719522,-0.6889644852601611,60.0,0.2258590145075643,0.9985304404729668,"[100, 101, 103, 151, 218, 317]",165.0,79.86864215698174,-0.5758991204737945,317.0,0.0212135807711474,0.9918061897513952,-0.5758991204737945,663.0,"[16, 17, 28, 33, 36, 37, 38, 39, 41, 42, 43, 45, 46, 47, 51, 52, 68, 74, 281, 282, 284, 380, 503, 663]",131.08333333333334,170.63946316397298,0.1711172871356781,0.9969907289922008
0.0,1.0,0.8,128.0,-1.0,1.0,"[11, 20, 23, 25, 27, 28, 29, 30, 31, 32, 33, 40, 44, 45, 47, 49, 53, 56]",34.611111111111114,11.91702278670161,-0.6813487035624347,56.0,0.251080286520508,0.998725065439119,"[96, 102, 109, 139, 234, 270]",158.33333333333334,68.38778318449056,-0.5796447213035656,270.0,0.0216523612651246,0.9921444275325554,-0.5796447213035656,590.0,"[13, 22, 25, 27, 29, 30, 31, 32, 33, 34, 35, 45, 51, 52, 55, 60, 65, 72, 288, 294, 301, 356, 524, 590]",127.66666666666669,164.67004045126794,0.181549946501306,0.9970774332166
0.0,1.0,0.8,256.0,-1.0,1.0,"[11, 12, 15, 17, 20, 23, 24, 25, 26, 30, 31, 35, 36, 42, 47, 48, 51, 54]",30.38888888888889,13.204119259992268,-0.6839678192555125,54.0,0.2892323622079596,0.9989394349670548,"[71, 83, 93, 109, 232, 252]",140.0,73.2438848414437,-0.5808560863042604,252.0,0.025416242125738,0.993074581430746,-0.5808560863042604,620.0,"[13, 14, 17, 19, 22, 25, 26, 27, 28, 33, 34, 40, 41, 48, 57, 58, 61, 64, 195, 232, 246, 267, 526, 620]",113.04166666666669,158.72157991450172,0.2095460455446472,0.9974485695917712
0.0,1.0,1.0,16.0,-1.0,1.0,"[3, 15, 17, 22, 23, 24, 25, 26, 27, 28, 32, 33, 36, 38, 43, 45, 79, 88]",33.55555555555556,20.23534372830047,-0.6473599056001182,88.0,0.2850867699686987,0.998778657821103,"[100, 139, 148, 241, 276, 384]",214.66666666666663,96.99427245404178,-0.554985075658042,384.0,0.0158328686468888,0.989286318281752,-0.554985075658042,955.0,"[3, 17, 19, 24, 25, 27, 28, 30, 31, 33, 40, 41, 44, 46, 52, 55, 117, 136, 267, 343, 357, 573, 634, 955]",162.375,239.5735469015726,0.1925161710992734,0.996196645180937
0.0,1.0,1.0,32.0,-1.0,1.0,"[12, 13, 16, 19, 25, 27, 28, 29, 33, 35, 38, 43, 47, 50, 53, 63, 67, 119]",39.833333333333336,24.824383174612816,-0.6497748883007084,119.0,0.2338249899060856,0.9984599241808828,"[121, 138, 151, 212, 226, 269]",186.16666666666663,53.10184135748549,-0.5784252411902042,269.0,0.017653569524891,0.9907322847962118,-0.5784252411902042,571.0,"[12, 13, 18, 21, 27, 29, 30, 31, 37, 40, 46, 54, 60, 65, 68, 81, 85, 177, 291, 334, 372, 474, 495, 571]",142.95833333333334,171.99163719172188,0.162533197858353,0.9966893789439848
0.0,1.0,1.0,64.0,-1.0,1.0,"[8, 12, 22, 23, 24, 25, 28, 29, 32, 34, 36, 40, 42, 45, 51, 54, 65, 67]",35.388888888888886,15.98658774267733,-0.6776418921821096,67.0,0.2499058885204559,0.998685576315552,"[62, 76, 87, 156, 193, 204]",129.66666666666666,57.02241274758159,-0.5970081868440561,204.0,0.0263145177417736,0.993598849991544,-0.5970081868440561,467.0,"[8, 12, 24, 25, 26, 27, 30, 31, 36, 40, 42, 48, 51, 59, 70, 76, 93, 97, 183, 234, 248, 384, 451, 467]",115.08333333333331,136.517677935456,0.175563249250591,0.99739675853085
0.0,1.0,1.0,128.0,-1.0,1.0,"[13, 14, 23, 24, 26, 27, 31, 32, 33, 34, 36, 38, 40, 41, 45, 47, 67, 74]",35.833333333333336,15.297966458904847,-0.6661964347435481,74.0,0.2462558250351922,0.9986630111020852,"[62, 70, 71, 147, 216, 259]",137.5,77.12922057603504,-0.5782102131476513,259.0,0.0267465062706944,0.9932014205986808,-0.5782102131476513,567.0,"[15, 16, 25, 26, 28, 29, 33, 34, 35, 36, 38, 40, 47, 48, 55, 58, 85, 96, 187, 197, 198, 376, 491, 567]",115.0,149.734208961524,0.1826671578057715,0.9973988732680305
0.0,1.0,1.0,256.0,-1.0,1.0,"[12, 15, 16, 19, 22, 25, 26, 31, 32, 33, 36, 38, 40, 43, 46, 48, 49, 51]",32.333333333333336,12.10601319822325,-0.6847379978632457,51.0,0.2680426646968578,0.998840712158137,"[67, 68, 75, 127, 187, 252]",129.33333333333334,69.49500381722096,-0.5785383736532349,252.0,0.0277301154260498,0.993615761880602,-0.5785383736532349,610.0,"[14, 17, 18, 21, 24, 27, 28, 33, 35, 36, 40, 42, 47, 52, 55, 58, 59, 61, 190, 191, 200, 325, 448, 610]",109.625,148.80126917581492,0.1962731049847513,0.99753527381617
0.0,0.4,0.6,64.0,-1.0,1.0,"[8, 10, 12, 15, 16, 17, 19, 22, 23, 24, 25, 27, 29, 30, 39, 50, 51, 64]",26.72222222222222,14.884016615728562,-0.6761045116183482,64.0,0.3425401091681525,0.9991255979781568,"[59, 70, 76, 94, 138, 241]",113.0,62.58860386151247,-0.5954480212036212,241.0,0.0314459344053044,0.9944444444444444,-0.5954480212036212,561.0,"[8, 10, 12, 15, 16, 17, 19, 22, 23, 24, 25, 27, 31, 32, 44, 56, 57, 74, 148, 164, 171, 194, 318, 561]",86.16666666666667,124.7486361537561,0.2732580942055059,0.9981305723324704
0.0,0.4,0.6,128.0,-1.0,1.0,"[8, 9, 10, 12, 13, 17, 18, 19, 20, 21, 22, 26, 28, 29, 31, 34, 59, 67]",24.61111111111111,15.53182714045542,-0.6652305167367694,67.0,0.3818932456937763,0.9992327827421248,"[84, 89, 93, 150, 166, 224]",134.33333333333334,50.96621974951208,-0.5942199126202041,224.0,0.0250345999022237,0.993362083544732,-0.5942199126202041,474.0,"[8, 9, 10, 12, 13, 17, 18, 19, 21, 22, 23, 28, 30, 32, 34, 39, 71, 82, 181, 187, 193, 328, 358, 474]",92.04166666666669,126.19742442124384,0.291745928211038,0.997981483361248
0.0,0.4,0.6,256.0,-1.0,1.0,"[8, 9, 10, 13, 14, 16, 17, 18, 20, 22, 23, 26, 28, 29, 40, 42, 63, 70]",26.0,17.09125832439236,-0.6509116196922922,70.0,0.3676440092191775,0.9991622664500406,"[68, 78, 90, 115, 168, 211]",121.66666666666669,51.577342139957366,-0.5904280771824443,211.0,0.0277767956237005,0.9940047353289364,-0.5904280771824443,447.0,"[8, 9, 10, 13, 14, 16, 17, 18, 20, 22, 23, 27, 29, 30, 46, 48, 77, 92, 158, 169, 183, 220, 301, 447]",83.20833333333333,108.74893837285136,0.2893652171961182,0.9982056455023768
0.0,0.4,0.4,16.0,-1.0,2.0,"[3, 4, 6, 9, 17, 18, 25, 28, 32, 39, 43, 44, 50, 52, 57, 61, 68, 70]",34.77777777777778,21.6295979198144,-0.6600523351217268,70.0,0.3110539516437668,0.998720834461594,"[28, 70, 127, 163, 210, 224]",137.0,70.76251361655642,-0.6013706725404819,224.0,0.0271738128209433,0.993226788432268,-0.6013706725404819,443.0,"[3, 4, 6, 9, 18, 19, 27, 31, 36, 45, 51, 52, 60, 62, 68, 75, 93, 97, 98, 159, 248, 296, 363, 443]",98.45833333333331,116.59401755903068,0.2353460975112246,0.9978202346512376
0.0,0.4,0.8,16.0,-1.0,2.0,"[3, 5, 11, 16, 19, 25, 31, 33, 37, 40, 45, 49, 52, 54, 63, 68, 70, 71]",38.44444444444444,21.592751412922045,-0.6571133224889915,71.0,0.2605034292402898,0.9985318507988086,"[43, 53, 79, 112, 203, 223]",118.83333333333331,70.30034771527725,-0.5974637328648122,223.0,0.0310361672895025,0.9941484863859292,-0.5974637328648122,380.0,"[3, 5, 11, 16, 19, 25, 32, 38, 48, 56, 66, 71, 75, 85, 99, 107, 110, 113, 114, 126, 167, 213, 354, 380]",97.20833333333331,96.33491023795868,0.1885722051364241,0.9978508983403542
0.0,0.4,0.8,32.0,-1.0,2.0,"[2, 13, 14, 15, 22, 23, 26, 30, 31, 35, 37, 41, 48, 49, 50, 59, 60, 61]",34.22222222222222,17.232255142144066,-0.6709278188444676,61.0,0.2795002618857852,0.9987448100009026,"[49, 71, 85, 97, 186, 238]",121.0,67.66338251472013,-0.5903728314857296,238.0,0.0295333688104424,0.9940385591070524,-0.5903728314857296,492.0,"[2, 13, 14, 15, 22, 23, 26, 30, 31, 35, 38, 45, 52, 54, 55, 65, 68, 71, 124, 157, 178, 194, 420, 492]",92.66666666666669,121.29360613358352,0.2265922212216446,0.9979656228323944
0.0,0.4,0.8,64.0,-1.0,2.0,"[5, 6, 7, 14, 17, 19, 22, 25, 28, 30, 31, 34, 36, 37, 39, 43, 48, 52]",27.38888888888889,13.756367773543555,-0.6823917086506437,52.0,0.3363760104241673,0.9990917501579564,"[78, 84, 107, 118, 132, 165]",114.0,29.39954648176284,-0.6021309668619248,165.0,0.0288013581891294,0.9943937087772704,-0.6021309668619248,287.0,"[5, 6, 7, 14, 17, 19, 22, 25, 28, 30, 31, 34, 36, 37, 39, 46, 51, 58, 164, 171, 198, 211, 230, 287]",73.58333333333333,82.49137160266454,0.2750258885242841,0.9984498976467204
0.0,0.4,0.8,128.0,-1.0,2.0,"[8, 9, 10, 15, 17, 19, 25, 26, 27, 28, 29, 30, 33, 34, 39, 41, 46, 57]",27.38888888888889,12.876071212778502,-0.6735789936860749,57.0,0.324844051698871,0.9990917501579564,"[89, 94, 105, 109, 151, 176]",120.66666666666669,31.825915366080032,-0.5985360000092678,176.0,0.0274974531585128,0.9940554709961102,-0.5985360000092678,298.0,"[8, 9, 10, 15, 17, 19, 25, 26, 27, 28, 29, 30, 34, 35, 41, 44, 53, 66, 177, 185, 198, 203, 263, 298]",76.66666666666667,87.01324931040993,0.2618532050455803,0.9983716523710434
0.0,0.4,0.8,256.0,-1.0,2.0,"[6, 7, 9, 14, 15, 17, 20, 22, 27, 28, 29, 30, 31, 32, 37, 39, 40, 58]",25.61111111111111,13.009137339615862,-0.6705937016786763,58.0,0.3527215256739073,0.999182011011824,"[68, 94, 96, 121, 164, 178]",120.16666666666669,39.27856356278264,-0.5964700972997848,178.0,0.0274143332306465,0.9940808388296972,-0.5964700972997848,364.0,"[6, 7, 9, 14, 15, 17, 20, 22, 27, 28, 29, 30, 31, 32, 38, 40, 41, 66, 153, 186, 188, 221, 285, 364]",77.875,97.13449117074738,0.2862364344835213,0.9983409886819266
0.0,0.4,1.0,16.0,-1.0,2.0,"[15, 16, 18, 19, 25, 26, 29, 30, 34, 36, 37, 38, 45, 53, 55, 63, 64, 80]",37.94444444444444,18.07537373894297,-0.643363666447984,80.0,0.2366051668510133,0.9985600573156422,"[84, 85, 98, 123, 131, 143]",110.66666666666669,22.88133640230735,-0.6139869260325794,143.0,0.0297821207766697,0.9945628276678504,-0.6139869260325794,316.0,"[15, 16, 18, 19, 25, 26, 29, 30, 35, 37, 39, 40, 51, 63, 67, 80, 81, 138, 173, 174, 252, 281, 296, 316]",95.875,96.28962928754754,0.1843245443721702,0.9978857915038318
0.0,0.4,1.0,32.0,-1.0,2.0,"[11, 12, 16, 18, 20, 22, 23, 28, 30, 34, 35, 37, 40, 46, 51, 55, 58, 65]",33.388888888888886,15.90995107503089,-0.660276797656239,65.0,0.2665120077360648,0.9987871197761532,"[54, 85, 95, 102, 118, 162]",102.66666666666669,32.90221201614803,-0.6006048221126621,162.0,0.0320420803865207,0.9949687130052428,-0.6006048221126621,411.0,"[11, 12, 16, 18, 20, 22, 23, 28, 30, 34, 35, 38, 41, 50, 56, 61, 66, 80, 137, 177, 190, 199, 222, 411]",82.375,93.6993474274679,0.2187016115813552,0.9982267928741816
0.0,0.4,1.0,64.0,-1.0,2.0,"[10, 11, 13, 16, 17, 18, 20, 21, 23, 26, 27, 32, 33, 37, 39, 46, 48, 50]",27.05555555555556,12.429678740025702,-0.6778039988287918,50.0,0.3276802124631763,0.9991086740680568,"[88, 102, 114, 130, 138, 152]",120.66666666666669,21.71532996653644,-0.6010205218642767,152.0,0.0272936780020505,0.9940554709961102,-0.6010205218642767,273.0,"[10, 11, 13, 16, 17, 18, 20, 21, 23, 26, 27, 32, 33, 37, 39, 51, 53, 56, 176, 194, 214, 235, 246, 273]",76.70833333333333,86.85259503255438,0.2656817943145415,0.9983705950024532
0.0,0.4,1.0,128.0,-1.0,2.0,"[10, 11, 14, 15, 17, 23, 25, 26, 28, 30, 31, 32, 34, 35, 39, 44, 49, 56]",28.83333333333333,12.562068124140849,-0.6678797510598,56.0,0.3049457074191891,0.9990184132141888,"[99, 111, 113, 123, 144, 164]",125.66666666666669,21.982316125063395,-0.5984252115515221,164.0,0.0264159356607554,0.9938017926602402,-0.5984252115515221,341.0,"[10, 11, 14, 15, 17, 23, 25, 26, 28, 30, 31, 34, 37, 38, 43, 52, 57, 67, 187, 202, 204, 222, 251, 341]",81.875,92.81177749438196,0.240661053230051,0.9982394812972644
0.0,0.4,1.0,256.0,-1.0,2.0,"[9, 10, 14, 15, 18, 19, 25, 27, 28, 29, 31, 32, 34, 36, 38, 39, 41, 52]",27.61111111111111,11.378043616686035,-0.6740057969260296,52.0,0.3163913878920559,0.999080467551223,"[73, 89, 91, 129, 137, 149]",111.33333333333331,28.19968478941249,-0.5994026381759866,149.0,0.0294850219825276,0.9945290038897344,-0.5994026381759866,328.0,"[9, 10, 14, 15, 18, 19, 25, 27, 28, 29, 31, 32, 34, 36, 39, 40, 44, 61, 158, 175, 179, 236, 248, 328]",76.45833333333333,88.88052803561018,0.2585964602568027,0.9983769392139944
0.0,0.4,0.4,32.0,-1.0,2.0,"[3, 4, 5, 8, 14, 15, 16, 19, 22, 32, 36, 39, 41, 46, 48, 55, 59, 60]",29.0,19.070046320517072,-0.6633352408386809,60.0,0.3720462930745558,0.9990099512591388,"[54, 61, 87, 102, 153, 236]",115.5,62.81387850891977,-0.593423567737635,236.0,0.0305178860058784,0.9943176052765094,-0.593423567737635,470.0,"[3, 4, 5, 8, 15, 17, 18, 21, 24, 34, 39, 45, 47, 53, 57, 66, 72, 73, 141, 150, 186, 209, 345, 470]",87.58333333333333,112.96936039868903,0.2808450822545164,0.9980946218004024
0.0,0.6,0.4,16.0,-1.0,2.0,"[3, 6, 7, 9, 12, 13, 14, 17, 20, 21, 24, 28, 31, 36, 41, 44, 90, 183]",33.27777777777778,41.300801116195146,-0.627469022061054,183.0,0.3918191617703115,0.998805454012095,"[41, 65, 88, 97, 178, 195]",110.66666666666669,56.69411100125146,-0.6160201048415411,195.0,0.0315577692623868,0.9945628276678504,-0.6160201048415411,406.0,"[3, 6, 7, 9, 12, 15, 16, 19, 22, 23, 35, 40, 44, 56, 69, 73, 103, 143, 175, 185, 188, 338, 377, 406]",98.5,118.98319209031165,0.270220460456276,0.9978234067570082
0.0,0.6,0.4,32.0,-1.0,2.0,"[3, 5, 8, 11, 12, 13, 15, 17, 18, 19, 20, 21, 28, 30, 35, 41, 81, 89]",25.88888888888889,23.06967439178997,-0.6596464783748759,89.0,0.4275018502403225,0.9991707284050908,"[26, 40, 42, 53, 160, 186]",84.5,63.51312200377704,-0.6200218235181016,186.0,0.0498116454199077,0.995890410958904,-0.6200218235181016,404.0,"[3, 5, 8, 11, 12, 13, 15, 17, 18, 20, 21, 22, 30, 32, 38, 46, 93, 118, 121, 129, 141, 143, 338, 404]",74.91666666666667,101.0618278854858,0.3394091820415634,0.9984171192204232
0.0,0.6,0.4,64.0,-1.0,2.0,"[3, 6, 7, 8, 9, 10, 12, 14, 15, 16, 18, 19, 23, 27, 39, 55, 91, 110]",26.77777777777778,28.98573510377429,-0.6276536079281745,110.0,0.4712753083239989,0.9991227773264736,"[16, 27, 31, 35, 149, 160]",69.66666666666667,60.34806449993975,-0.6126415036575609,160.0,0.0697818381480068,0.9966429900219856,-0.6126415036575609,324.0,"[3, 6, 7, 8, 9, 10, 12, 14, 15, 17, 19, 21, 25, 30, 47, 69, 71, 97, 101, 110, 168, 227, 308, 324]",71.58333333333333,92.16240948576714,0.3728113655152729,0.9985006513390516
0.0,0.6,0.4,128.0,-1.0,2.0,"[3, 5, 7, 8, 10, 11, 14, 15, 16, 17, 18, 19, 23, 27, 41, 42, 97, 161]",29.666666666666668,38.15902398006416,-0.6087387951637914,161.0,0.4584288287109133,0.9989761034389384,"[24, 59, 65, 68, 167, 174]",92.83333333333331,56.80791220322121,-0.6057076414701553,174.0,0.0408275376163653,0.9954676137324538,-0.6057076414701553,342.0,"[3, 5, 7, 8, 10, 11, 14, 15, 16, 17, 18, 19, 25, 31, 51, 52, 86, 139, 145, 150, 200, 322, 331, 342]",84.04166666666667,107.98320824965744,0.3588360130682436,0.9981844981305724
0.0,0.6,0.4,256.0,-1.0,2.0,"[1, 3, 6, 10, 11, 12, 13, 14, 16, 17, 19, 20, 24, 26, 39, 42, 87, 105]",25.83333333333333,27.08064089180888,-0.6180649481414046,105.0,0.5096284297008915,0.9991707284050908,"[40, 55, 74, 92, 186, 215]",110.33333333333331,66.26378263341816,-0.5949713226092394,215.0,0.0333618558246726,0.9945797395569086,-0.5949713226092394,434.0,"[1, 3, 6, 10, 11, 12, 13, 14, 16, 17, 19, 20, 24, 28, 49, 52, 111, 133, 160, 168, 187, 210, 357, 434]",85.625,113.8887660907197,0.3949725881052545,0.9981443181241436
0.0,0.6,0.6,16.0,-1.0,2.0,"[9, 10, 12, 15, 18, 19, 20, 23, 27, 28, 30, 39, 45, 47, 48, 52, 71, 117]",35.0,25.841396591085743,-0.6608305269764647,117.0,0.2837806730784538,0.9987180138099108,"[46, 63, 111, 119, 196, 255]",131.66666666666666,73.01978422926823,-0.6003269300321732,255.0,0.0271942084053885,0.993497378657196,-0.6003269300321732,586.0,"[10, 11, 13, 16, 19, 20, 21, 25, 29, 30, 33, 44, 53, 56, 57, 68, 114, 119, 178, 181, 248, 265, 468, 586]",111.0,145.9314907756376,0.2092066785117776,0.997506724864234
0.0,0.6,0.6,32.0,-1.0,2.0,"[12, 13, 14, 16, 17, 19, 22, 25, 26, 27, 31, 32, 33, 34, 37, 39, 62, 67]",29.22222222222222,14.927809825049335,-0.682545846348362,67.0,0.3099484800455363,0.9990014893040888,"[77, 78, 86, 141, 185, 202]",128.16666666666666,51.24911923362412,-0.6083971608780745,202.0,0.0264350918680948,0.9936749534923052,-0.6083971608780745,457.0,"[12, 13, 14, 16, 17, 20, 23, 26, 27, 28, 32, 33, 34, 36, 39, 42, 79, 86, 170, 171, 181, 296, 426, 457]",94.91666666666669,125.545780715863,0.2421283801782109,0.9979106396657024
0.0,0.6,0.6,64.0,-1.0,2.0,"[7, 10, 11, 14, 16, 20, 21, 23, 25, 27, 28, 29, 34, 37, 39, 40, 68, 81]",29.444444444444443,18.70300695438577,-0.6516439456344016,81.0,0.3206685798413096,0.998987386045672,"[27, 36, 54, 87, 168, 204]",96.0,67.14908785679818,-0.599122709286181,204.0,0.0422164715183646,0.9953069507864029,-0.599122709286181,423.0,"[7, 10, 11, 14, 17, 21, 22, 24, 26, 28, 29, 30, 35, 39, 42, 43, 87, 100, 113, 125, 138, 181, 358, 423]",80.125,104.60174970652578,0.258137804043596,0.998283890778054
0.0,0.6,0.6,128.0,-1.0,2.0,"[7, 8, 9, 11, 12, 16, 18, 19, 21, 22, 26, 29, 30, 32, 37, 40, 65, 80]",26.77777777777778,18.934259236619376,-0.6480782185670692,80.0,0.3652332853822569,0.9991227773264736,"[24, 67, 68, 71, 167, 190]",97.83333333333331,59.569054233068215,-0.60005205865015,190.0,0.0389153592153435,0.995213935396584,-0.60005205865015,397.0,"[7, 8, 9, 11, 12, 16, 19, 20, 22, 23, 27, 30, 31, 33, 38, 46, 83, 98, 126, 156, 157, 161, 361, 397]",78.79166666666667,103.2670402268905,0.2895590182585578,0.9983177265729416
0.0,0.6,0.6,256.0,-1.0,2.0,"[6, 7, 9, 10, 12, 13, 14, 21, 22, 23, 25, 27, 33, 34, 37, 38, 63, 78]",26.22222222222222,18.73367602164484,-0.6440610225549026,78.0,0.3781090219177445,0.9991509838433072,"[47, 59, 60, 86, 211, 222]",114.16666666666669,73.35624642038937,-0.5887654990465381,222.0,0.0337350397046475,0.9943852528327414,-0.5887654990465381,513.0,"[6, 7, 9, 10, 12, 13, 14, 21, 22, 23, 28, 30, 37, 39, 43, 44, 79, 112, 136, 151, 152, 185, 488, 513]",90.58333333333331,134.22366801557598,0.2918105707632672,0.998018491261906
0.0,0.4,0.4,64.0,-1.0,2.0,"[1, 2, 4, 5, 6, 7, 9, 11, 12, 18, 21, 22, 26, 32, 42, 51, 61, 68]",22.11111111111111,20.187699469641,-0.6419212479481665,68.0,0.6262282819237979,0.999359712067876,"[39, 70, 77, 88, 125, 148]",91.16666666666669,35.95096969794031,-0.6015648783257078,148.0,0.0365280965280965,0.995552173177744,-0.6015648783257078,324.0,"[1, 2, 4, 5, 6, 7, 9, 11, 12, 18, 24, 25, 31, 40, 55, 68, 94, 106, 114, 160, 168, 183, 233, 324]",70.83333333333333,84.5185712662542,0.4719635818504893,0.9985196839736756
0.0,0.6,0.8,16.0,-1.0,2.0,"[8, 10, 13, 15, 16, 17, 18, 20, 22, 25, 26, 28, 31, 32, 36, 39, 223, 228]",44.833333333333336,64.43364373093023,-0.6190062048649464,228.0,0.3239198091751982,0.9982159378102716,"[89, 105, 127, 144, 185, 269]",153.16666666666666,60.051135616979714,-0.5991168426738339,269.0,0.0218358764777421,0.9924065618129544,-0.5991168426738339,610.0,"[8, 10, 13, 15, 16, 18, 19, 22, 24, 28, 29, 34, 38, 39, 46, 55, 211, 262, 331, 354, 382, 396, 445, 610]",141.875,176.926141016527,0.2291451058975058,0.9967232147388724
0.0,0.6,0.8,32.0,-1.0,2.0,"[5, 13, 14, 17, 18, 19, 22, 23, 25, 28, 30, 31, 32, 33, 37, 45, 70, 81]",30.166666666666668,18.61077943319707,-0.6682674522903409,81.0,0.3105800105925043,0.9989535382254716,"[54, 90, 93, 119, 215, 230]",133.5,65.85020880756568,-0.5972223955612247,230.0,0.0259925035183747,0.993404363267377,-0.5972223955612247,499.0,"[5, 13, 14, 17, 18, 19, 22, 23, 25, 28, 30, 31, 32, 33, 37, 48, 92, 109, 147, 224, 229, 272, 477, 499]",101.83333333333331,138.0877337862499,0.2475206613811932,0.9977340591111336
0.0,0.6,0.8,64.0,-1.0,2.0,"[10, 12, 15, 20, 22, 25, 26, 27, 28, 29, 32, 33, 34, 38, 40, 41, 58, 66]",30.88888888888889,14.039186779585872,-0.6667431262469597,66.0,0.2863865332215833,0.9989140491019044,"[32, 47, 52, 93, 148, 243]",102.5,73.59970561535329,-0.5850271059757707,243.0,0.0388302322797194,0.9949771689497716,-0.5850271059757707,579.0,"[10, 12, 15, 20, 22, 25, 26, 27, 28, 29, 33, 34, 35, 41, 43, 44, 74, 88, 113, 130, 136, 200, 343, 579]",87.79166666666667,126.36619378043936,0.2336059813517879,0.9980893349574514
0.0,0.6,0.8,128.0,-1.0,2.0,"[9, 10, 15, 16, 20, 21, 22, 28, 30, 31, 32, 36, 37, 38, 39, 43, 62, 64]",30.72222222222222,15.065802171199794,-0.666238165785969,64.0,0.2906838799698528,0.9989225110569546,"[51, 64, 75, 77, 155, 225]",107.83333333333331,62.09244899520571,-0.5882144077161184,225.0,0.0336217710446837,0.9947065787248436,-0.5882144077161184,542.0,"[9, 10, 15, 16, 20, 21, 22, 28, 30, 31, 32, 38, 40, 41, 44, 49, 76, 81, 138, 153, 164, 167, 349, 542]",88.16666666666667,121.32898343850997,0.2333758172003013,0.9980798186401394
0.0,0.6,0.8,256.0,-1.0,2.0,"[8, 9, 12, 17, 19, 20, 25, 26, 27, 28, 32, 34, 37, 38, 39, 42, 51, 59]",29.05555555555556,13.5747814478917,-0.6669165341679862,59.0,0.3052384532162195,0.9990071306074556,"[58, 62, 82, 95, 191, 231]",119.83333333333331,66.63186591680856,-0.5830799196842147,231.0,0.0300570182138762,0.9940977507187552,-0.5830799196842147,553.0,"[8, 9, 12, 17, 19, 20, 25, 26, 27, 28, 34, 36, 40, 41, 42, 45, 64, 72, 148, 153, 180, 197, 466, 553]",94.25,136.81625451677883,0.2419036372047707,0.9979254428259656
0.0,0.6,1.0,16.0,-1.0,2.0,"[6, 7, 8, 9, 10, 14, 15, 16, 21, 22, 24, 33, 40, 52, 54, 57, 128, 132]",36.0,36.92785759649031,-0.6472042667405252,132.0,0.3546290124552186,0.9986616007762432,"[40, 78, 124, 132, 204, 236]",135.66666666666666,67.5318854731271,-0.595850870579233,236.0,0.0258451895110467,0.9932944359885,-0.595850870579233,534.0,"[6, 9, 10, 11, 12, 16, 17, 19, 30, 35, 40, 55, 62, 75, 77, 80, 146, 200, 206, 212, 307, 319, 471, 534]",122.875,147.09416272691902,0.2187078719038136,0.9972048461317228
