LSX-UniWue/explainable-ERP-fraud-detection/outputs/summary/ex2/IsolationForest_cat.csv
bootstrap,max_features,max_samples,n_estimators,n_jobs,random_state,max_fraud_eval,min_detect_eval,max_fraud_test,min_detect_test,fraud_ranks_eval,rank_mean_eval,rank_std_eval,fraud_ranks_test,rank_mean_test,rank_std_test,auc_pr_eval,auc_pr_test,auc_roc_eval,auc_roc_test,max_fraud_joint,min_detect_joint,fraud_ranks_joint,rank_mean_joint,rank_std_joint,auc_pr_joint,auc_roc_joint
0.0,0.4,0.4,16.0,-1.0,0.0,-0.5583251992510928,660.0,-0.5485310413296216,462.0,"[2, 3, 4, 7, 9, 15, 16, 20, 33, 38, 43, 44, 49, 50, 337, 401, 498, 660]",123.83333333333331,196.3851799115424,"[3, 51, 204, 227, 354, 462]",216.8333333333333,159.3815303672989,0.3438413193607493,0.0719978923512595,0.9941965091614768,0.989176391002875,-0.5485310413296216,1201.0,"[2, 3, 4, 7, 9, 12, 23, 24, 34, 55, 70, 85, 86, 98, 101, 102, 523, 550, 566, 635, 797, 1006, 1051, 1201]",293.5,380.8850438999498,0.2448586588514306,0.9928696349117732
0.0,0.4,0.8,16.0,-1.0,0.0,-0.5242616086605839,969.0,-0.5332511023968167,490.0,"[4, 5, 6, 8, 9, 10, 11, 18, 28, 46, 49, 50, 54, 55, 58, 59, 232, 969]",92.83333333333331,218.456008793024,"[23, 53, 92, 253, 287, 490]",199.66666666666663,162.8288126291604,0.3433543171928156,0.0265499305008041,0.9957690224749526,0.9900473532893624,-0.5242616086605839,1559.0,"[5, 6, 7, 10, 11, 12, 13, 31, 48, 56, 76, 79, 80, 90, 91, 95, 96, 180, 313, 367, 815, 865, 1362, 1559]",261.125,427.5242013130173,0.2109721874189865,0.993690681622088
0.0,0.4,0.8,32.0,-1.0,0.0,-0.5678764580491158,454.0,-0.5673401692626464,179.0,"[6, 8, 9, 10, 11, 12, 16, 21, 22, 26, 27, 32, 33, 34, 44, 55, 200, 454]",56.66666666666666,105.32436670696018,"[41, 47, 93, 153, 161, 179]",112.33333333333331,55.071670474835685,0.345249148530403,0.0316534574085577,0.9976052667208232,0.9944782682225606,-0.5673401692626464,633.0,"[10, 14, 15, 16, 17, 18, 25, 30, 31, 35, 36, 48, 49, 51, 65, 90, 97, 107, 226, 303, 443, 513, 630, 633]",145.91666666666666,197.4607380102575,0.1967144758422686,0.9966143057740784
0.0,0.4,0.8,64.0,-1.0,0.0,-0.5790561073472985,136.0,-0.5837923655614452,95.0,"[6, 7, 8, 12, 13, 24, 25, 26, 27, 28, 30, 31, 36, 40, 42, 55, 66, 136]",34.0,29.28974033495157,"[41, 54, 67, 74, 81, 95]",68.66666666666667,17.594190960528863,0.3219336362679184,0.0475239573658476,0.998756092607636,0.9966937256891596,-0.5790561073472985,277.0,"[6, 7, 10, 14, 15, 30, 33, 34, 35, 36, 41, 42, 49, 57, 63, 88, 100, 118, 122, 154, 165, 172, 189, 277]",77.375,69.27530374046246,0.2215638287435922,0.9983536771050092
0.0,0.4,0.8,128.0,-1.0,0.0,-0.5867453325262536,102.0,-0.5838625858823856,130.0,"[13, 17, 18, 20, 21, 22, 23, 26, 27, 29, 30, 35, 39, 40, 41, 48, 52, 102]",33.5,19.749120936836093,"[28, 37, 86, 87, 114, 130]",80.33333333333333,37.17824931626316,0.2827127730564821,0.0434404279115797,0.9987814784727864,0.9961018095721292,-0.5838625858823856,237.0,"[15, 21, 22, 25, 27, 28, 31, 37, 38, 42, 43, 49, 54, 55, 56, 74, 79, 80, 97, 175, 176, 213, 218, 237]",78.83333333333333,68.0653280965345,0.1892945126551362,0.9983166692043514
0.0,0.4,0.8,256.0,-1.0,0.0,-0.5993850173811668,84.0,-0.5846591710866252,141.0,"[11, 12, 13, 14, 17, 20, 21, 22, 23, 28, 29, 34, 35, 38, 39, 48, 52, 84]",30.0,17.65093639316497,"[39, 42, 97, 98, 108, 141]",87.5,36.29853073243231,0.3157203520958563,0.0389756204379816,0.9989591795288384,0.995738203957382,-0.5846591710866252,260.0,"[13, 14, 15, 16, 19, 22, 23, 24, 25, 30, 31, 41, 42, 49, 53, 69, 73, 103, 108, 155, 198, 199, 211, 260]",74.70833333333333,72.82941207979705,0.2314438797252173,0.9984213486947842
0.0,0.4,1.0,16.0,-1.0,0.0,-0.5597355153770366,638.0,-0.5503746761172406,365.0,"[10, 14, 15, 16, 17, 24, 25, 26, 37, 38, 39, 48, 52, 66, 72, 73, 476, 638]",93.66666666666669,167.14132410096022,"[17, 23, 109, 233, 297, 365]",174.0,133.39540221961676,0.2185878808132976,0.0372906236507268,0.995726712699702,0.991349568746829,-0.5503746761172406,1147.0,"[22, 26, 27, 28, 29, 39, 40, 41, 49, 57, 61, 62, 64, 78, 83, 115, 137, 138, 277, 663, 737, 924, 936, 1147]",240.8333333333333,341.7217028844118,0.1264238230736479,0.9942056201255308
0.0,0.4,1.0,32.0,-1.0,0.0,-0.5532033098678121,691.0,-0.5567942583530252,261.0,"[10, 11, 12, 13, 15, 23, 24, 25, 26, 32, 33, 34, 35, 45, 46, 213, 424, 691]",95.11111111111111,175.0548767573849,"[14, 42, 119, 165, 198, 261]",133.16666666666666,85.8980338670346,0.2590705034446275,0.036123526387218,0.9956533757559348,0.993421275156435,-0.5532033098678121,976.0,"[16, 19, 20, 21, 23, 33, 34, 36, 37, 44, 51, 52, 53, 56, 74, 75, 96, 293, 465, 560, 601, 706, 940, 976]",220.04166666666663,302.06559430674804,0.1534908953243299,0.9947332470520563
0.0,0.4,1.0,64.0,-1.0,0.0,-0.5663861092607785,299.0,-0.5722011351230322,141.0,"[11, 12, 14, 17, 18, 23, 24, 26, 27, 28, 29, 34, 37, 38, 39, 59, 95, 299]",46.11111111111112,64.26238651799086,"[31, 60, 95, 125, 128, 141]",96.66666666666669,39.60078562632592,0.2804812019135969,0.0351310061178741,0.9981411905406624,0.9952731270082869,-0.5663861092607785,470.0,"[13, 14, 19, 22, 23, 34, 35, 37, 38, 39, 40, 46, 52, 54, 61, 75, 111, 130, 187, 190, 285, 290, 309, 470]",107.25,117.8046582270837,0.1783931717078828,0.9975955438258132
0.0,0.4,1.0,128.0,-1.0,0.0,-0.5719888694416558,198.0,-0.5775370669237491,139.0,"[12, 13, 14, 18, 19, 21, 22, 23, 30, 31, 32, 33, 34, 35, 36, 43, 67, 198]",37.833333333333336,40.87684756273001,"[26, 40, 109, 128, 135, 139]",96.16666666666669,45.82363533762413,0.2936218582628564,0.0379061631507152,0.998561467641484,0.9952984948418738,-0.5719888694416558,358.0,"[18, 20, 21, 26, 27, 29, 30, 31, 40, 41, 44, 45, 48, 49, 50, 67, 74, 102, 120, 206, 229, 240, 306, 358]",92.54166666666669,96.4429793395501,0.1883103506412263,0.997968794938165
0.0,0.4,1.0,256.0,-1.0,0.0,-0.5936285227812866,92.0,-0.5820098367575244,138.0,"[11, 12, 15, 16, 17, 19, 20, 21, 22, 23, 24, 34, 35, 36, 37, 47, 59, 92]",30.0,19.473628891971373,"[32, 42, 115, 129, 134, 138]",98.33333333333331,44.04038550643666,0.326175329189037,0.0361259082973595,0.9989591795288384,0.9951885675629968,-0.5820098367575244,256.0,"[13, 14, 17, 18, 19, 22, 23, 24, 25, 27, 28, 41, 43, 44, 45, 69, 90, 91, 106, 172, 226, 243, 250, 256]",79.41666666666667,81.98369587234335,0.233586351051631,0.998301866044088
0.0,0.4,0.4,32.0,-1.0,0.0,-0.5446613772255864,947.0,-0.5726161758303803,209.0,"[1, 4, 9, 13, 16, 17, 18, 20, 21, 22, 26, 27, 28, 29, 71, 298, 811, 947]",132.11111111111111,272.81513661348066,"[19, 84, 130, 138, 139, 209]",119.83333333333331,58.02705307775752,0.3726010762757203,0.0321971483455111,0.9937748217348136,0.9940977507187552,-0.5446613772255864,1323.0,"[1, 5, 20, 25, 29, 30, 31, 34, 35, 38, 44, 47, 48, 52, 53, 142, 186, 205, 220, 222, 443, 527, 1146, 1323]",204.41666666666663,338.42551084232537,0.2111102985336196,0.9951297602733932
0.0,0.6,0.4,16.0,-1.0,0.0,-0.5625253782260254,826.0,-0.6076895332251662,125.0,"[2, 3, 4, 5, 6, 7, 9, 11, 20, 28, 29, 36, 73, 74, 333, 336, 629, 826]",135.05555555555554,234.26586800808232,"[18, 45, 53, 66, 110, 125]",69.5,37.097843603099086,0.4494819620818062,0.0517773966075852,0.9936253271955954,0.9966514459665144,-0.5625253782260254,1245.0,"[2, 3, 4, 9, 10, 11, 15, 17, 30, 42, 50, 51, 67, 117, 118, 119, 135, 157, 378, 448, 460, 461, 909, 1245]",202.41666666666663,306.7587158048198,0.2728094010178863,0.9951805139657244
0.0,0.6,0.4,32.0,-1.0,0.0,-0.5727387624426243,510.0,-0.5829883585258829,181.0,"[1, 2, 4, 5, 6, 7, 8, 11, 14, 27, 28, 37, 38, 39, 56, 96, 343, 510]",68.44444444444444,131.68490262838375,"[18, 48, 55, 129, 171, 181]",100.33333333333331,63.10749207150888,0.5481281850729629,0.0408607276763751,0.9970072885639496,0.9950870962286488,-0.5727387624426243,731.0,"[2, 3, 9, 10, 11, 12, 13, 17, 20, 44, 45, 46, 62, 65, 66, 102, 110, 111, 184, 305, 419, 520, 528, 731]",143.125,198.8505117963408,0.2816361021016814,0.996685149469624
0.0,0.6,0.4,64.0,-1.0,0.0,-0.5743827359032383,283.0,-0.595679487267601,134.0,"[4, 5, 10, 11, 12, 13, 14, 17, 18, 21, 22, 23, 24, 27, 37, 114, 194, 283]",47.16666666666666,73.10133757706186,"[45, 65, 66, 126, 127, 134]",93.83333333333331,35.91386299962113,0.3978747224231149,0.0357230380558621,0.9980875981586786,0.99541687806528,-0.5743827359032383,503.0,"[5, 6, 13, 14, 15, 16, 17, 20, 21, 25, 26, 27, 28, 38, 56, 94, 160, 161, 236, 240, 243, 250, 369, 503]",107.625,131.62567267950934,0.2677730918125847,0.9975860275085012
0.0,0.6,0.4,128.0,-1.0,0.0,-0.596699789038838,154.0,-0.5893221029523773,163.0,"[1, 2, 3, 11, 12, 13, 14, 21, 22, 23, 27, 29, 30, 31, 32, 99, 115, 154]",35.5,41.23812960517648,"[23, 40, 123, 148, 156, 163]",108.83333333333331,56.2714156763647,0.4810655220196585,0.0356261049668722,0.9986799350121852,0.9946558430576696,-0.5893221029523773,336.0,"[1, 2, 3, 14, 15, 16, 17, 26, 27, 31, 35, 37, 38, 39, 40, 68, 94, 154, 196, 276, 277, 311, 326, 336]",99.125,115.30333635675944,0.3399686852018648,0.9978017307009084
0.0,0.6,0.4,256.0,-1.0,0.0,-0.5744545781771926,226.0,-0.5860541134529637,162.0,"[6, 7, 12, 13, 14, 16, 19, 20, 21, 22, 26, 27, 30, 31, 36, 77, 80, 226]",37.94444444444444,49.76999567144649,"[22, 28, 152, 156, 160, 162]",113.33333333333331,62.563745270102096,0.3498399694047472,0.0384246702777404,0.9985558263381172,0.9944275325553864,-0.5744545781771926,431.0,"[8, 9, 14, 15, 18, 20, 23, 24, 27, 28, 34, 35, 39, 40, 48, 59, 69, 161, 166, 310, 315, 347, 351, 431]",107.95833333333331,132.03676229453,0.2357643767769942,0.9975775685597794
0.0,0.6,0.6,16.0,-1.0,0.0,-0.5442413147383965,936.0,-0.6022803408880002,123.0,"[9, 10, 11, 15, 16, 17, 20, 67, 68, 70, 164, 168, 169, 182, 319, 406, 444, 936]",171.72222222222223,228.6828967893109,"[18, 27, 37, 55, 110, 123]",61.66666666666666,40.53667749362572,0.1580350881741076,0.0629455027829011,0.9917636970845743,0.9970488753593776,-0.5442413147383965,1381.0,"[13, 14, 15, 19, 20, 21, 24, 78, 79, 84, 179, 184, 190, 191, 201, 218, 219, 301, 400, 444, 464, 536, 641, 1381]",246.5,296.2396271039151,0.1123772711802092,0.9940618179972592
0.0,0.6,0.6,32.0,-1.0,0.0,-0.6030995186619967,120.0,-0.5884296262305163,164.0,"[1, 2, 6, 7, 8, 9, 11, 20, 32, 33, 34, 38, 39, 42, 44, 63, 71, 120]",32.22222222222222,29.260431293919314,"[21, 41, 45, 82, 154, 164]",84.5,55.739722520538855,0.4681365608319489,0.0468165980361102,0.9988463534615036,0.995890410958904,-0.5884296262305163,509.0,"[1, 2, 6, 7, 8, 9, 12, 25, 40, 41, 42, 49, 50, 56, 58, 69, 96, 101, 116, 135, 195, 215, 495, 509]",97.375,134.4897184731978,0.348358934015897,0.9978461401816984
0.0,0.6,0.6,64.0,-1.0,0.0,-0.6007066669383553,81.0,-0.5786839410875321,183.0,"[8, 9, 10, 11, 12, 13, 20, 22, 23, 28, 29, 33, 34, 40, 41, 62, 64, 81]",30.0,20.47220337704545,"[16, 62, 67, 90, 161, 183]",96.5,58.05959581900882,0.3416059103850178,0.0413035690384297,0.9989591795288384,0.9952815829528158,-0.5786839410875321,489.0,"[11, 12, 14, 15, 16, 18, 26, 28, 29, 34, 35, 40, 42, 53, 56, 57, 113, 121, 130, 141, 159, 172, 452, 489]",94.29166666666669,123.76135610071864,0.2250155536738818,0.9979243854573756
0.0,0.6,0.6,128.0,-1.0,0.0,-0.6129216626970695,70.0,-0.5818530032384474,166.0,"[11, 12, 13, 14, 16, 23, 24, 28, 29, 30, 31, 35, 37, 38, 41, 46, 62, 70]",31.11111111111111,16.044690672164176,"[13, 84, 98, 104, 161, 166]",104.33333333333331,51.33116878553311,0.3004339393909083,0.0395011438377449,0.9989027664951712,0.9948841535599526,-0.5818530032384474,532.0,"[13, 14, 15, 16, 19, 27, 28, 34, 35, 36, 37, 44, 47, 50, 51, 55, 65, 106, 125, 168, 258, 265, 524, 532]",106.83333333333331,144.31091049844045,0.2083392498649213,0.9976061175117156
0.0,0.6,0.6,256.0,-1.0,0.0,-0.5920510132095438,140.0,-0.5874445703306944,141.0,"[14, 15, 16, 17, 21, 24, 25, 26, 27, 30, 32, 34, 35, 38, 39, 59, 66, 140]",36.55555555555556,28.544745035396662,"[25, 56, 104, 123, 125, 141]",95.66666666666669,41.431335430511474,0.2785466640015165,0.0366056593755088,0.9986263426302012,0.9953238626754608,-0.5874445703306944,315.0,"[16, 17, 18, 19, 23, 26, 27, 28, 29, 33, 36, 41, 43, 47, 49, 72, 92, 106, 126, 238, 256, 264, 296, 315]",92.375,97.89356997099792,0.206309856734104,0.997973024412526
0.0,0.4,0.4,64.0,-1.0,0.0,-0.5706822514659246,174.0,-0.5879169997140147,134.0,"[3, 4, 5, 6, 7, 8, 9, 16, 17, 18, 22, 23, 28, 29, 76, 100, 168, 174]",39.61111111111112,52.60982046991363,"[9, 56, 82, 99, 104, 134]",80.66666666666667,39.7310402022846,0.4807401899857645,0.0527779742605006,0.9984712067876164,0.9960848976830712,-0.5706822514659246,381.0,"[3, 4, 5, 6, 7, 8, 9, 18, 19, 20, 29, 30, 35, 36, 38, 105, 150, 174, 175, 182, 219, 257, 353, 381]",94.29166666666669,112.73474736694487,0.3661019518223609,0.9979243854573754
0.0,0.6,0.8,16.0,-1.0,0.0,-0.5667770051373724,957.0,-0.5750693109023424,245.0,"[10, 11, 12, 13, 17, 23, 24, 36, 73, 170, 171, 174, 175, 176, 182, 355, 607, 957]",177.0,240.149953154274,"[5, 23, 32, 49, 119, 245]",78.83333333333333,82.53972107752458,0.148631376178952,0.0881409629069018,0.9914957351746548,0.9961779130728904,-0.5667770051373724,1250.0,"[14, 15, 16, 17, 20, 29, 36, 37, 54, 94, 96, 195, 217, 218, 222, 223, 224, 227, 241, 471, 483, 812, 997, 1250]",258.6666666666667,321.6142444330198,0.112051226196503,0.9937530663689116
0.0,0.6,0.8,32.0,-1.0,0.0,-0.6184161219793282,126.0,-0.5740248260936968,174.0,"[7, 8, 9, 10, 11, 15, 16, 22, 24, 35, 36, 37, 38, 40, 54, 55, 61, 126]",33.55555555555556,28.04801878965236,"[14, 15, 36, 72, 93, 174]",67.33333333333333,55.71255593570348,0.3269151068043792,0.0719828321886164,0.9987786578211032,0.9967613732453916,-0.5740248260936968,747.0,"[7, 8, 10, 11, 12, 18, 19, 27, 30, 48, 49, 50, 51, 52, 53, 57, 89, 90, 92, 109, 178, 204, 358, 747]",98.70833333333331,155.90581536263772,0.23971517182002,0.9978123043868108
0.0,0.6,0.8,64.0,-1.0,0.0,-0.6045067497248964,81.0,-0.5806261287003449,142.0,"[7, 8, 10, 16, 17, 20, 21, 24, 25, 26, 28, 29, 30, 34, 39, 66, 73, 81]",30.77777777777778,20.91399200842333,"[39, 41, 75, 80, 102, 142]",79.83333333333333,35.48434709683819,0.32672260109829,0.0426157737359669,0.9989196904052714,0.9961271774057162,-0.5806261287003449,398.0,"[7, 8, 10, 17, 18, 23, 25, 30, 31, 32, 36, 37, 38, 44, 50, 96, 100, 114, 136, 153, 160, 161, 254, 398]",82.41666666666667,91.04665318151764,0.2325933709806116,0.9982257355055916
0.0,0.6,0.8,128.0,-1.0,0.0,-0.6218165124488815,74.0,-0.5798697054890845,180.0,"[11, 12, 13, 16, 17, 18, 19, 22, 23, 24, 25, 26, 27, 40, 42, 43, 62, 74]",28.55555555555556,16.895831906197134,"[42, 85, 89, 124, 148, 180]",111.33333333333331,45.12821241258683,0.3364663086047917,0.0300703303960025,0.9990325164726058,0.9945290038897344,-0.5798697054890845,574.0,"[11, 12, 13, 18, 19, 20, 23, 26, 27, 29, 30, 31, 32, 47, 52, 53, 100, 113, 116, 179, 183, 353, 408, 574]",102.875,141.8929504062834,0.2356838353276822,0.9977065675277876
0.0,0.6,0.8,256.0,-1.0,0.0,-0.6039376687241872,90.0,-0.5811001925658636,167.0,"[17, 18, 21, 22, 23, 24, 25, 26, 29, 30, 31, 35, 37, 38, 39, 49, 58, 90]",34.0,17.09775813764288,"[41, 50, 105, 146, 147, 167]",109.33333333333331,48.814842915745295,0.274954633399968,0.0317167803170986,0.998756092607636,0.9946304752240824,-0.5811001925658636,407.0,"[19, 20, 23, 24, 25, 26, 27, 28, 31, 32, 33, 39, 43, 47, 50, 69, 85, 109, 121, 178, 205, 326, 349, 407]",96.5,111.48280883915092,0.2023395125166293,0.9978683449220932
0.0,0.6,1.0,16.0,-1.0,0.0,-0.5978035505291706,347.0,-0.6033506049843965,126.0,"[11, 15, 16, 17, 18, 24, 25, 28, 31, 32, 33, 37, 41, 45, 46, 49, 344, 347]",64.38888888888889,99.99563262067936,"[24, 48, 100, 106, 122, 126]",87.66666666666667,38.21721543435047,0.2617300951932511,0.0399453060943936,0.9972131961368356,0.995729748012853,-0.5978035505291706,485.0,"[12, 18, 19, 20, 21, 30, 31, 37, 42, 44, 45, 52, 63, 67, 72, 76, 86, 102, 363, 372, 400, 467, 477, 485]",141.70833333333334,168.2746958514229,0.1728838807121006,0.9967211000016918
0.0,0.6,1.0,32.0,-1.0,0.0,-0.6184612616199217,70.0,-0.5964635515855574,120.0,"[10, 11, 13, 14, 16, 17, 18, 25, 26, 27, 28, 29, 30, 35, 36, 46, 61, 70]",28.444444444444443,16.16657121010383,"[35, 41, 59, 92, 119, 120]",77.66666666666667,34.687493743743175,0.3327805612354083,0.0439490735992799,0.9990381577759724,0.9962371046845933,-0.5964635515855574,278.0,"[11, 12, 14, 15, 18, 19, 20, 35, 36, 41, 43, 45, 51, 62, 63, 78, 82, 91, 111, 125, 130, 181, 277, 278]",76.58333333333333,74.22090713239469,0.2159752701908738,0.998373767108224
0.0,0.6,1.0,64.0,-1.0,0.0,-0.6155910405492726,70.0,-0.5905522659610738,125.0,"[13, 14, 15, 17, 18, 19, 20, 21, 22, 23, 26, 27, 28, 38, 45, 46, 61, 70]",29.05555555555556,16.015521021192125,"[43, 59, 80, 102, 110, 125]",86.5,28.76774814498579,0.3278568918041351,0.0378873917945482,0.9990071306074556,0.995788939624556,-0.5905522659610738,292.0,"[14, 15, 16, 19, 20, 21, 25, 26, 29, 30, 33, 34, 35, 49, 71, 72, 103, 104, 128, 129, 168, 258, 272, 292]",81.79166666666667,83.90122126975002,0.2214201006359216,0.9982415960344448
0.0,0.6,1.0,128.0,-1.0,0.0,-0.6161176288482045,76.0,-0.5750485112266612,194.0,"[13, 14, 15, 16, 18, 19, 20, 21, 22, 25, 26, 31, 32, 38, 42, 47, 64, 76]",29.944444444444443,17.14471807947542,"[41, 67, 89, 144, 145, 194]",113.33333333333331,52.315283511502535,0.3199019097484348,0.0301895377982748,0.9989620001805216,0.9944275325553864,-0.5750485112266612,709.0,"[15, 16, 17, 18, 21, 22, 23, 24, 25, 30, 31, 36, 38, 47, 57, 68, 102, 109, 126, 153, 193, 406, 407, 709]",112.20833333333331,164.34718818370118,0.2200019962256025,0.9974697169635758
0.0,0.6,1.0,256.0,-1.0,0.0,-0.6025845061531668,89.0,-0.5747795165276699,188.0,"[11, 17, 18, 19, 20, 21, 25, 26, 27, 28, 29, 33, 36, 39, 44, 49, 59, 89]",32.77777777777778,18.100201212987034,"[46, 59, 102, 133, 178, 188]",117.66666666666669,54.22996301758732,0.2866022038576238,0.029188194908801,0.99881814694467,0.9942076779976322,-0.5747795165276699,579.0,"[13, 19, 20, 21, 22, 23, 28, 29, 30, 31, 32, 40, 44, 54, 63, 74, 93, 114, 136, 161, 206, 339, 419, 579]",107.91666666666669,141.05374763621924,0.2003495539839823,0.9975786259283695
0.0,0.4,0.4,128.0,-1.0,0.0,-0.5787405681881502,145.0,-0.5903591062029897,141.0,"[4, 5, 8, 13, 14, 15, 19, 20, 21, 22, 23, 24, 26, 27, 55, 72, 137, 145]",36.11111111111112,40.42948441269742,"[6, 34, 75, 104, 136, 141]",82.66666666666667,50.012220728760106,0.3736928606855861,0.0638782719852807,0.9986489078436682,0.995983426348723,-0.5787405681881502,333.0,"[6, 7, 10, 16, 17, 18, 22, 23, 24, 27, 28, 29, 30, 33, 34, 78, 99, 144, 168, 182, 245, 259, 313, 333]",89.375,102.13667823885145,0.2664178107242564,0.9980491549510226
0.0,0.8,0.4,16.0,-1.0,0.0,-0.5947209537888973,532.0,-0.5802483077793039,285.0,"[22, 23, 27, 28, 31, 32, 34, 52, 53, 56, 57, 62, 63, 64, 193, 359, 396, 532]",115.77777777777776,147.97956148496976,"[24, 46, 65, 76, 281, 285]",129.5,109.74022355848682,0.1418715507774784,0.0371294297537406,0.9946040933297228,0.993607305936073,-0.5802483077793039,901.0,"[45, 47, 48, 55, 56, 59, 60, 64, 92, 93, 99, 103, 104, 111, 112, 113, 252, 265, 283, 491, 563, 740, 892, 901]",235.3333333333333,266.7410833665402,0.0838691517899369,0.9943451927794412
0.0,0.8,0.4,32.0,-1.0,0.0,-0.5977509737459449,250.0,-0.5702990747835851,340.0,"[11, 12, 17, 21, 22, 23, 24, 64, 70, 71, 100, 101, 103, 113, 116, 123, 131, 250]",76.22222222222223,59.56747393181352,"[82, 85, 90, 139, 194, 340]",155.0,91.70241727093858,0.1570838373589388,0.0235425166943904,0.9966123973282788,0.9923135464231356,-0.5702990747835851,1366.0,"[21, 22, 34, 38, 39, 46, 47, 93, 104, 105, 137, 138, 144, 163, 172, 189, 206, 222, 226, 232, 326, 391, 609, 1366]",211.25,274.76205615040806,0.0870580037341992,0.9949563518245952
0.0,0.8,0.4,64.0,-1.0,0.0,-0.5647190453758282,688.0,-0.5995154324096783,93.0,"[6, 7, 8, 9, 13, 14, 15, 18, 19, 21, 25, 26, 37, 38, 55, 156, 165, 688]",73.33333333333333,155.84714733781087,"[46, 66, 81, 84, 90, 93]",76.66666666666667,16.182981458584475,0.3515344672250017,0.0427949883302851,0.9967590712158136,0.9962878403517672,-0.5647190453758282,955.0,"[8, 9, 10, 11, 15, 16, 17, 21, 22, 24, 29, 33, 64, 65, 99, 104, 171, 199, 203, 236, 241, 255, 273, 955]",128.33333333333334,195.1116489488917,0.236718613843732,0.997060515319156
0.0,0.8,0.4,128.0,-1.0,0.0,-0.5722225439220104,373.0,-0.5958249174538619,119.0,"[9, 12, 13, 14, 15, 17, 18, 20, 23, 24, 25, 26, 32, 34, 52, 76, 131, 373]",50.77777777777778,83.25766935347662,"[55, 57, 69, 85, 87, 119]",78.66666666666667,21.83015244004392,0.3137220409510969,0.0419496757190139,0.99790425579926,0.9961863690174192,-0.5722225439220104,617.0,"[11, 15, 16, 17, 18, 20, 21, 23, 26, 27, 28, 29, 42, 48, 93, 119, 121, 144, 145, 199, 201, 237, 260, 617]",103.20833333333331,131.92610910615414,0.2209158282566579,0.9976981085790656
0.0,0.8,0.4,256.0,-1.0,0.0,-0.5693034339372981,388.0,-0.5955812643304352,141.0,"[7, 10, 11, 12, 13, 14, 15, 18, 19, 20, 21, 24, 31, 32, 43, 153, 172, 388]",55.72222222222222,92.67254511064186,"[58, 67, 78, 95, 130, 141]",94.83333333333331,31.04521791766899,0.3494487434197644,0.0347789428582224,0.9976532177994404,0.995366142398106,-0.5693034339372981,661.0,"[9, 12, 13, 14, 15, 16, 17, 20, 21, 22, 23, 27, 39, 40, 82, 117, 138, 188, 245, 257, 300, 306, 338, 661]",121.66666666666669,156.45464376475235,0.2457043519864841,0.9972296942935932
0.0,0.8,0.6,16.0,-1.0,0.0,-0.6264956398584809,210.0,-0.5869256331204664,199.0,"[2, 4, 5, 18, 21, 24, 25, 102, 103, 114, 125, 126, 127, 163, 193, 204, 207, 210]",98.5,75.0527592208752,"[117, 124, 125, 154, 160, 199]",146.5,28.3827999558418,0.204744416083298,0.0226751367579905,0.9954813160032494,0.9927447995941148,-0.5869256331204664,652.0,"[4, 6, 7, 24, 27, 36, 37, 130, 131, 153, 175, 178, 179, 224, 259, 287, 293, 298, 337, 355, 356, 511, 580, 652]",218.29166666666663,179.7561958057512,0.1180857280616675,0.994777656532846
0.0,0.8,0.6,32.0,-1.0,0.0,-0.6212361010529582,141.0,-0.5809676180449238,201.0,"[2, 3, 7, 10, 11, 14, 18, 19, 31, 32, 37, 43, 54, 60, 121, 122, 123, 141]",47.11111111111112,45.62393242451316,"[127, 136, 148, 155, 200, 201]",161.16666666666666,29.17428471940467,0.3410054967362499,0.0205845610421338,0.998090418810362,0.9920006764755624,-0.5809676180449238,816.0,"[4, 5, 9, 12, 13, 16, 22, 23, 35, 36, 44, 54, 83, 99, 160, 163, 165, 216, 413, 425, 445, 517, 815, 816]",191.25,243.29067833903267,0.2049061808221075,0.9954638887479064
0.0,0.8,0.6,64.0,-1.0,0.0,-0.5850293373539045,363.0,-0.5917718061421778,130.0,"[1, 2, 3, 6, 7, 12, 13, 16, 17, 23, 34, 35, 37, 38, 39, 71, 143, 363]",47.77777777777778,83.12343937085079,"[84, 112, 117, 119, 129, 130]",115.16666666666669,15.33423910368196,0.5090941664021538,0.0289883186429014,0.9980565709901617,0.9943345171655674,-0.5850293373539045,515.0,"[3, 4, 5, 8, 9, 14, 15, 18, 19, 25, 41, 42, 47, 48, 49, 120, 220, 263, 389, 399, 403, 420, 421, 515]",145.70833333333334,173.98622530885086,0.2918310093709419,0.9966195926170296
0.0,0.8,0.6,128.0,-1.0,0.0,-0.5952778160904918,172.0,-0.5889964539703044,171.0,"[1, 2, 5, 6, 7, 25, 26, 27, 28, 32, 34, 37, 38, 42, 46, 59, 61, 172]",36.0,37.46109092556346,"[88, 95, 96, 150, 161, 171]",126.83333333333331,34.464555061041416,0.4347941959472741,0.026079425754769,0.9986545491470348,0.9937426010485372,-0.5889964539703044,390.0,"[3, 4, 7, 8, 9, 27, 28, 29, 30, 37, 43, 46, 48, 54, 58, 85, 93, 212, 247, 248, 297, 354, 371, 390]",113.66666666666669,128.11214705180078,0.2535517306918664,0.9974327090629178
0.0,0.8,0.6,256.0,-1.0,0.0,-0.5971790725380492,181.0,-0.5864926672562042,176.0,"[7, 8, 14, 15, 16, 25, 26, 27, 28, 29, 33, 35, 37, 38, 39, 60, 61, 181]",37.72222222222222,37.68407496772131,"[72, 74, 125, 136, 167, 176]",125.0,40.611985094714754,0.2942015172423743,0.026393118245531,0.9985671089448508,0.9938356164383562,-0.5864926672562042,373.0,"[9, 10, 16, 17, 18, 27, 28, 29, 30, 31, 36, 39, 45, 46, 48, 92, 93, 184, 188, 305, 306, 321, 362, 373]",110.54166666666669,123.73492472710451,0.2072745304953709,0.997512011707185
0.0,0.4,0.4,256.0,-1.0,0.0,-0.5825587667577469,129.0,-0.5948438122264638,121.0,"[1, 2, 5, 6, 9, 10, 14, 15, 18, 19, 20, 23, 25, 26, 43, 63, 100, 129]",29.33333333333333,33.79184648534153,"[20, 35, 79, 86, 88, 121]",71.5,34.09178786746157,0.5349169960093629,0.0496723545453039,0.9989930273490388,0.9965499746321664,-0.5825587667577469,306.0,"[3, 4, 7, 8, 11, 12, 16, 17, 20, 21, 22, 25, 28, 29, 56, 69, 88, 117, 152, 164, 166, 214, 243, 306]",74.91666666666667,85.43755842069042,0.3435535383170329,0.9984160618518332
0.0,0.8,0.8,16.0,-1.0,0.0,-0.6201448451342901,162.0,-0.5757454605661729,330.0,"[6, 12, 18, 19, 22, 23, 29, 43, 44, 45, 47, 60, 61, 64, 68, 118, 124, 162]",53.61111111111112,41.22315812055281,"[103, 117, 292, 293, 316, 330]",241.8333333333333,94.22210757330552,0.201744820227234,0.0141222012809808,0.9977604025634084,0.9879079993235246,-0.5757454605661729,956.0,"[8, 14, 24, 25, 29, 30, 43, 71, 73, 74, 78, 101, 102, 107, 115, 195, 209, 264, 265, 311, 725, 726, 757, 956]",220.91666666666663,270.7238624913257,0.1113805634287214,0.9947120996802516
0.0,0.8,0.8,32.0,-1.0,0.0,-0.6248189620706878,112.0,-0.5756791601997355,292.0,"[5, 13, 14, 15, 17, 18, 25, 34, 37, 40, 52, 53, 56, 57, 60, 71, 108, 112]",43.72222222222222,30.106857018064385,"[82, 95, 130, 153, 155, 292]",151.16666666666666,68.60373329653585,0.2388841988549383,0.0225457461963952,0.9982624785630472,0.9925080331473026,-0.5756791601997355,854.0,"[7, 15, 16, 17, 21, 22, 31, 49, 52, 57, 76, 77, 82, 83, 98, 127, 173, 181, 202, 247, 325, 541, 544, 854]",162.375,205.8919240159749,0.1460963112859376,0.996196645180937
0.0,0.8,0.8,64.0,-1.0,0.0,-0.5990437541438131,159.0,-0.5869436576050565,134.0,"[5, 6, 9, 10, 12, 22, 23, 27, 28, 29, 33, 37, 38, 41, 49, 56, 59, 159]",35.72222222222222,33.883469512032555,"[82, 102, 103, 106, 107, 134]",105.66666666666669,15.195028426721972,0.323006662505834,0.0316950198504855,0.9986686524054518,0.9948165060037206,-0.5869436576050565,381.0,"[7, 8, 11, 12, 14, 24, 25, 30, 31, 32, 36, 43, 44, 51, 72, 83, 89, 172, 259, 262, 263, 267, 268, 381]",103.5,111.42897588449183,0.2203776691295286,0.9976907069989344
0.0,0.8,0.8,128.0,-1.0,0.0,-0.6052646900151668,96.0,-0.5895619686900977,136.0,"[6, 7, 8, 9, 10, 14, 28, 29, 30, 31, 33, 36, 37, 40, 42, 51, 52, 96]",31.05555555555556,21.46178055733862,"[74, 75, 110, 117, 129, 136]",106.83333333333331,24.31334795722072,0.3410602088568074,0.0307530464370409,0.9989055871468544,0.9947573143920176,-0.5895619686900977,377.0,"[8, 9, 10, 11, 12, 16, 30, 31, 32, 33, 35, 39, 41, 53, 57, 76, 77, 160, 162, 183, 279, 286, 308, 377]",96.875,108.71572735809664,0.2338683461864128,0.997858828604781
0.0,0.8,0.8,256.0,-1.0,0.0,-0.6112173226389302,87.0,-0.5871954289551368,171.0,"[11, 12, 13, 16, 18, 19, 25, 26, 27, 28, 31, 36, 37, 38, 39, 45, 51, 87]",31.05555555555556,17.661861680601266,"[64, 77, 108, 110, 126, 171]",109.33333333333331,34.600899153377824,0.3035387285201893,0.0300851165160375,0.9989055871468544,0.9946304752240824,-0.5871954289551368,362.0,"[13, 14, 15, 18, 20, 21, 27, 28, 29, 30, 33, 39, 40, 45, 47, 64, 77, 142, 161, 166, 275, 278, 299, 362]",93.45833333333331,104.25248964519852,0.2186875786030628,0.99794553282918
0.0,0.8,1.0,16.0,-1.0,0.0,-0.5976582487976861,569.0,-0.5586209610866346,344.0,"[26, 29, 38, 39, 101, 102, 104, 105, 106, 107, 112, 113, 116, 177, 178, 179, 285, 569]",138.11111111111111,121.35296951404422,"[125, 135, 175, 213, 217, 344]",201.5,72.6355055511192,0.0794133319205578,0.0165367249666951,0.9934701913530102,0.9899543378995432,-0.5586209610866346,1441.0,"[28, 33, 60, 61, 130, 131, 138, 139, 146, 147, 158, 159, 163, 227, 228, 229, 364, 642, 690, 720, 824, 945, 983, 1441]",366.0833333333333,370.5196707178836,0.0504480745326835,0.9910271701432948
0.0,0.8,1.0,32.0,-1.0,0.0,-0.595677287064282,547.0,-0.5711206907681634,291.0,"[15, 27, 30, 31, 34, 35, 96, 97, 102, 103, 107, 109, 110, 111, 112, 113, 115, 547]",105.22222222222224,113.29438328509768,"[94, 129, 142, 143, 152, 291]",158.5,62.10407930777709,0.1117972315587168,0.0214590426533128,0.9951400171495622,0.9921359715880262,-0.5711206907681634,1307.0,"[17, 31, 34, 35, 40, 41, 106, 108, 113, 114, 122, 126, 130, 134, 136, 137, 142, 450, 674, 676, 695, 696, 711, 1307]",282.2916666666667,326.6661750634056,0.079734633903401,0.9931535383782504
0.0,0.8,1.0,64.0,-1.0,0.0,-0.5771705921583379,646.0,-0.5780692376403004,180.0,"[10, 11, 16, 17, 18, 20, 24, 25, 28, 32, 33, 38, 43, 45, 48, 51, 62, 646]",64.83333333333333,141.67852891513078,"[105, 120, 122, 151, 152, 180]",138.33333333333334,25.15728301881761,0.2720892553703958,0.0239164627542511,0.9971906309233683,0.9931591408760356,-0.5771705921583379,827.0,"[12, 13, 18, 19, 20, 22, 26, 27, 30, 35, 36, 42, 47, 50, 57, 62, 91, 559, 605, 669, 779, 781, 824, 827]",235.4583333333333,316.474983103808,0.1879617523384414,0.9943420206736706
0.0,0.8,1.0,128.0,-1.0,0.0,-0.5967253536035122,197.0,-0.5771419965085003,189.0,"[15, 16, 20, 21, 23, 24, 25, 26, 29, 32, 33, 34, 39, 40, 44, 52, 55, 197]",40.27777777777778,39.60331854158402,"[99, 111, 120, 126, 132, 189]",129.5,28.64000698323937,0.265337620600531,0.0257483132483132,0.9984373589674158,0.993607305936073,-0.5771419965085003,597.0,"[17, 18, 22, 23, 25, 26, 27, 28, 31, 34, 35, 37, 43, 46, 50, 69, 78, 232, 304, 309, 343, 410, 447, 597]",135.45833333333334,167.05462658630228,0.1909716635174488,0.9968797052902264
0.0,0.8,1.0,256.0,-1.0,0.0,-0.5958011481533264,142.0,-0.5881747287665297,140.0,"[14, 15, 16, 19, 20, 25, 26, 28, 29, 31, 32, 36, 37, 38, 40, 54, 69, 142]",37.27777777777778,28.757232047986268,"[72, 97, 133, 138, 139, 140]",119.83333333333331,26.098637682624144,0.2705070277587164,0.0274796182820776,0.9985896741583176,0.9940977507187552,-0.5881747287665297,375.0,"[16, 17, 18, 21, 22, 27, 28, 30, 31, 33, 34, 39, 41, 44, 47, 76, 111, 157, 199, 256, 307, 314, 315, 375]",106.58333333333331,115.95578060431292,0.1977476538400551,0.9976124617232572
0.0,0.4,0.6,16.0,-1.0,0.0,-0.5922284334815437,220.0,-0.5611058199447965,281.0,"[7, 8, 20, 21, 29, 31, 33, 35, 36, 38, 44, 47, 48, 57, 63, 64, 197, 220]",55.44444444444444,56.49407267062253,"[17, 21, 143, 177, 207, 281]",141.0,95.77055915050305,0.2122468950380012,0.0405244030374364,0.9976673210578572,0.9930238457635716,-0.5611058199447965,826.0,"[8, 9, 24, 25, 42, 45, 49, 51, 52, 53, 58, 59, 74, 80, 81, 105, 127, 128, 281, 334, 530, 640, 684, 826]",181.875,234.6748304391987,0.1347579321127758,0.9957017966807086
0.0,1.0,0.4,16.0,-1.0,0.0,-0.5728476720473629,525.0,-0.5669975361669128,409.0,"[1, 2, 3, 4, 5, 6, 7, 12, 13, 14, 16, 17, 36, 53, 249, 254, 421, 525]",91.0,155.56777729765676,"[143, 149, 171, 181, 362, 409]",235.8333333333333,107.44985910750287,0.6284322974621075,0.0147568690490646,0.9958621039805036,0.9882124133265684,-0.5669975361669128,1009.0,"[1, 2, 3, 4, 5, 6, 7, 16, 18, 19, 22, 23, 57, 96, 309, 320, 348, 367, 523, 538, 755, 818, 907, 1009]",257.2083333333333,324.2515714645378,0.4300863367776336,0.99379007426957
0.0,1.0,0.4,32.0,-1.0,0.0,-0.5714121527846282,342.0,-0.568919135026709,385.0,"[1, 2, 3, 4, 5, 10, 14, 15, 26, 30, 31, 32, 74, 75, 142, 144, 211, 342]",64.5,89.0500795432922,"[82, 153, 157, 218, 340, 385]",222.5,107.31068601650692,0.4893578556528175,0.0155023699035668,0.9972075548334688,0.9888888888888888,-0.568919135026709,741.0,"[3, 4, 5, 6, 7, 15, 22, 23, 41, 48, 49, 50, 114, 115, 185, 276, 280, 359, 365, 381, 456, 669, 703, 741]",204.875,234.8727159725738,0.2374864040901022,0.9951181292189006
0.0,1.0,0.4,64.0,-1.0,0.0,-0.563058724441821,296.0,-0.5765165543485196,200.0,"[1, 2, 3, 4, 5, 13, 15, 16, 18, 19, 35, 44, 51, 86, 173, 197, 273, 296]",69.5,93.83392539777688,"[110, 126, 136, 145, 182, 200]",149.83333333333334,31.413461374951275,0.4894378353035131,0.0220135804770693,0.996953696181966,0.9925756807035346,-0.563058724441821,604.0,"[3, 4, 5, 6, 7, 16, 22, 23, 25, 26, 56, 74, 99, 141, 282, 283, 308, 322, 340, 347, 394, 421, 540, 604]",181.16666666666663,186.6758926291472,0.2463837218822576,0.9957197719467424
0.0,1.0,0.4,128.0,-1.0,0.0,-0.5764424268429501,232.0,-0.5877405704953124,144.0,"[1, 2, 3, 5, 6, 13, 14, 15, 18, 19, 26, 28, 40, 43, 98, 105, 230, 232]",49.888888888888886,70.24234943622677,"[89, 93, 119, 125, 140, 144]",118.33333333333331,21.11608128628248,0.5117668196216733,0.0278887279691386,0.9979493862261938,0.9941738542195162,-0.5764424268429501,462.0,"[3, 4, 5, 7, 8, 17, 18, 19, 22, 23, 33, 41, 75, 79, 175, 188, 202, 212, 280, 288, 338, 342, 454, 462]",137.29166666666666,148.3575296276607,0.2722727743107817,0.9968331810722564
0.0,1.0,0.4,256.0,-1.0,0.0,-0.5816961218957771,217.0,-0.5953672295284518,134.0,"[2, 3, 4, 9, 10, 15, 16, 17, 18, 19, 25, 26, 28, 31, 57, 64, 191, 217]",41.77777777777778,59.72581384549041,"[65, 80, 90, 102, 112, 134]",97.16666666666669,22.28913537029993,0.4433161611674231,0.0337254352563834,0.998361201371965,0.9952477591746998,-0.5816961218957771,406.0,"[4, 5, 6, 11, 12, 17, 18, 19, 20, 21, 33, 36, 41, 44, 109, 128, 131, 157, 216, 230, 242, 290, 343, 406]",105.79166666666669,118.02788482906156,0.2730602017069782,0.9976325517264716
0.0,1.0,0.6,16.0,-1.0,0.0,-0.5827152777659936,288.0,-0.6147411090772373,159.0,"[9, 10, 11, 20, 21, 33, 34, 39, 45, 52, 53, 54, 55, 56, 75, 76, 114, 288]",58.05555555555556,61.55257212986692,"[38, 112, 114, 127, 129, 159]",113.16666666666669,36.9568066201012,0.2054501180894613,0.0297467206292869,0.9975347504287392,0.9944359884999154,-0.5827152777659936,561.0,"[9, 10, 13, 22, 23, 41, 43, 50, 65, 80, 81, 84, 87, 89, 94, 140, 141, 198, 200, 219, 221, 263, 299, 561]",126.375,122.71980704705604,0.1404439762542577,0.9971102116428968
0.0,1.0,0.6,32.0,-1.0,0.0,-0.5787008804335089,256.0,-0.5831512117736295,209.0,"[14, 15, 17, 18, 19, 23, 24, 29, 30, 32, 36, 37, 39, 44, 46, 69, 157, 256]",50.27777777777778,59.13619455268355,"[69, 71, 101, 160, 164, 209]",129.0,52.175984258405066,0.2484009358718515,0.0260934461423443,0.9979296416644102,0.99363267376966,-0.5787008804335089,508.0,"[16, 17, 19, 21, 22, 27, 32, 42, 43, 45, 53, 54, 57, 68, 70, 137, 138, 143, 257, 259, 345, 349, 448, 508]",132.08333333333334,144.33783191603723,0.1567377990668333,0.9969653521460352
0.0,1.0,0.6,64.0,-1.0,0.0,-0.5856877905708453,179.0,-0.5872809059269404,143.0,"[10, 15, 16, 20, 21, 27, 30, 31, 33, 34, 37, 42, 45, 49, 50, 138, 143, 179]",51.11111111111112,47.62572704477287,"[74, 82, 92, 122, 141, 143]",109.0,27.664658561661906,0.2261540883048706,0.0301197288633119,0.9978873318891596,0.9946473871131404,-0.5856877905708453,323.0,"[12, 18, 19, 23, 24, 34, 39, 40, 46, 47, 53, 61, 71, 85, 89, 207, 212, 220, 230, 238, 280, 315, 319, 323]",125.20833333333331,110.01021890664926,0.1431497126204079,0.9971398179634235
0.0,1.0,0.6,128.0,-1.0,0.0,-0.5913093168850784,172.0,-0.5866734812395219,171.0,"[5, 6, 7, 8, 9, 24, 25, 27, 28, 29, 34, 38, 43, 44, 46, 60, 62, 172]",37.05555555555556,36.98569126060363,"[74, 82, 87, 91, 148, 171]",108.83333333333331,36.80315505798684,0.3304090731505718,0.0308690105124525,0.9986009567650512,0.9946558430576696,-0.5866734812395219,354.0,"[7, 8, 9, 11, 12, 29, 30, 33, 34, 35, 46, 53, 63, 65, 71, 108, 112, 158, 171, 179, 211, 319, 322, 354]",101.66666666666669,104.38297541053116,0.2069839353907204,0.9977372312169044
0.0,1.0,0.6,256.0,-1.0,0.0,-0.5955303770256152,169.0,-0.5989558382682527,121.0,"[6, 7, 8, 9, 10, 27, 29, 30, 32, 33, 34, 36, 38, 40, 44, 56, 73, 169]",37.833333333333336,36.21425440654856,"[71, 77, 84, 104, 116, 121]",95.5,19.224550276491083,0.3106654781630361,0.0344874303879116,0.998561467641484,0.9953323186199898,-0.5955303770256152,308.0,"[8, 9, 10, 11, 12, 32, 34, 35, 39, 40, 41, 45, 53, 56, 62, 95, 139, 145, 151, 164, 233, 254, 261, 308]",93.20833333333331,89.64791276928253,0.2074851560168762,0.9979518770407214
0.0,0.4,0.6,32.0,-1.0,0.0,-0.5957413143116561,140.0,-0.5826990048752742,140.0,"[6, 8, 9, 10, 11, 23, 25, 26, 27, 28, 33, 34, 38, 39, 47, 65, 135, 140]",39.11111111111112,37.77107783725074,"[19, 49, 107, 124, 128, 140]",94.5,44.701789673345296,0.3021509198413602,0.0392771660048037,0.9984965926527666,0.9953830542871638,-0.5826990048752742,417.0,"[10, 12, 15, 17, 18, 34, 36, 37, 38, 39, 47, 48, 56, 58, 59, 80, 104, 133, 219, 234, 309, 334, 338, 417]",112.16666666666669,121.3124982111168,0.178022425512162,0.997470774332166
0.0,1.0,0.8,16.0,-1.0,0.0,-0.5906782253203006,584.0,-0.5884507470531692,228.0,"[5, 10, 11, 15, 16, 17, 20, 24, 30, 31, 32, 33, 34, 37, 38, 101, 439, 584]",82.05555555555556,155.04783212581071,"[68, 105, 157, 185, 210, 228]",158.83333333333334,56.62572050068964,0.2861655016214124,0.0207681194266944,0.9963162289015252,0.9921190596989684,-0.5884507470531692,816.0,"[9, 16, 17, 21, 22, 23, 26, 30, 37, 38, 39, 40, 43, 50, 51, 118, 371, 431, 595, 596, 694, 726, 803, 816]",233.8333333333333,293.69849430249985,0.1715171788789174,0.9943832580486898
0.0,1.0,0.8,32.0,-1.0,0.0,-0.6137141711952792,292.0,-0.5688085247670619,296.0,"[6, 7, 8, 9, 11, 12, 13, 17, 19, 32, 37, 127, 132, 133, 171, 172, 269, 292]",81.5,91.844826866962,"[65, 151, 169, 216, 294, 296]",198.5,81.52862482997409,0.280539055604534,0.0170294532161693,0.9963444354183592,0.9901065449010656,-0.5688085247670619,1004.0,"[12, 13, 14, 15, 17, 18, 19, 27, 29, 51, 59, 155, 168, 169, 214, 215, 332, 334, 383, 652, 684, 759, 1001, 1004]",264.3333333333333,313.1019092173594,0.1449436130911934,0.9936092642406402
0.0,1.0,0.8,64.0,-1.0,0.0,-0.5918302742980711,434.0,-0.5658370176938371,252.0,"[4, 7, 8, 10, 11, 13, 25, 31, 35, 38, 39, 44, 45, 50, 51, 52, 60, 434]",53.16666666666666,94.026148845237,"[119, 127, 150, 202, 212, 252]",177.0,48.42175819470692,0.3063519460135525,0.0185579670847536,0.9977829677768753,0.9911973617453068,-0.5658370176938371,928.0,"[6, 9, 10, 14, 15, 18, 37, 47, 56, 59, 60, 67, 68, 80, 81, 82, 95, 425, 555, 564, 651, 732, 748, 928]",225.29166666666663,290.2216795208258,0.166709526246124,0.994600018609687
0.0,1.0,0.8,128.0,-1.0,0.0,-0.5903578266830806,192.0,-0.5708959021761935,230.0,"[6, 7, 8, 9, 10, 22, 25, 26, 28, 31, 32, 38, 39, 44, 49, 50, 58, 192]",37.44444444444444,40.60408055878979,"[76, 89, 169, 201, 210, 230]",162.5,59.47198219890326,0.3218882027034412,0.0205297103304738,0.9985812122032676,0.9919330289193302,-0.5708959021761935,774.0,"[8, 9, 10, 11, 12, 25, 30, 31, 35, 40, 41, 54, 57, 64, 71, 72, 88, 154, 172, 319, 496, 609, 621, 774]",158.45833333333334,222.653501201356,0.201685711817149,0.9962960378284188
0.0,1.0,0.8,256.0,-1.0,0.0,-0.5997506832950199,134.0,-0.5823400517880702,187.0,"[7, 11, 12, 13, 14, 15, 16, 19, 20, 25, 26, 36, 37, 42, 43, 51, 53, 134]",31.88888888888889,28.442708280348192,"[51, 88, 125, 141, 156, 187]",124.66666666666669,44.54460935087681,0.3375811386668451,0.0264734589565628,0.998863277371604,0.9938525283274142,-0.5823400517880702,583.0,"[9, 13, 14, 15, 16, 17, 18, 21, 22, 27, 28, 45, 46, 61, 62, 74, 76, 117, 176, 238, 294, 403, 421, 583]",116.5,153.90554462613318,0.2307783268022362,0.997360807998782
0.0,1.0,1.0,16.0,-1.0,0.0,-0.5765282879302593,420.0,-0.5751671601034929,227.0,"[12, 13, 14, 15, 16, 17, 18, 20, 21, 22, 25, 26, 27, 32, 38, 57, 208, 420]",55.61111111111112,98.50896117662984,"[46, 88, 96, 120, 201, 227]",129.66666666666666,63.93399374007191,0.3258002518064437,0.0267261794079349,0.9976588591028072,0.993598849991544,-0.5751671601034929,709.0,"[14, 15, 16, 17, 18, 19, 20, 22, 23, 24, 28, 29, 30, 37, 44, 79, 141, 202, 216, 314, 335, 613, 641, 709]",150.25,212.2697281762051,0.2338221471561991,0.9965043394406944
0.0,1.0,1.0,32.0,-1.0,0.0,-0.5862627834862585,387.0,-0.5606799497161351,285.0,"[7, 17, 18, 19, 20, 21, 22, 23, 24, 25, 26, 27, 29, 31, 35, 45, 100, 387]",48.66666666666666,84.21929047960977,"[124, 147, 172, 178, 222, 285]",188.0,52.75414675643992,0.3067692378984258,0.0175264804974747,0.9980114405632275,0.9906392694063928,-0.5606799497161351,1074.0,"[7, 20, 21, 22, 23, 24, 25, 26, 27, 28, 29, 30, 32, 37, 43, 57, 160, 375, 412, 540, 569, 637, 889, 1074]",212.79166666666663,304.73307707547747,0.2079417937249888,0.9949172291867566
0.0,1.0,1.0,64.0,-1.0,0.0,-0.5843456753899351,472.0,-0.5670652548530861,229.0,"[18, 19, 20, 21, 22, 23, 25, 26, 28, 33, 34, 42, 44, 48, 49, 55, 141, 472]",62.22222222222222,103.08440746169322,"[114, 115, 147, 165, 172, 229]",157.0,39.1279950930277,0.238447944800312,0.0210140770807372,0.9973232015524868,0.9922120750887876,-0.5670652548530861,770.0,"[21, 22, 23, 24, 25, 26, 29, 30, 34, 43, 44, 65, 68, 75, 76, 93, 207, 450, 451, 613, 626, 651, 662, 770]",213.66666666666663,259.37178378193386,0.1460817946645224,0.994895024446362
0.0,1.0,1.0,128.0,-1.0,0.0,-0.5998026537739573,98.0,-0.5850224783411342,156.0,"[10, 11, 12, 13, 19, 22, 23, 30, 31, 32, 35, 38, 40, 41, 42, 52, 60, 98]",33.833333333333336,20.83066649597815,"[92, 108, 115, 146, 148, 156]",127.5,23.70478151484773,0.2872734312643736,0.0258529371294906,0.998764554562686,0.9937087772704212,-0.5850224783411342,532.0,"[12, 13, 14, 15, 21, 24, 25, 34, 36, 37, 41, 52, 54, 57, 58, 80, 97, 181, 200, 212, 316, 439, 464, 532]",125.58333333333331,153.5705366345453,0.1889287134913191,0.9971303016461116
0.0,1.0,1.0,256.0,-1.0,0.0,-0.6016392397911295,96.0,-0.5860794407645336,159.0,"[15, 16, 19, 20, 21, 22, 23, 24, 25, 28, 36, 38, 39, 41, 42, 56, 66, 96]",34.833333333333336,20.07555174279845,"[78, 80, 120, 143, 150, 159]",121.66666666666669,32.39684483951416,0.2752221333327499,0.0269769538637463,0.9987137828323857,0.9940047353289364,-0.5860794407645336,519.0,"[17, 18, 21, 22, 23, 25, 26, 27, 28, 32, 47, 53, 56, 59, 60, 93, 112, 161, 164, 193, 350, 437, 504, 519]",126.95833333333331,155.77801491402937,0.180454200366933,0.9970954084826336
0.0,0.4,0.6,64.0,-1.0,0.0,-0.5979361540534143,82.0,-0.5871038886419234,117.0,"[12, 14, 16, 17, 18, 19, 20, 24, 25, 28, 29, 34, 35, 36, 41, 61, 75, 82]",32.55555555555556,19.925478447405588,"[30, 58, 77, 87, 94, 117]",77.16666666666667,27.564570657921657,0.295292103605532,0.0428712805088447,0.9988294295514034,0.9962624725181805,-0.5871038886419234,245.0,"[14, 16, 19, 20, 21, 22, 23, 34, 35, 38, 39, 52, 53, 55, 61, 74, 108, 128, 145, 158, 159, 173, 219, 245]",79.625,67.95146092371132,0.1961507329653705,0.9982965792011368
0.0,0.4,0.6,128.0,-1.0,0.0,-0.5953751544258427,86.0,-0.5815829343165542,149.0,"[7, 10, 14, 15, 16, 19, 20, 24, 25, 26, 27, 32, 33, 34, 37, 52, 59, 86]",29.77777777777778,18.93132488043019,"[22, 25, 84, 97, 129, 149]",84.33333333333333,47.85974880372394,0.3223496384874975,0.0469056818115354,0.9989704621355716,0.9958988669034332,-0.5815829343165542,292.0,"[11, 14, 21, 22, 23, 27, 28, 40, 41, 42, 43, 50, 51, 52, 56, 62, 67, 88, 102, 167, 174, 189, 230, 292]",78.83333333333333,73.73865261102138,0.1971650876606154,0.9983166692043512
0.0,0.4,0.6,256.0,-1.0,0.0,-0.5914425163771987,98.0,-0.589084773058032,131.0,"[4, 5, 6, 8, 9, 11, 12, 23, 24, 25, 26, 27, 30, 31, 32, 50, 68, 98]",27.166666666666668,23.51181735969288,"[26, 32, 82, 92, 99, 131]",77.0,37.13937712635113,0.4206590255316713,0.0462219570678949,0.99910303276469,0.9962709284627091,-0.589084773058032,238.0,"[6, 7, 8, 10, 11, 13, 14, 29, 30, 31, 32, 33, 36, 39, 40, 71, 78, 86, 110, 171, 182, 191, 207, 238]",69.70833333333333,71.38655286925932,0.2860275925034401,0.998548232925612
0.0,0.4,0.4,16.0,-1.0,1.0,-0.5706813305723765,113.0,-0.5799285271298074,106.0,"[13, 14, 18, 19, 20, 22, 26, 27, 28, 34, 35, 41, 43, 45, 49, 50, 94, 113]",38.388888888888886,25.86103651976353,"[22, 38, 68, 80, 82, 106]",66.0,28.21347195933177,0.2580262194531353,0.0516305258002901,0.9985332611246504,0.9968290208016236,-0.5706813305723765,276.0,"[34, 40, 41, 52, 63, 64, 66, 68, 73, 74, 75, 84, 85, 98, 100, 105, 116, 119, 122, 145, 151, 197, 212, 276]",102.5,57.60208329565867,0.1195673910477866,0.9977160838450998
0.0,0.4,0.8,16.0,-1.0,1.0,-0.611446269171662,75.0,-0.5642107039141167,223.0,"[10, 13, 14, 16, 26, 29, 30, 31, 32, 42, 43, 44, 46, 47, 48, 49, 53, 75]",36.0,16.34353422950835,"[6, 9, 77, 109, 168, 223]",98.66666666666669,79.02460938776532,0.2510027797519008,0.0868691516524445,0.9986545491470348,0.9951716556739388,-0.5642107039141167,721.0,"[10, 13, 14, 16, 28, 34, 35, 39, 40, 41, 42, 63, 65, 66, 69, 71, 72, 74, 82, 142, 161, 202, 404, 721]",104.33333333333331,152.6001492645258,0.1873614436996293,0.9976695596271296
0.0,0.4,0.8,32.0,-1.0,1.0,-0.6262082790572915,69.0,-0.5874024643150717,101.0,"[8, 15, 18, 19, 22, 25, 26, 27, 31, 32, 33, 34, 40, 41, 45, 56, 60, 69]",33.388888888888886,15.73085746369885,"[29, 33, 73, 86, 97, 101]",69.83333333333333,28.88146272072952,0.2723340451175838,0.0489414449818871,0.9987871197761532,0.9966345340774564,-0.5874024643150717,402.0,"[8, 15, 18, 19, 22, 25, 26, 29, 33, 34, 38, 39, 48, 53, 59, 84, 87, 89, 101, 102, 294, 323, 334, 402]",95.08333333333331,113.19228355128963,0.2064271038372735,0.997904295454161
0.0,0.4,0.8,64.0,-1.0,1.0,-0.6084077838501156,81.0,-0.5884070745478575,107.0,"[10, 11, 12, 15, 16, 18, 19, 20, 21, 22, 23, 33, 34, 38, 46, 55, 56, 81]",29.444444444444443,18.71785310048559,"[48, 57, 70, 73, 103, 107]",76.33333333333333,21.906366400863675,0.3342511961830399,0.0430318619520325,0.998987386045672,0.9963047522408254,-0.5884070745478575,340.0,"[10, 11, 12, 15, 16, 18, 19, 20, 21, 22, 23, 33, 37, 49, 66, 79, 81, 120, 136, 143, 225, 230, 335, 340]",85.875,98.55383998099718,0.2565625363979805,0.998137973912602
0.0,0.4,0.8,128.0,-1.0,1.0,-0.5944103563871483,102.0,-0.5872259367019996,119.0,"[10, 11, 12, 13, 14, 16, 19, 20, 21, 22, 23, 24, 25, 40, 43, 45, 51, 102]",28.38888888888889,21.569368426567056,"[27, 30, 60, 72, 82, 119]",65.0,31.485446373417247,0.3589352321871305,0.0534425061804306,0.999040978427656,0.9968797564687976,-0.5872259367019996,295.0,"[10, 11, 12, 13, 14, 16, 19, 20, 21, 22, 23, 24, 25, 46, 53, 60, 68, 88, 95, 144, 160, 183, 186, 295]",67.0,73.03823199758695,0.2916910676029663,0.998616961883977
0.0,0.4,0.8,256.0,-1.0,1.0,-0.5962950061863981,94.0,-0.5856307302928068,116.0,"[10, 11, 12, 14, 15, 18, 19, 20, 21, 22, 23, 24, 28, 37, 40, 43, 55, 94]",28.11111111111111,19.91618238989728,"[29, 39, 70, 71, 77, 116]",67.0,28.14841617806113,0.3540235019787674,0.0502698639658328,0.9990550816860728,0.9967782851344494,-0.5856307302928068,228.0,"[10, 11, 12, 14, 15, 18, 19, 20, 21, 22, 23, 24, 30, 49, 54, 61, 80, 88, 103, 159, 164, 165, 174, 228]",65.16666666666667,64.00954789890507,0.2819722060393448,0.9986634861019472
0.0,0.4,1.0,16.0,-1.0,1.0,-0.585258891443311,278.0,-0.5556577943468174,236.0,"[3, 8, 20, 28, 35, 40, 44, 45, 46, 55, 64, 65, 70, 135, 203, 204, 277, 278]",90.0,86.81653708315663,"[31, 38, 163, 208, 209, 236]",147.5,82.74206910635,0.1581711909421608,0.0286454157432271,0.9959128757108042,0.9926940639269408,-0.5556577943468174,920.0,"[3, 8, 24, 38, 58, 69, 72, 75, 76, 79, 89, 98, 116, 117, 135, 206, 297, 298, 385, 386, 644, 878, 879, 920]",247.91666666666663,284.47069513200984,0.102329135991182,0.9940258674651914
0.0,0.4,1.0,32.0,-1.0,1.0,-0.6322147234318044,61.0,-0.5832505128274895,100.0,"[8, 9, 17, 18, 23, 26, 27, 28, 39, 40, 43, 44, 50, 52, 54, 55, 58, 61]",36.22222222222222,16.658516525774623,"[22, 45, 85, 97, 99, 100]",74.66666666666667,30.25814858109392,0.2521527176671667,0.0461558785755268,0.9986432665403014,0.9963893116861154,-0.5832505128274895,400.0,"[8, 9, 17, 18, 26, 29, 30, 31, 46, 48, 51, 52, 59, 62, 65, 66, 70, 77, 84, 132, 319, 332, 395, 400]",101.08333333333331,120.391346818984,0.1920781693225625,0.9977520343771676
0.0,0.4,1.0,64.0,-1.0,1.0,-0.6202594996532635,74.0,-0.5848405033587931,115.0,"[11, 14, 15, 16, 17, 18, 20, 21, 24, 25, 26, 29, 32, 33, 37, 51, 56, 74]",28.83333333333333,16.15979235290135,"[48, 52, 68, 99, 109, 115]",81.83333333333333,26.953148651358383,0.3275358711400801,0.0403103386557069,0.9990184132141888,0.9960257060713682,-0.5848405033587931,473.0,"[11, 14, 15, 16, 17, 18, 20, 21, 25, 26, 27, 32, 35, 36, 41, 66, 75, 111, 132, 144, 170, 396, 466, 473]",99.45833333333331,138.3178643459413,0.2513920608385069,0.9977932717521866
0.0,0.4,1.0,128.0,-1.0,1.0,-0.6146489319969581,78.0,-0.584706808062366,115.0,"[11, 12, 17, 18, 19, 20, 21, 22, 23, 24, 25, 26, 27, 32, 35, 40, 59, 78]",28.27777777777778,16.192609958989028,"[40, 46, 66, 82, 87, 115]",72.66666666666667,25.519056060564274,0.3347335088505357,0.0453930785900471,0.9990466197310224,0.9964907830204632,-0.584706808062366,235.0,"[12, 13, 18, 19, 20, 21, 22, 23, 24, 28, 29, 30, 31, 36, 40, 49, 78, 116, 118, 131, 165, 188, 196, 235]",68.41666666666667,66.67890512665073,0.2548530701442349,0.9985810113519092
0.0,0.4,1.0,256.0,-1.0,1.0,-0.6023356947909454,87.0,-0.587958167547701,98.0,"[12, 13, 14, 15, 16, 21, 22, 26, 27, 28, 29, 30, 36, 38, 39, 46, 59, 87]",31.0,18.21781789591961,"[43, 53, 80, 86, 94, 98]",75.66666666666667,20.58046538724417,0.3066556367549576,0.0432365450124482,0.9989084077985376,0.9963385760189412,-0.587958167547701,207.0,"[12, 13, 14, 15, 18, 23, 24, 29, 30, 31, 32, 34, 40, 42, 43, 63, 83, 110, 130, 146, 181, 193, 203, 207]",71.5,66.08265026969384,0.2359244091436819,0.998502766076232
0.0,0.4,0.4,32.0,-1.0,1.0,-0.5475682962366829,514.0,-0.6014384999007919,67.0,"[9, 11, 12, 13, 14, 15, 16, 20, 21, 22, 24, 25, 28, 34, 50, 63, 195, 514]",60.333333333333336,117.57409011626102,"[14, 32, 50, 52, 54, 67]",44.833333333333336,17.169902607631634,0.3333354824660998,0.0754994132917018,0.9974191037097212,0.9979029257568072,-0.5475682962366829,844.0,"[9, 12, 13, 14, 15, 16, 17, 27, 28, 29, 34, 37, 41, 43, 65, 67, 97, 100, 104, 108, 123, 141, 393, 844]",99.04166666666669,174.01448195640373,0.2477390048255035,0.9978038454380888
0.0,0.6,0.4,16.0,-1.0,1.0,-0.5973041882513617,98.0,-0.5255891444167962,716.0,"[2, 3, 7, 10, 11, 12, 13, 14, 15, 18, 20, 21, 22, 23, 31, 38, 86, 98]",24.666666666666668,25.43837870445188,"[89, 95, 149, 260, 306, 716]",269.1666666666667,215.38138008864388,0.5008169383144296,0.0154211979594773,0.9992299620904412,0.986521224420768,-0.5255891444167962,1947.0,"[2, 5, 16, 21, 23, 24, 26, 27, 28, 37, 39, 40, 41, 42, 59, 70, 170, 177, 185, 223, 265, 557, 794, 1947]",200.75,408.1985066525028,0.2221887455101169,0.9952228087093336
0.0,0.6,0.4,32.0,-1.0,1.0,-0.5802313959480637,257.0,-0.5824882518996198,215.0,"[1, 5, 6, 7, 8, 10, 11, 12, 13, 15, 18, 19, 22, 23, 28, 39, 61, 257]",30.83333333333333,56.56584167538254,"[51, 82, 123, 166, 170, 215]",134.5,55.66791415767854,0.571950358696235,0.0249672429890616,0.998916869753588,0.9933536276002032,-0.5802313959480637,482.0,"[1, 5, 6, 7, 8, 12, 14, 15, 16, 20, 24, 25, 29, 30, 43, 61, 94, 127, 172, 226, 328, 335, 407, 482]",103.625,140.77162726084637,0.3799424366027571,0.9976875348931636
0.0,0.6,0.4,64.0,-1.0,1.0,-0.5987087982442233,148.0,-0.5994675859655171,147.0,"[1, 2, 3, 4, 5, 8, 9, 14, 16, 17, 18, 20, 27, 28, 32, 40, 51, 148]",24.61111111111111,32.83314532753092,"[41, 71, 85, 90, 118, 147]",92.0,33.65511352924941,0.6566529034870539,0.0359145046608323,0.9992327827421248,0.995509893455099,-0.5987087982442233,306.0,"[1, 2, 3, 4, 5, 8, 9, 14, 16, 17, 18, 21, 30, 32, 48, 63, 80, 108, 161, 183, 189, 258, 293, 306]",77.875,96.52258479236868,0.4951281994407871,0.9983409886819266
0.0,0.6,0.4,128.0,-1.0,1.0,-0.606109335679583,124.0,-0.5944329605449814,160.0,"[1, 2, 3, 4, 5, 6, 7, 15, 16, 18, 21, 22, 23, 27, 41, 42, 63, 124]",24.444444444444443,29.023404774274127,"[39, 50, 140, 144, 153, 160]",114.33333333333331,49.88876515698588,0.6675070544525061,0.030837852234911,0.9992412446971748,0.9943767968882125,-0.5944329605449814,310.0,"[1, 2, 3, 4, 5, 6, 7, 15, 16, 20, 27, 28, 29, 35, 59, 61, 95, 112, 113, 226, 281, 289, 301, 310]",85.20833333333333,106.48708026746198,0.4894366376023389,0.9981548918100458
0.0,0.6,0.4,256.0,-1.0,1.0,-0.5906860260068777,168.0,-0.5947299912664771,143.0,"[1, 2, 3, 4, 5, 6, 11, 12, 13, 17, 18, 19, 28, 31, 35, 52, 56, 168]",26.72222222222222,37.770955266294166,"[28, 31, 110, 132, 133, 143]",96.16666666666669,48.16435980635013,0.6634621574845119,0.0395596998737915,0.9991255979781568,0.9952984948418736,-0.5906860260068777,322.0,"[1, 2, 3, 4, 5, 8, 13, 14, 15, 21, 22, 23, 37, 40, 48, 73, 77, 103, 108, 240, 270, 273, 283, 322]",83.54166666666667,104.5362692907214,0.4673579822119638,0.9981971865536552
0.0,0.6,0.6,16.0,-1.0,1.0,-0.5817166323997041,191.0,-0.5539033437748946,374.0,"[1, 2, 3, 4, 5, 10, 15, 17, 20, 21, 22, 23, 24, 34, 40, 66, 71, 191]",31.61111111111111,43.29888231671279,"[19, 104, 193, 202, 284, 374]",196.0,114.93911431710268,0.5849302497826567,0.0234761307297357,0.9988886632367542,0.9902333840690004,-0.5539033437748946,1077.0,"[1, 2, 3, 4, 5, 13, 21, 24, 27, 28, 29, 30, 31, 48, 57, 62, 106, 120, 199, 381, 388, 397, 725, 1077]",157.41666666666666,260.1472206057349,0.3992643673814656,0.9963267015175352
0.0,0.6,0.6,32.0,-1.0,1.0,-0.6006907056497165,121.0,-0.589884606741254,162.0,"[1, 2, 3, 5, 6, 9, 13, 14, 17, 18, 21, 22, 26, 32, 53, 64, 120, 121]",30.38888888888889,35.80989759036039,"[40, 52, 74, 85, 95, 162]",84.66666666666667,39.29235153167711,0.5785007084739284,0.040121586419316,0.9989394349670548,0.995881955014375,-0.589884606741254,361.0,"[1, 2, 3, 5, 6, 9, 13, 14, 17, 18, 21, 22, 29, 37, 69, 88, 111, 133, 164, 178, 192, 247, 249, 361]",82.875,98.04774028502646,0.4479971091822069,0.9982141044510988
0.0,0.6,0.6,64.0,-1.0,1.0,-0.6079305366124095,96.0,-0.6078003345117453,75.0,"[9, 10, 11, 15, 16, 17, 19, 20, 21, 22, 23, 24, 27, 31, 38, 41, 93, 96]",29.61111111111111,24.44981001718711,"[38, 48, 55, 64, 65, 75]",57.5,12.12091855705114,0.3570217253350163,0.056991831268147,0.998978924090622,0.9972602739726028,-0.6078003345117453,171.0,"[9, 10, 11, 15, 16, 17, 19, 20, 21, 22, 23, 24, 27, 34, 50, 55, 105, 126, 140, 154, 156, 161, 170, 171]",64.83333333333333,60.89859513066692,0.2891428403608991,0.9986719450506693
0.0,0.6,0.6,128.0,-1.0,1.0,-0.6056154052325907,96.0,-0.5931947983599956,136.0,"[20, 21, 22, 23, 24, 25, 26, 27, 28, 29, 30, 34, 35, 36, 37, 45, 74, 96]",35.111111111111114,19.08719433689302,"[39, 46, 55, 103, 104, 136]",80.5,35.82713124621246,0.2741815012114543,0.0424490437746837,0.9986996795739688,0.9960933536276002,-0.5931947983599956,310.0,"[22, 23, 24, 25, 26, 27, 28, 29, 30, 31, 32, 36, 37, 41, 44, 67, 105, 119, 120, 134, 179, 205, 210, 310]",79.33333333333333,76.28273432144103,0.2122752681442794,0.9983039807812684
0.0,0.6,0.6,256.0,-1.0,1.0,-0.5855278271798652,198.0,-0.5903667167873888,134.0,"[6, 7, 8, 9, 12, 13, 14, 20, 21, 23, 29, 31, 32, 35, 37, 59, 60, 198]",34.111111111111114,42.73287686819247,"[41, 42, 89, 90, 114, 134]",85.0,34.322004603461025,0.3773556101205314,0.0397995616100437,0.9987504513042692,0.9958650431253172,-0.5855278271798652,348.0,"[8, 9, 10, 11, 14, 15, 16, 22, 23, 25, 31, 33, 34, 37, 40, 96, 99, 103, 104, 182, 184, 273, 301, 348]",84.08333333333333,98.49531150714176,0.2744371936518103,0.998183440761982
0.0,0.4,0.4,64.0,-1.0,1.0,-0.5738340798695121,142.0,-0.6057159559807694,68.0,"[1, 2, 3, 4, 5, 6, 9, 10, 13, 14, 22, 23, 27, 28, 36, 70, 92, 142]",28.166666666666668,36.29087733546515,"[36, 41, 55, 60, 67, 68]",54.5,12.203141671990318,0.666031850433429,0.0601054244306776,0.9990522610343894,0.9974124809741248,-0.5738340798695121,341.0,"[1, 2, 3, 4, 5, 6, 9, 10, 15, 16, 24, 26, 31, 32, 62, 81, 90, 121, 128, 131, 142, 143, 191, 341]",67.25,80.49702375450494,0.5082285422696446,0.9986106176724358
0.0,0.6,0.8,16.0,-1.0,1.0,-0.5947561044746632,275.0,-0.5624384490543074,267.0,"[5, 7, 8, 13, 14, 15, 16, 23, 26, 34, 35, 39, 40, 41, 61, 124, 271, 275]",58.16666666666666,80.49654927041558,"[53, 94, 139, 178, 208, 267]",156.5,71.00410786238591,0.2944478153196573,0.0217849226415188,0.9975291091253722,0.9922374429223744,-0.5624384490543074,934.0,"[11, 13, 14, 22, 23, 24, 25, 42, 46, 62, 63, 70, 71, 72, 112, 116, 192, 231, 401, 413, 417, 557, 724, 934]",193.9583333333333,246.2135724607579,0.1439143153304984,0.9953951597895414
0.0,0.6,0.8,32.0,-1.0,1.0,-0.6351416194362404,75.0,-0.57857867131128,231.0,"[8, 10, 11, 12, 13, 18, 19, 24, 25, 35, 40, 41, 42, 43, 54, 56, 57, 75]",32.388888888888886,19.21555761150292,"[66, 92, 119, 134, 151, 231]",132.16666666666666,52.106994625375286,0.3053463908064071,0.0251730141073418,0.9988378915064536,0.993472010823609,-0.57857867131128,869.0,"[8, 11, 12, 13, 14, 20, 21, 27, 30, 49, 55, 56, 57, 58, 73, 75, 78, 123, 146, 303, 401, 423, 568, 869]",145.41666666666666,211.50668166488003,0.2026518120016865,0.9966269941971612
0.0,0.6,0.8,64.0,-1.0,1.0,-0.6287775036967151,79.0,-0.5888659061111284,161.0,"[19, 20, 21, 24, 25, 26, 27, 28, 29, 31, 34, 35, 36, 40, 41, 49, 66, 79]",35.0,15.456030825826172,"[38, 67, 74, 93, 127, 161]",93.33333333333331,40.49965706301995,0.2636040217770014,0.0360591647427587,0.9987053208773355,0.9954422458988668,-0.5888659061111284,543.0,"[25, 26, 27, 30, 31, 32, 33, 34, 35, 37, 41, 44, 45, 52, 56, 69, 96, 105, 122, 156, 163, 196, 363, 543]",98.375,119.8606178372752,0.1818548136948324,0.9978207633355328
0.0,0.6,0.8,128.0,-1.0,1.0,-0.6259212528673309,74.0,-0.5795059463512523,192.0,"[15, 20, 21, 22, 23, 24, 25, 26, 27, 28, 29, 30, 32, 33, 35, 44, 45, 74]",30.72222222222222,12.900497645679131,"[43, 56, 108, 161, 180, 192]",123.33333333333331,58.54817579471532,0.2992317863816489,0.028436729286704,0.9989225110569544,0.9939201758836462,-0.5795059463512523,468.0,"[17, 23, 24, 25, 26, 33, 34, 35, 36, 37, 38, 39, 42, 43, 47, 57, 58, 115, 117, 140, 214, 316, 447, 468]",101.29166666666669,127.31014595816347,0.1970040748856608,0.9977467475342164
0.0,0.6,0.8,256.0,-1.0,1.0,-0.607886484390686,83.0,-0.5828591960832568,168.0,"[17, 20, 21, 22, 23, 24, 25, 26, 27, 28, 29, 31, 33, 34, 35, 44, 52, 83]",31.88888888888889,14.962504576770446,"[44, 51, 116, 153, 154, 168]",114.33333333333331,49.84865985048032,0.2924519935815461,0.0303551061664651,0.998863277371604,0.9943767968882125,-0.5828591960832568,431.0,"[19, 22, 23, 24, 25, 26, 28, 29, 31, 32, 34, 38, 41, 43, 44, 54, 69, 111, 127, 153, 220, 391, 392, 431]",100.29166666666669,124.79432384483232,0.208022997104438,0.997772124380382
0.0,0.6,1.0,16.0,-1.0,1.0,-0.6001005680835126,160.0,-0.5656425058735699,228.0,"[8, 9, 10, 16, 19, 20, 23, 30, 40, 49, 50, 54, 57, 58, 66, 70, 77, 160]",45.333333333333336,35.36633678765413,"[50, 68, 151, 179, 191, 228]",144.5,64.74243842591451,0.2391732617938265,0.0240199138391214,0.9981806796642296,0.9928462709284628,-0.5656425058735699,613.0,"[9, 12, 13, 20, 25, 26, 30, 40, 58, 69, 70, 81, 87, 88, 109, 118, 121, 141, 147, 272, 325, 420, 440, 613]",138.91666666666666,155.94601540989183,0.1481614455419324,0.9967919436972372
0.0,0.6,1.0,32.0,-1.0,1.0,-0.6214608075325493,101.0,-0.5797779213406087,185.0,"[7, 13, 14, 15, 19, 20, 26, 27, 28, 29, 30, 31, 32, 35, 39, 40, 83, 101]",32.72222222222222,22.9463276063357,"[63, 70, 109, 115, 129, 185]",111.83333333333331,40.416237111119365,0.302132799171704,0.0296570185458043,0.9988209675963536,0.9945036360561474,-0.5797779213406087,450.0,"[7, 13, 14, 15, 19, 20, 29, 30, 31, 32, 33, 34, 35, 38, 45, 46, 134, 160, 167, 171, 214, 227, 305, 450]",94.54166666666669,110.52939999786884,0.2286748721933898,0.997918041245834
0.0,0.6,1.0,64.0,-1.0,1.0,-0.6115893913285986,93.0,-0.5942107053925499,130.0,"[16, 17, 18, 21, 23, 24, 25, 26, 29, 30, 31, 32, 33, 34, 35, 41, 50, 93]",32.111111111111114,16.966924978023464,"[56, 63, 89, 99, 120, 130]",92.83333333333331,27.138021707969468,0.2920148518592889,0.0352559321660445,0.9988519947648704,0.995467613732454,-0.5942107053925499,249.0,"[16, 17, 18, 21, 23, 24, 25, 26, 30, 31, 32, 36, 38, 42, 45, 53, 67, 143, 152, 159, 193, 208, 235, 249]",78.45833333333333,76.1752251756144,0.2239093550552517,0.9983261855216632
0.0,0.6,1.0,128.0,-1.0,1.0,-0.6077562514398345,88.0,-0.586669695956054,151.0,"[14, 19, 20, 21, 22, 23, 27, 28, 29, 30, 31, 32, 33, 34, 37, 40, 58, 88]",32.55555555555556,16.4898023107287,"[51, 60, 132, 142, 147, 151]",113.83333333333331,41.73494405837338,0.2864269193418344,0.0295976946770488,0.9988294295514036,0.9944021647217994,-0.586669695956054,327.0,"[14, 20, 21, 24, 25, 26, 32, 33, 34, 35, 36, 37, 38, 39, 49, 54, 82, 131, 145, 150, 305, 316, 323, 327]",95.66666666666669,106.11576487758808,0.2026472982989439,0.9978894922938978
0.0,0.6,1.0,256.0,-1.0,1.0,-0.6017649830825579,91.0,-0.5853851676214981,147.0,"[17, 18, 19, 20, 21, 22, 25, 26, 28, 29, 30, 34, 35, 36, 37, 48, 50, 91]",32.55555555555556,16.961466859463876,"[52, 55, 124, 139, 141, 147]",109.66666666666669,40.32231254391158,0.2875186266362737,0.0308070419728637,0.9988294295514036,0.9946135633350246,-0.5853851676214981,295.0,"[17, 20, 21, 22, 23, 24, 27, 28, 31, 33, 34, 46, 48, 50, 51, 68, 72, 126, 132, 165, 232, 254, 256, 295]",86.45833333333333,86.31144148115912,0.2027014749099456,0.9981231707523388
0.0,0.4,0.4,128.0,-1.0,1.0,-0.5807785944203477,157.0,-0.5997117986887567,95.0,"[1, 2, 3, 4, 5, 14, 15, 16, 17, 22, 23, 24, 25, 27, 30, 68, 70, 157]",29.05555555555556,36.39363836689383,"[31, 34, 65, 76, 78, 95]",63.16666666666666,23.405246325462063,0.5861436832067242,0.0528545796447524,0.9990071306074556,0.9969727718586168,-0.5807785944203477,324.0,"[1, 2, 3, 4, 5, 16, 17, 18, 19, 24, 25, 27, 28, 30, 40, 71, 77, 132, 133, 137, 151, 155, 182, 324]",67.54166666666667,78.20697921044018,0.4468686849278745,0.998603216092304
0.0,0.8,0.4,16.0,-1.0,1.0,-0.5724879922859274,236.0,-0.5682325635767544,258.0,"[6, 9, 14, 42, 53, 54, 60, 63, 64, 105, 106, 109, 115, 133, 134, 142, 143, 236]",88.22222222222223,57.10181506704159,"[19, 43, 57, 61, 172, 258]",101.66666666666669,84.9620830462363,0.1263059514830562,0.0449456896148109,0.996003136564672,0.9950194486724168,-0.5682325635767544,502.0,"[13, 18, 24, 35, 64, 85, 86, 101, 104, 111, 112, 158, 165, 167, 168, 178, 189, 224, 225, 245, 246, 347, 466, 502]",168.04166666666666,125.13308887163122,0.0848173301526968,0.9960528430526654
0.0,0.8,0.4,32.0,-1.0,1.0,-0.573633758254641,217.0,-0.5889547604380208,128.0,"[9, 10, 11, 17, 18, 19, 21, 24, 25, 26, 30, 31, 32, 35, 36, 44, 131, 217]",40.888888888888886,50.05096168338925,"[19, 33, 67, 68, 81, 128]",66.0,35.05234181430203,0.3046258709725463,0.0542401139049845,0.9984063317988988,0.9968290208016236,-0.573633758254641,411.0,"[12, 13, 15, 24, 25, 26, 29, 33, 34, 35, 45, 46, 47, 50, 51, 60, 65, 86, 143, 144, 187, 252, 271, 411]",87.66666666666667,98.10014724193276,0.2026314077218415,0.9980925070632224
0.0,0.8,0.4,64.0,-1.0,1.0,-0.5622453013455246,237.0,-0.5967101173433587,96.0,"[5, 8, 10, 11, 12, 16, 20, 21, 29, 30, 31, 32, 33, 34, 35, 37, 235, 237]",46.44444444444444,67.77513656055935,"[29, 57, 66, 67, 77, 96]",65.33333333333333,20.28683207293725,0.330449078198235,0.0503602634743098,0.9981242666305624,0.9968628445797396,-0.5622453013455246,534.0,"[7, 10, 12, 13, 14, 18, 22, 23, 31, 32, 33, 34, 35, 36, 37, 44, 79, 122, 161, 163, 189, 220, 526, 534]",99.79166666666669,143.26809925412178,0.2540042569981694,0.9977848128034648
0.0,0.8,0.4,128.0,-1.0,1.0,-0.5781484264222541,214.0,-0.6115319094816054,77.0,"[1, 7, 8, 10, 19, 20, 23, 24, 25, 26, 29, 30, 31, 32, 43, 70, 187, 214]",44.388888888888886,57.32668458433733,"[51, 58, 63, 67, 74, 77]",65.0,8.925618559330589,0.3649026626515319,0.0511501312339918,0.9982286307428468,0.9968797564687976,-0.5781484264222541,428.0,"[3, 9, 10, 12, 21, 22, 25, 26, 27, 28, 31, 32, 33, 34, 71, 111, 122, 130, 134, 142, 159, 190, 348, 428]",89.5,105.86784214292835,0.2482300069685898,0.998045982845252
0.0,0.8,0.4,256.0,-1.0,1.0,-0.5895679670089826,181.0,-0.6124635219980896,76.0,"[3, 7, 8, 16, 17, 19, 21, 22, 23, 28, 29, 30, 31, 32, 50, 72, 161, 181]",41.66666666666666,48.36665518033404,"[62, 63, 67, 70, 75, 76]",68.83333333333333,5.398044913567215,0.3249261390413908,0.0492346792729429,0.9983668426753316,0.9966852697446305,-0.5895679670089826,341.0,"[5, 9, 10, 18, 19, 21, 23, 24, 25, 30, 31, 32, 33, 34, 83, 133, 134, 136, 150, 158, 166, 167, 266, 341]",85.33333333333333,87.65589287409921,0.2399024754404462,0.9981517197042752
0.0,0.8,0.6,16.0,-1.0,1.0,-0.6117214545226062,201.0,-0.5896555141775612,164.0,"[10, 16, 24, 31, 32, 59, 60, 63, 64, 65, 66, 72, 73, 78, 82, 83, 84, 201]",64.61111111111111,40.254936051908096,"[43, 46, 76, 90, 92, 164]",85.16666666666667,40.1680497687182,0.1498289958902818,0.0402642325697732,0.997201913530102,0.995856587180788,-0.5896555141775612,398.0,"[12, 25, 38, 47, 48, 79, 80, 90, 91, 92, 93, 102, 105, 110, 119, 120, 121, 130, 134, 275, 283, 293, 295, 398]",132.5,97.91365243587502,0.1026972475750246,0.9969547784601333
0.0,0.8,0.6,32.0,-1.0,1.0,-0.5964326367695116,183.0,-0.6106769385969477,74.0,"[10, 11, 15, 21, 22, 29, 33, 34, 35, 39, 40, 41, 44, 45, 47, 48, 86, 183]",43.5,37.84654688490234,"[31, 42, 44, 48, 70, 74]",51.5,15.424547535233138,0.2379726087034259,0.0639836526933301,0.9982737611697808,0.9975646879756468,-0.5964326367695116,302.0,"[10, 16, 20, 27, 28, 37, 41, 42, 43, 49, 51, 52, 59, 60, 63, 69, 85, 125, 127, 131, 138, 235, 239, 302]",85.375,75.34631847896308,0.1731083033466678,0.9981506623356848
0.0,0.8,0.6,64.0,-1.0,1.0,-0.6006955773706927,128.0,-0.6046243412954074,104.0,"[9, 12, 13, 14, 19, 20, 25, 26, 27, 28, 29, 42, 44, 46, 48, 49, 53, 128]",35.111111111111114,26.38368369716592,"[49, 79, 93, 101, 102, 104]",88.0,19.356308187943966,0.2860876778426398,0.0373830932348537,0.9986996795739688,0.995712836123795,-0.6006955773706927,242.0,"[9, 14, 15, 16, 21, 22, 27, 28, 29, 30, 31, 46, 51, 57, 60, 62, 68, 146, 191, 214, 223, 224, 228, 242]",85.58333333333333,82.71180723183092,0.2135124816051044,0.9981453754927336
0.0,0.8,0.6,128.0,-1.0,1.0,-0.6126264032104284,115.0,-0.6005696790385591,111.0,"[11, 12, 13, 14, 15, 20, 25, 28, 29, 32, 33, 39, 41, 43, 44, 47, 54, 115]",34.166666666666664,23.502363947294988,"[64, 66, 81, 85, 86, 111]",82.16666666666667,15.528647361856374,0.2893594228042447,0.0403695799678756,0.998747630652586,0.9960087941823104,-0.6005696790385591,243.0,"[13, 14, 15, 16, 17, 22, 27, 30, 31, 34, 35, 42, 45, 48, 49, 54, 83, 142, 144, 193, 199, 206, 208, 243]",79.58333333333333,75.10654469189457,0.2199392074573733,0.9982976365697273
0.0,0.8,0.6,256.0,-1.0,1.0,-0.6106623374638773,85.0,-0.5980311725138199,118.0,"[17, 21, 22, 23, 24, 25, 27, 30, 31, 32, 33, 34, 37, 39, 40, 46, 54, 85]",34.44444444444444,15.265146293371206,"[62, 72, 76, 90, 105, 118]",87.16666666666667,19.428644374279493,0.2669281904046408,0.0377152406561632,0.9987335273941692,0.99575511584644,-0.5980311725138199,288.0,"[19, 23, 24, 25, 26, 27, 29, 32, 33, 34, 35, 36, 41, 44, 45, 63, 90, 137, 152, 159, 162, 186, 241, 288]",81.29166666666667,75.89931881922408,0.203171306189107,0.9982542844575276
0.0,0.4,0.4,256.0,-1.0,1.0,-0.5756707268548756,193.0,-0.5958066815773764,101.0,"[1, 2, 3, 4, 5, 6, 9, 12, 13, 15, 16, 17, 28, 29, 35, 53, 77, 193]",28.77777777777778,44.212310446998,"[32, 37, 65, 75, 89, 101]",66.5,25.270206436302285,0.6797123078232139,0.0500628249026986,0.9990212338658724,0.9968036529680364,-0.5756707268548756,376.0,"[1, 2, 3, 4, 5, 6, 9, 14, 15, 17, 18, 19, 32, 33, 50, 82, 88, 91, 138, 149, 154, 172, 190, 376]",69.5,87.80280937039163,0.5112183215864559,0.9985535197685632
0.0,0.8,0.8,16.0,-1.0,1.0,-0.6255049057668638,90.0,-0.5735297421164437,238.0,"[11, 13, 14, 21, 22, 26, 31, 32, 38, 39, 41, 42, 70, 78, 83, 84, 87, 90]",45.66666666666666,27.42869543622761,"[57, 86, 88, 169, 182, 238]",136.66666666666666,64.09801522321541,0.2153545719147064,0.0252069722088192,0.9981637557541294,0.993243700321326,-0.5735297421164437,842.0,"[14, 16, 17, 27, 28, 33, 38, 39, 47, 48, 50, 51, 82, 99, 110, 111, 118, 127, 254, 298, 302, 617, 694, 842]",169.25,225.02226741665663,0.1415799432842527,0.9960221793635486
0.0,0.8,0.8,32.0,-1.0,1.0,-0.6119845681093464,160.0,-0.5929613914151871,125.0,"[9, 10, 16, 17, 19, 20, 22, 23, 25, 26, 34, 35, 43, 45, 47, 50, 51, 160]",36.22222222222222,32.78643953350151,"[40, 41, 64, 79, 102, 125]",75.16666666666667,30.94843381425877,0.2879400788681264,0.0447180011734033,0.9986432665403014,0.9963639438525284,-0.5929613914151871,436.0,"[11, 13, 23, 26, 29, 30, 32, 33, 35, 36, 45, 46, 60, 62, 64, 70, 75, 125, 128, 223, 224, 247, 346, 436]",100.79166666666669,110.49056489382048,0.179571993755465,0.9977594359572992
0.0,0.8,0.8,64.0,-1.0,1.0,-0.6080000099161311,127.0,-0.5922939704042832,143.0,"[11, 14, 16, 17, 20, 21, 24, 25, 27, 28, 30, 31, 34, 38, 45, 49, 52, 127]",33.833333333333336,25.311942723632345,"[65, 67, 87, 97, 99, 143]",93.0,25.97434631837088,0.2923958608560432,0.035569721023186,0.9987645545626862,0.9954591577879248,-0.5922939704042832,336.0,"[15, 18, 20, 21, 25, 26, 29, 30, 32, 33, 36, 40, 44, 49, 57, 61, 65, 162, 165, 195, 222, 224, 230, 336]",88.95833333333333,89.39541336419646,0.2011017735497351,0.998059728636925
0.0,0.8,0.8,128.0,-1.0,1.0,-0.6266191517295525,65.0,-0.6023179269631426,107.0,"[11, 13, 14, 17, 19, 20, 21, 22, 24, 25, 31, 32, 37, 38, 39, 41, 52, 65]",28.944444444444443,13.966118613838365,"[67, 70, 86, 91, 93, 107]",85.66666666666667,13.73155328269732,0.3164840781694968,0.0386957956345647,0.9990127719108224,0.9958312193472012,-0.6023179269631426,250.0,"[13, 15, 16, 21, 23, 24, 25, 26, 29, 30, 36, 37, 43, 44, 46, 51, 80, 106, 151, 155, 187, 220, 222, 250]",77.08333333333333,74.55865513510524,0.2230080209701131,0.998361078685141
0.0,0.8,0.8,256.0,-1.0,1.0,-0.6181545656283925,74.0,-0.5980168252975195,108.0,"[12, 15, 16, 21, 22, 26, 27, 28, 31, 32, 33, 34, 35, 38, 39, 52, 59, 74]",33.0,15.30795000427338,"[53, 79, 82, 88, 97, 108]",84.5,17.075811352124187,0.2768355594107869,0.0388877064734735,0.9988068643379366,0.995890410958904,-0.5980168252975195,280.0,"[14, 17, 18, 23, 24, 29, 30, 32, 37, 38, 39, 40, 41, 47, 49, 81, 91, 117, 135, 166, 174, 186, 258, 280]",81.91666666666667,76.37730720283056,0.1988452448752455,0.998238423928674
0.0,0.8,1.0,16.0,-1.0,1.0,-0.6123380677740832,65.0,-0.5730372931100022,185.0,"[9, 10, 17, 18, 20, 22, 23, 24, 25, 26, 27, 29, 33, 37, 44, 59, 64, 65]",30.666666666666668,16.536155673083282,"[31, 34, 35, 81, 88, 185]",75.66666666666667,54.0359962329639,0.3030759416531452,0.0525715349903627,0.998925331708638,0.9963385760189412,-0.5730372931100022,551.0,"[10, 11, 23, 24, 27, 29, 30, 31, 32, 33, 34, 37, 42, 48, 69, 76, 80, 81, 102, 112, 113, 189, 202, 551]",82.75,109.63243513364708,0.2108442311002922,0.9982172765568694
0.0,0.8,1.0,32.0,-1.0,1.0,-0.6014303562883825,108.0,-0.5972809977564284,93.0,"[6, 15, 16, 19, 24, 27, 28, 30, 35, 36, 39, 40, 41, 46, 47, 48, 49, 108]",36.333333333333336,21.24199195513976,"[34, 37, 47, 53, 86, 93]",58.333333333333336,22.99033613402717,0.2590195678242064,0.0575704946705275,0.9986376252369348,0.9972179942499576,-0.5972809977564284,213.0,"[6, 17, 18, 22, 35, 39, 40, 42, 49, 50, 57, 58, 59, 66, 67, 70, 71, 91, 99, 117, 149, 183, 200, 213]",75.75,56.325135005016485,0.1811190103710029,0.9983949144800284
0.0,0.8,1.0,64.0,-1.0,1.0,-0.6156545049411865,95.0,-0.5905620627609676,129.0,"[9, 15, 16, 19, 20, 21, 23, 24, 32, 33, 37, 38, 39, 41, 42, 43, 44, 95]",32.833333333333336,18.509006816502428,"[55, 63, 69, 84, 97, 129]",82.83333333333333,24.808712627265088,0.2848288807811613,0.0398471963460028,0.9988153262929866,0.9959749704041942,-0.5905620627609676,363.0,"[11, 17, 18, 21, 22, 23, 25, 26, 35, 36, 40, 43, 44, 49, 51, 52, 53, 144, 156, 159, 171, 198, 220, 363]",82.375,86.1253023700546,0.2139708853096556,0.9982267928741816
0.0,0.8,1.0,128.0,-1.0,1.0,-0.6150516539443778,74.0,-0.5951209820975198,117.0,"[15, 16, 17, 18, 19, 23, 24, 25, 28, 31, 35, 36, 37, 38, 39, 46, 48, 74]",31.61111111111111,14.32611790824673,"[66, 74, 78, 88, 101, 117]",87.33333333333333,17.259457954666157,0.2892612970889852,0.0378136046452878,0.9988773806300209,0.995746659901911,-0.5951209820975198,348.0,"[17, 18, 19, 20, 21, 25, 26, 27, 31, 34, 38, 39, 40, 43, 44, 63, 65, 138, 141, 156, 162, 207, 234, 348]",81.5,84.48520580551367,0.216085418884908,0.9982489976145764
0.0,0.8,1.0,256.0,-1.0,1.0,-0.6083087180976763,85.0,-0.5889346894437896,135.0,"[13, 20, 21, 22, 23, 25, 29, 32, 33, 34, 35, 36, 37, 38, 39, 46, 57, 85]",34.72222222222222,15.814218481254125,"[74, 84, 96, 108, 109, 135]",101.0,19.62990915244728,0.2626029969308175,0.0326543464062577,0.9987194241357522,0.9950532724505328,-0.5889346894437896,375.0,"[15, 22, 23, 24, 25, 27, 32, 35, 36, 37, 38, 39, 40, 41, 42, 60, 84, 149, 163, 197, 249, 273, 274, 375]",95.83333333333331,101.27136262976266,0.1950004197231328,0.9978852628195368
0.0,0.4,0.6,16.0,-1.0,1.0,-0.6004146753311244,76.0,-0.5732064954505015,161.0,"[1, 6, 7, 23, 24, 25, 32, 33, 40, 41, 42, 45, 48, 49, 50, 59, 73, 76]",37.44444444444444,20.48365804522181,"[45, 54, 68, 81, 142, 161]",91.83333333333331,43.99021355811868,0.3107760016018145,0.0375396617864068,0.9985812122032676,0.995518349399628,-0.5732064954505015,337.0,"[1, 6, 9, 35, 36, 37, 47, 48, 61, 68, 69, 80, 88, 89, 90, 97, 109, 117, 139, 144, 151, 163, 251, 337]",94.66666666666669,75.74225299586016,0.1987982649426261,0.9979148691400634
0.0,1.0,0.4,16.0,-1.0,1.0,-0.5951556624048852,207.0,-0.5777038640166966,305.0,"[8, 10, 26, 77, 79, 80, 92, 93, 99, 121, 125, 129, 130, 165, 166, 168, 169, 207]",108.0,55.072679252057455,"[28, 53, 57, 165, 189, 305]",132.83333333333334,97.42076552540304,0.0966266267453905,0.0327418825938749,0.994998984565394,0.9934381870454928,-0.5777038640166966,609.0,"[31, 34, 40, 60, 127, 130, 135, 136, 139, 166, 167, 177, 222, 235, 249, 250, 310, 312, 320, 321, 351, 386, 412, 609]",221.625,136.176298873923,0.0581472169573198,0.9946930670456277
0.0,1.0,0.4,32.0,-1.0,1.0,-0.5779202904802166,276.0,-0.6013231204831514,131.0,"[3, 9, 16, 29, 30, 33, 40, 41, 45, 46, 50, 51, 52, 58, 60, 61, 83, 276]",54.61111111111112,56.99428712978257,"[34, 59, 87, 95, 118, 131]",87.33333333333333,33.0487854878545,0.2123575919711152,0.0380120832737836,0.9977096308331076,0.995746659901911,-0.5779202904802166,517.0,"[7, 14, 27, 53, 54, 58, 69, 70, 78, 81, 82, 91, 92, 97, 110, 118, 120, 121, 165, 173, 187, 220, 234, 517]",118.25,101.50667055256352,0.1196335134323533,0.997316398517992
0.0,1.0,0.4,64.0,-1.0,1.0,-0.5855293265512366,189.0,-0.5986267689417919,126.0,"[4, 9, 10, 11, 12, 16, 17, 19, 25, 26, 27, 30, 31, 32, 47, 54, 64, 189]",34.611111111111114,40.594387801611866,"[36, 77, 86, 115, 125, 126]",94.16666666666669,31.99696166131334,0.3501573098883036,0.035172863499456,0.998725065439119,0.9953999661762218,-0.5855293265512366,371.0,"[4, 13, 14, 15, 18, 27, 28, 30, 42, 43, 45, 49, 50, 51, 77, 87, 103, 124, 183, 198, 251, 267, 268, 371]",98.25,100.15415201910837,0.1959788503127956,0.9978239354413032
0.0,1.0,0.4,128.0,-1.0,1.0,-0.5850768891396665,203.0,-0.6008000706505673,134.0,"[7, 8, 9, 12, 13, 14, 15, 20, 21, 22, 23, 25, 26, 30, 47, 103, 107, 203]",39.16666666666666,48.78894455828196,"[63, 75, 95, 104, 115, 134]",97.66666666666669,23.746344747958343,0.3596587689184589,0.0334724247736987,0.9984937720010832,0.9952223913411128,-0.5850768891396665,395.0,"[9, 10, 11, 14, 15, 16, 17, 23, 24, 25, 28, 33, 34, 40, 89, 127, 171, 175, 188, 225, 266, 278, 306, 395]",104.95833333333331,113.80226973668944,0.2400959730374149,0.997653699098276
0.0,1.0,0.4,256.0,-1.0,1.0,-0.5828829493516609,223.0,-0.5972689790901168,145.0,"[11, 12, 13, 14, 15, 16, 17, 18, 19, 20, 21, 25, 26, 27, 50, 73, 126, 223]",40.333333333333336,52.23238671765078,"[58, 66, 74, 94, 138, 145]",95.83333333333331,34.148775803663725,0.3446371122017148,0.0347082226743459,0.9984345383157324,0.9953154067309318,-0.5828829493516609,408.0,"[13, 14, 15, 16, 17, 18, 19, 20, 23, 25, 26, 31, 32, 33, 90, 117, 137, 141, 158, 218, 248, 304, 317, 408]",101.66666666666669,114.17408735007352,0.2366402756907444,0.9977372312169044
0.0,1.0,0.6,16.0,-1.0,1.0,-0.5797659371689547,610.0,-0.5991275977329191,188.0,"[2, 5, 10, 11, 12, 24, 25, 28, 30, 31, 84, 100, 101, 104, 107, 122, 123, 610]",84.94444444444444,134.57648474720085,"[40, 83, 95, 117, 153, 188]",112.66666666666669,47.94672969962486,0.2466827772954846,0.0299096665462894,0.9961723756656738,0.9944613563335024,-0.5797659371689547,900.0,"[2, 5, 20, 22, 24, 42, 43, 47, 54, 55, 90, 128, 163, 164, 175, 181, 195, 212, 220, 221, 251, 423, 536, 900]",173.875,198.79246139713985,0.1424471073921256,0.9959058688186232
0.0,1.0,0.6,32.0,-1.0,1.0,-0.612315377330278,96.0,-0.5988754150481129,151.0,"[6, 11, 26, 27, 28, 34, 38, 39, 41, 42, 43, 44, 52, 53, 54, 57, 58, 96]",41.61111111111112,19.419746218987427,"[31, 53, 85, 106, 150, 151]",96.0,45.15897843544884,0.220072788533008,0.0360153854912461,0.998369663327015,0.9953069507864029,-0.5988754150481129,354.0,"[8, 17, 40, 41, 42, 50, 56, 57, 64, 65, 66, 68, 78, 93, 94, 95, 104, 105, 115, 172, 193, 240, 353, 354]",107.08333333333331,90.92071485029628,0.1332339314618973,0.9975997733001742
0.0,1.0,0.6,64.0,-1.0,1.0,-0.5854369513753171,179.0,-0.5933451854579116,148.0,"[6, 7, 15, 22, 23, 25, 29, 30, 32, 33, 35, 36, 43, 44, 45, 49, 79, 179]",40.66666666666666,37.30355955610075,"[25, 41, 104, 117, 123, 148]",93.0,44.62809279665295,0.2616068020861154,0.0388342704806119,0.9984176144056324,0.9954591577879248,-0.5854369513753171,350.0,"[6, 9, 20, 28, 30, 34, 38, 39, 41, 42, 52, 53, 64, 66, 67, 73, 79, 95, 153, 195, 215, 222, 287, 350]",94.08333333333331,90.87258326298912,0.1754633176592305,0.9979296723003266
0.0,1.0,0.6,128.0,-1.0,1.0,-0.5868970887841385,244.0,-0.5970818852741271,138.0,"[6, 15, 16, 17, 18, 19, 20, 21, 22, 25, 26, 29, 30, 32, 33, 45, 74, 244]",38.44444444444444,51.85687806327272,"[56, 63, 127, 135, 137, 138]",109.33333333333331,35.47142825179474,0.3211211490400879,0.0304715771185712,0.9985304404729668,0.9946304752240824,-0.5868970887841385,422.0,"[8, 17, 18, 19, 20, 21, 22, 23, 24, 27, 28, 34, 35, 38, 39, 56, 123, 136, 137, 293, 303, 306, 307, 422]",102.33333333333331,122.15995888815432,0.2321556486151706,0.9977203133194608
0.0,1.0,0.6,256.0,-1.0,1.0,-0.5962818986333486,173.0,-0.5912530023042631,156.0,"[10, 15, 16, 17, 18, 19, 20, 25, 26, 27, 28, 33, 34, 35, 37, 54, 55, 173]",35.666666666666664,35.41813722437198,"[70, 71, 144, 151, 154, 156]",124.33333333333331,38.24773050638285,0.3017068445231927,0.0267845331429651,0.9986714730571352,0.9938694402164722,-0.5912530023042631,339.0,"[12, 18, 19, 20, 21, 22, 23, 29, 30, 31, 32, 38, 39, 40, 42, 89, 90, 148, 149, 316, 317, 328, 335, 339]",105.29166666666669,119.35014284542024,0.2102732065000738,0.9976452401495542
0.0,0.4,0.6,32.0,-1.0,1.0,-0.6061360680737157,78.0,-0.5748460782037996,136.0,"[1, 6, 7, 11, 14, 17, 18, 19, 20, 21, 24, 25, 32, 33, 37, 38, 47, 78]",24.88888888888889,17.460714281205007,"[24, 25, 48, 78, 108, 136]",69.83333333333333,41.81075087688439,0.441030847739741,0.0543104435506396,0.999218679483708,0.9966345340774566,-0.5748460782037996,327.0,"[1, 6, 7, 11, 14, 18, 19, 20, 22, 23, 33, 34, 50, 51, 60, 61, 63, 65, 79, 125, 127, 170, 220, 327]",66.91666666666667,76.40839649904684,0.3232080566940671,0.9986190766211576
0.0,1.0,0.8,16.0,-1.0,1.0,-0.6091125894279561,100.0,-0.5704367770895941,290.0,"[6, 8, 25, 38, 39, 44, 45, 47, 48, 51, 52, 56, 57, 58, 70, 71, 90, 100]",50.27777777777778,23.282815683951103,"[23, 74, 142, 155, 160, 290]",140.66666666666666,82.83651905342768,0.1884653321069485,0.0282296925408815,0.99792964166441,0.9930407576526298,-0.5704367770895941,989.0,"[6, 10, 40, 57, 65, 66, 77, 78, 85, 86, 92, 93, 99, 104, 105, 139, 144, 145, 199, 224, 282, 358, 364, 989]",162.79166666666666,196.0114748270848,0.1067670989277552,0.9961860714950344
0.0,1.0,0.8,32.0,-1.0,1.0,-0.6101172475583825,132.0,-0.5953532740363555,163.0,"[6, 26, 27, 28, 29, 30, 31, 32, 34, 35, 36, 38, 39, 45, 52, 53, 57, 132]",40.55555555555556,24.942650269551063,"[15, 38, 52, 95, 114, 163]",79.5,50.06911889245372,0.2373950564738151,0.0499608802563274,0.998423255708999,0.9961440892947742,-0.5953532740363555,369.0,"[6, 31, 32, 34, 35, 36, 38, 40, 46, 47, 48, 50, 51, 55, 64, 75, 76, 89, 100, 121, 222, 238, 310, 369]",92.20833333333331,92.5760854498732,0.1729225689768536,0.997977253886887
0.0,1.0,0.8,64.0,-1.0,1.0,-0.6083452082028227,110.0,-0.5859765900764135,176.0,"[6, 22, 25, 26, 27, 28, 31, 33, 34, 35, 39, 46, 48, 49, 50, 52, 53, 110]",39.66666666666666,20.94702312448664,"[23, 32, 72, 146, 170, 176]",103.16666666666669,63.33618414636473,0.2355214588770825,0.0397574769344993,0.9984683861359328,0.9949433451716556,-0.5859765900764135,440.0,"[6, 26, 33, 34, 35, 36, 42, 45, 46, 47, 52, 61, 63, 64, 67, 70, 71, 77, 87, 144, 188, 337, 433, 440]",104.33333333333331,119.9821746019892,0.166448340575079,0.9976695596271296
0.0,1.0,0.8,128.0,-1.0,1.0,-0.6161908691775827,81.0,-0.5931528277109521,153.0,"[16, 22, 23, 25, 26, 27, 28, 29, 30, 31, 38, 39, 40, 41, 43, 49, 52, 81]",35.55555555555556,14.511383356302742,"[52, 71, 90, 117, 148, 153]",105.16666666666669,37.60946984766234,0.2560132242640824,0.0313201034824895,0.9986771143605018,0.9948418738373076,-0.5931528277109521,397.0,"[21, 28, 29, 32, 33, 34, 35, 36, 37, 38, 48, 49, 50, 51, 53, 70, 81, 115, 151, 153, 218, 282, 391, 397]",101.33333333333331,109.0250990470645,0.1723122533173575,0.9977456901656262
0.0,1.0,0.8,256.0,-1.0,1.0,-0.6157847810380507,77.0,-0.5818324091765618,200.0,"[19, 20, 22, 23, 24, 25, 30, 31, 32, 33, 34, 35, 37, 41, 42, 43, 52, 77]",34.44444444444444,13.479293676772954,"[57, 63, 100, 149, 164, 200]",122.16666666666669,52.86276782596824,0.2645288644346483,0.0277705556428493,0.9987335273941692,0.9939793674953492,-0.5818324091765618,484.0,"[24, 25, 27, 28, 29, 31, 36, 37, 38, 40, 41, 42, 44, 54, 55, 56, 73, 127, 137, 144, 257, 355, 372, 484]",106.5,125.52323822039222,0.1800147248862254,0.9976145764604376
0.0,1.0,1.0,16.0,-1.0,1.0,-0.6083487453818976,326.0,-0.5886394807698382,222.0,"[6, 11, 32, 34, 37, 38, 48, 52, 57, 63, 64, 65, 66, 67, 82, 83, 325, 326]",80.88888888888889,88.90749805205714,"[23, 47, 82, 98, 202, 222]",112.33333333333331,74.65624927328962,0.1540530448746079,0.0358687745029582,0.996375462586876,0.9944782682225604,-0.5886394807698382,744.0,"[6, 12, 54, 55, 60, 69, 70, 93, 95, 102, 109, 124, 125, 126, 127, 130, 163, 164, 165, 308, 468, 472, 719, 744]",190.0,200.0735281506943,0.093634306704516,0.9954956098056134
0.0,1.0,1.0,32.0,-1.0,1.0,-0.6156093116093336,150.0,-0.5847431798093864,203.0,"[11, 12, 13, 21, 37, 38, 40, 41, 53, 59, 60, 61, 64, 65, 67, 68, 72, 150]",51.77777777777778,31.127971621741604,"[58, 62, 67, 101, 157, 203]",108.0,54.42425929675111,0.1862393888633982,0.0325472179382942,0.9978534840689592,0.9946981227803146,-0.5847431798093864,593.0,"[11, 13, 16, 32, 66, 67, 72, 73, 97, 105, 107, 108, 112, 113, 118, 119, 126, 193, 200, 205, 228, 322, 481, 593]",149.04166666666666,138.22972400038358,0.1057560610302537,0.9965350031298112
0.0,1.0,1.0,64.0,-1.0,1.0,-0.6107094776344035,77.0,-0.5753692137631609,193.0,"[12, 19, 21, 22, 23, 25, 28, 29, 30, 31, 32, 35, 38, 39, 40, 42, 53, 77]",33.111111111111114,14.243473705872336,"[58, 65, 128, 169, 186, 193]",133.16666666666666,54.74004221977018,0.2731053399125935,0.0255144254107486,0.99880122303457,0.993421275156435,-0.5753692137631609,586.0,"[14, 23, 25, 26, 27, 29, 33, 34, 35, 42, 43, 49, 54, 58, 59, 68, 91, 129, 139, 142, 370, 545, 574, 586]",133.125,179.50564348138658,0.1711021351667309,0.9969389179312794
0.0,1.0,1.0,128.0,-1.0,1.0,-0.6092907398203409,96.0,-0.5833608285117622,174.0,"[15, 16, 20, 21, 22, 23, 26, 27, 28, 29, 30, 31, 33, 38, 39, 44, 59, 96]",33.166666666666664,18.427786989579985,"[73, 75, 117, 122, 165, 174]",121.0,39.11947511576981,0.2855440962796447,0.0272631661023833,0.9987984023828866,0.9940385591070524,-0.5833608285117622,563.0,"[18, 19, 23, 24, 25, 26, 29, 30, 31, 32, 33, 34, 36, 46, 50, 66, 100, 164, 166, 184, 284, 291, 482, 563]",114.83333333333331,146.59856373405876,0.1986907104574563,0.9974031027423912
0.0,1.0,1.0,256.0,-1.0,1.0,-0.6045981414950314,100.0,-0.5860305746247098,169.0,"[19, 20, 21, 22, 27, 28, 29, 30, 31, 32, 34, 35, 36, 38, 41, 43, 52, 100]",35.44444444444444,17.742673674951092,"[72, 87, 100, 142, 143, 169]",118.83333333333331,34.63820947386795,0.2642371915717338,0.0275857337109064,0.9986827556638684,0.9941484863859292,-0.5860305746247098,413.0,"[21, 22, 23, 24, 30, 31, 34, 35, 36, 37, 39, 40, 41, 49, 54, 63, 82, 157, 176, 191, 206, 314, 315, 413]",101.375,109.17028460925924,0.1842775173416819,0.997744632797036
0.0,0.4,0.6,64.0,-1.0,1.0,-0.5965667504848741,93.0,-0.5747628523896651,153.0,"[2, 3, 4, 7, 8, 10, 11, 14, 21, 22, 24, 28, 29, 36, 38, 40, 42, 93]",24.0,21.173883284209666,"[45, 56, 94, 122, 130, 153]",100.0,39.13651321549566,0.5066868555596284,0.0333859185892465,0.9992638099106416,0.9951040081177068,-0.5747628523896651,498.0,"[2, 3, 4, 7, 8, 10, 11, 16, 24, 25, 28, 34, 35, 50, 56, 60, 63, 115, 131, 165, 199, 302, 312, 498]",89.91666666666667,122.11910738655476,0.3644740546351078,0.99803540915935
0.0,0.4,0.6,128.0,-1.0,1.0,-0.5984762379287364,93.0,-0.5868998757622526,115.0,"[5, 6, 7, 8, 9, 12, 14, 17, 27, 28, 31, 32, 33, 35, 36, 41, 42, 93]",26.444444444444443,20.410297570431947,"[26, 44, 93, 107, 111, 115]",82.66666666666667,34.76907949441413,0.4056147931307987,0.0417960473484716,0.9991397012365738,0.9959834263487232,-0.5868998757622526,229.0,"[5, 6, 7, 10, 11, 14, 16, 19, 32, 33, 36, 37, 38, 42, 43, 49, 50, 77, 115, 181, 186, 219, 224, 229]",69.95833333333333,75.14124431510449,0.2970086851469026,0.9985418887140708
0.0,0.4,0.6,256.0,-1.0,1.0,-0.5904612203318904,104.0,-0.5848786491829068,133.0,"[6, 7, 8, 9, 10, 11, 12, 27, 28, 29, 30, 31, 34, 35, 36, 46, 49, 104]",28.444444444444443,22.67701288927285,"[30, 46, 91, 110, 123, 133]",88.83333333333333,38.44223660969215,0.384402999048675,0.03865090866542,0.9990381577759726,0.99567055640115,-0.5848786491829068,282.0,"[6, 7, 8, 9, 10, 13, 14, 33, 34, 35, 36, 37, 40, 44, 47, 72, 76, 81, 112, 184, 211, 222, 236, 282]",77.04166666666667,82.42950481404634,0.2781954256743324,0.9983621360537313
0.0,0.4,0.4,16.0,-1.0,2.0,-0.5650218208503779,447.0,-0.5832621751587559,154.0,"[1, 4, 5, 10, 13, 14, 17, 18, 19, 20, 21, 23, 24, 25, 28, 44, 54, 447]",43.72222222222222,98.62600826441695,"[8, 10, 69, 72, 89, 154]",67.0,49.68567868779359,0.4811148934818319,0.0865291051111764,0.9982624785630472,0.9967782851344494,-0.5650218208503779,753.0,"[2, 5, 6, 12, 15, 16, 20, 21, 22, 23, 24, 26, 27, 28, 35, 36, 39, 67, 85, 153, 158, 187, 454, 753]",92.25,167.49259933899566,0.3456096010502026,0.9979761965182968
0.0,0.4,0.8,16.0,-1.0,2.0,-0.6613188493206102,53.0,-0.5966227315381596,133.0,"[8, 9, 10, 11, 13, 14, 15, 20, 21, 23, 24, 25, 27, 33, 35, 36, 41, 53]",23.22222222222222,12.131481340140324,"[5, 7, 14, 81, 87, 133]",54.5,48.76388691097815,0.3999584432136715,0.1419944603953476,0.9993032990342088,0.9974124809741248,-0.5966227315381596,337.0,"[8, 9, 10, 11, 13, 14, 15, 20, 21, 23, 24, 25, 27, 33, 35, 36, 41, 54, 68, 70, 84, 201, 209, 337]",57.833333333333336,78.10818707977346,0.3457835800212165,0.998849582973828
0.0,0.4,0.8,32.0,-1.0,2.0,-0.652051661893912,54.0,-0.5777842193208541,181.0,"[7, 8, 9, 10, 11, 13, 14, 17, 18, 19, 23, 25, 28, 33, 34, 39, 46, 54]",22.666666666666668,13.420548092798263,"[21, 36, 57, 84, 88, 181]",77.83333333333333,51.9596531508396,0.4267767602045432,0.0488987638049865,0.9993315055510424,0.9962286487400644,-0.5777842193208541,646.0,"[7, 8, 9, 10, 11, 13, 14, 17, 18, 19, 23, 25, 28, 33, 34, 39, 46, 59, 83, 108, 168, 202, 266, 646]",78.58333333333333,135.47752478629886,0.3510567793014985,0.9983230134158928
0.0,0.4,0.8,64.0,-1.0,2.0,-0.6283158954910556,70.0,-0.5978149850539751,117.0,"[6, 7, 8, 9, 10, 14, 17, 20, 30, 33, 34, 35, 38, 43, 44, 45, 60, 70]",29.05555555555556,18.473621500886736,"[16, 39, 68, 78, 109, 117]",71.16666666666667,35.7464061907705,0.3552657363733875,0.0510558934230008,0.9990071306074556,0.9965668865212244,-0.5978149850539751,252.0,"[6, 7, 8, 9, 10, 14, 17, 20, 32, 35, 36, 37, 40, 45, 46, 47, 72, 79, 103, 111, 154, 171, 239, 252]",66.25,69.7252046728202,0.2918515099644239,0.9986359945186012
0.0,0.4,0.8,128.0,-1.0,2.0,-0.6171575354614893,74.0,-0.5973900148772384,88.0,"[9, 10, 11, 14, 15, 26, 32, 33, 34, 35, 36, 37, 39, 40, 41, 43, 48, 74]",32.05555555555556,15.798988090740432,"[21, 36, 62, 64, 82, 88]",58.833333333333336,23.72352325341992,0.2915993442618833,0.0572031879811187,0.9988548154165536,0.9971926264163709,-0.5973900148772384,194.0,"[9, 10, 11, 14, 15, 29, 38, 39, 40, 42, 43, 44, 48, 49, 50, 53, 59, 79, 103, 115, 152, 156, 183, 194]",65.625,54.18087954558632,0.2293199253831774,0.9986518550474548
0.0,0.4,0.8,256.0,-1.0,2.0,-0.6088258993728706,76.0,-0.5848210128630024,123.0,"[9, 10, 11, 20, 21, 26, 27, 31, 32, 33, 34, 35, 38, 40, 41, 42, 53, 76]",32.166666666666664,15.72771792445144,"[34, 40, 100, 104, 108, 123]",84.83333333333333,34.604511587684954,0.2872520742455757,0.0404916812114325,0.9988491741131872,0.995873499069846,-0.5848210128630024,325.0,"[11, 12, 13, 24, 25, 33, 35, 39, 40, 42, 43, 44, 50, 53, 54, 55, 73, 102, 114, 127, 205, 211, 220, 325]",81.25,79.28337888023357,0.1991351519881427,0.998255341826118
0.0,0.4,1.0,16.0,-1.0,2.0,-0.6363596638619202,125.0,-0.5631076491045376,348.0,"[12, 15, 20, 21, 22, 24, 25, 29, 33, 34, 38, 42, 47, 48, 58, 59, 61, 125]",39.61111111111112,25.44086583276968,"[38, 40, 143, 202, 206, 348]",162.83333333333334,107.04269656958802,0.2406719809279439,0.0264350024368773,0.9984712067876164,0.9919161170302724,-0.5631076491045376,1345.0,"[12, 15, 23, 24, 26, 28, 29, 35, 39, 40, 47, 51, 58, 59, 75, 76, 78, 148, 291, 293, 762, 947, 958, 1345]",227.4583333333333,364.7054723982384,0.1603389908829222,0.9945450354429952
0.0,0.4,1.0,32.0,-1.0,2.0,-0.6384823507395756,53.0,-0.5600747751727139,350.0,"[11, 12, 13, 14, 15, 16, 19, 23, 28, 29, 31, 32, 35, 36, 43, 47, 50, 53]",28.166666666666668,13.371819455689474,"[30, 48, 148, 149, 223, 350]",158.0,107.82238481255489,0.327677799618958,0.0269467149434495,0.9990522610343894,0.9921613394216132,-0.5600747751727139,1161.0,"[11, 12, 13, 14, 16, 17, 20, 24, 29, 30, 33, 34, 37, 38, 53, 57, 64, 75, 95, 121, 349, 350, 821, 1161]",144.75,274.75720342392,0.2480086762600099,0.9966439120946048
0.0,0.4,1.0,64.0,-1.0,2.0,-0.6443568174894083,50.0,-0.5788473699733554,180.0,"[11, 13, 14, 15, 16, 17, 19, 20, 25, 29, 30, 33, 39, 40, 45, 46, 47, 50]",28.27777777777778,13.01625289805683,"[36, 56, 113, 141, 143, 180]",111.5,50.55937104039171,0.3235277822476853,0.0311179831138407,0.9990466197310228,0.9945205479452056,-0.5788473699733554,458.0,"[11, 13, 14, 15, 16, 17, 20, 23, 28, 32, 33, 38, 45, 47, 53, 54, 55, 59, 107, 138, 238, 283, 285, 458]",86.75,111.91375027225207,0.2464265380111293,0.9981157691722072
0.0,0.4,1.0,128.0,-1.0,2.0,-0.6233489148531655,65.0,-0.5819360517520198,153.0,"[10, 14, 15, 16, 18, 20, 21, 24, 39, 40, 41, 42, 43, 44, 46, 47, 48, 65]",32.94444444444444,15.251492539792885,"[29, 45, 106, 127, 152, 153]",102.0,48.853522561496696,0.2781384808684084,0.0351392626610546,0.99880968498962,0.9950025367833588,-0.5819360517520198,362.0,"[10, 19, 20, 21, 23, 26, 27, 30, 46, 47, 50, 51, 52, 53, 56, 58, 59, 92, 96, 124, 219, 246, 361, 362]",89.5,99.9391481519296,0.1957536689975763,0.998045982845252
0.0,0.4,1.0,256.0,-1.0,2.0,-0.6067576972395924,79.0,-0.5782442398673338,143.0,"[11, 13, 18, 19, 25, 26, 27, 28, 34, 35, 36, 37, 40, 42, 44, 45, 46, 79]",33.611111111111114,15.242990698419348,"[45, 60, 108, 122, 141, 143]",103.16666666666669,37.9535534860996,0.269571925503599,0.0322565422408463,0.9987758371694196,0.9949433451716556,-0.5782442398673338,469.0,"[14, 19, 25, 26, 34, 35, 36, 37, 44, 45, 47, 48, 52, 55, 57, 58, 59, 116, 129, 148, 344, 362, 407, 469]",111.08333333333331,132.60904841760316,0.1744566561972506,0.997498265915512
0.0,0.4,0.4,32.0,-1.0,2.0,-0.5938966223718846,186.0,-0.5952882873557517,133.0,"[6, 7, 8, 9, 10, 11, 16, 17, 18, 19, 20, 21, 22, 23, 31, 58, 181, 186]",36.833333333333336,53.122761390742646,"[14, 27, 54, 104, 127, 133]",76.5,47.19021791289659,0.4276361210230918,0.0540004333691307,0.9986122393717846,0.9962962962962962,-0.5938966223718846,325.0,"[6, 7, 8, 9, 10, 11, 16, 17, 19, 20, 21, 22, 26, 27, 40, 47, 65, 109, 114, 213, 301, 310, 315, 325]",85.75,111.32619113817437,0.3396416745675698,0.9981411460183728
0.0,0.6,0.4,16.0,-1.0,2.0,-0.5099242687165487,1163.0,-0.5690201201035094,206.0,"[2, 4, 5, 8, 9, 10, 13, 31, 32, 34, 37, 38, 41, 42, 329, 464, 631, 1163]",160.72222222222223,299.92180565302823,"[50, 68, 149, 158, 172, 206]",133.83333333333334,56.036942180037705,0.3444199265421753,0.0255097382706829,0.9923221861178808,0.9933874513783189,-0.5099242687165487,2031.0,"[4, 6, 7, 15, 16, 17, 20, 52, 53, 55, 61, 62, 67, 68, 140, 193, 355, 366, 389, 441, 624, 821, 1055, 2031]",288.25,456.2715063424408,0.1755631927268366,0.9930023346698472
0.0,0.6,0.4,32.0,-1.0,2.0,-0.5269219342760129,963.0,-0.5828345790425442,179.0,"[2, 9, 10, 11, 12, 16, 20, 21, 23, 24, 25, 26, 32, 36, 170, 205, 261, 963]",103.66666666666669,221.01357424375547,"[41, 87, 104, 142, 149, 179]",117.0,45.34681172181054,0.3244969234773454,0.0285784196054529,0.9952189953966964,0.9942415017757484,-0.5269219342760129,1592.0,"[2, 9, 10, 11, 12, 16, 23, 24, 30, 31, 32, 33, 40, 46, 93, 192, 218, 270, 312, 327, 378, 387, 530, 1592]",192.41666666666663,329.0863509610948,0.2345834387448137,0.99543428242738
0.0,0.6,0.4,64.0,-1.0,2.0,-0.5593965018062104,469.0,-0.5989535413770105,120.0,"[8, 9, 10, 11, 12, 13, 17, 18, 19, 20, 21, 22, 24, 25, 126, 138, 148, 469]",61.66666666666666,108.656952531043,"[45, 54, 66, 72, 75, 120]",72.0,23.81176179958132,0.3575855656733874,0.0461560044893378,0.9973514080693202,0.9965246067985792,-0.5593965018062104,814.0,"[8, 9, 10, 11, 12, 13, 17, 18, 19, 20, 21, 22, 24, 25, 105, 124, 139, 149, 156, 212, 272, 299, 319, 814]",117.41666666666669,175.38574549324758,0.2929919325708082,0.9973375458897968
0.0,0.6,0.4,128.0,-1.0,2.0,-0.5540934620105955,561.0,-0.5953395252100621,138.0,"[7, 8, 9, 10, 11, 16, 17, 18, 19, 20, 21, 22, 23, 29, 112, 189, 200, 561]",71.77777777777777,132.2012588423657,"[56, 67, 78, 80, 131, 138]",91.66666666666669,31.351058816073323,0.3571926482332934,0.0363026045647001,0.996838049462948,0.995526805344157,-0.5540934620105955,969.0,"[7, 8, 9, 10, 11, 16, 17, 20, 21, 22, 23, 26, 27, 34, 116, 133, 155, 159, 204, 287, 318, 342, 374, 969]",137.83333333333334,209.2430139548006,0.2719074478435979,0.9968194352805834
0.0,0.6,0.4,256.0,-1.0,2.0,-0.5621645300885992,602.0,-0.5948219786162195,109.0,"[7, 8, 9, 10, 12, 13, 14, 15, 16, 18, 19, 22, 23, 26, 61, 128, 129, 602]",62.888888888888886,135.7321254403069,"[48, 60, 87, 102, 105, 109]",85.16666666666667,23.31963883844592,0.3933637330724007,0.0384216717900911,0.9972893537322864,0.995856587180788,-0.5621645300885992,923.0,"[9, 10, 11, 12, 15, 16, 17, 18, 19, 21, 22, 25, 27, 31, 100, 114, 130, 174, 223, 227, 235, 254, 255, 923]",120.33333333333331,189.9279834276373,0.270418971436382,0.9972635300884808
0.0,0.6,0.6,16.0,-1.0,2.0,-0.5420042766709523,594.0,-0.5678151717062956,212.0,"[4, 5, 6, 7, 8, 14, 15, 36, 40, 41, 42, 43, 44, 49, 131, 204, 464, 594]",97.05555555555556,161.67370164151356,"[32, 76, 84, 129, 145, 212]",113.0,57.52101065407897,0.3095726030610677,0.0311787454231828,0.9955546529470168,0.9944444444444444,-0.5420042766709523,989.0,"[10, 11, 12, 13, 14, 27, 28, 65, 69, 76, 77, 78, 79, 80, 87, 198, 214, 216, 293, 338, 362, 440, 835, 989]",192.125,249.5895484757592,0.1479817226514994,0.9954416840075117
0.0,0.6,0.6,32.0,-1.0,2.0,-0.5426389807320978,864.0,-0.5869022217499866,173.0,"[3, 4, 5, 6, 9, 25, 26, 32, 33, 34, 35, 36, 38, 45, 49, 57, 70, 864]",76.16666666666667,191.97055619142336,"[63, 65, 83, 97, 144, 173]",104.16666666666669,40.932532565457294,0.3564964346062311,0.0322380402507732,0.996615217979962,0.9948926095044816,-0.5426389807320978,1318.0,"[5, 6, 7, 8, 11, 31, 32, 43, 44, 45, 49, 50, 52, 78, 84, 97, 128, 133, 142, 155, 208, 309, 350, 1318]",141.04166666666666,261.2030626362477,0.2172403541280656,0.9967380178991356
0.0,0.6,0.6,64.0,-1.0,2.0,-0.5523789089613346,765.0,-0.5954770666743233,129.0,"[2, 3, 8, 9, 10, 20, 21, 22, 23, 28, 29, 30, 39, 40, 46, 66, 75, 765]",68.66666666666667,170.0013071845168,"[52, 53, 97, 104, 125, 129]",93.33333333333331,30.922843048824312,0.3783328554012329,0.0354779366179057,0.9969960059572164,0.9954422458988668,-0.5523789089613346,1112.0,"[4, 5, 10, 11, 12, 22, 23, 24, 25, 30, 32, 34, 48, 49, 59, 115, 116, 120, 144, 195, 205, 237, 242, 1112]",119.75,220.12009032949868,0.2539802189069241,0.9972783332487438
0.0,0.6,0.6,128.0,-1.0,2.0,-0.5587418701452069,513.0,-0.5823611891435,164.0,"[4, 5, 6, 9, 10, 17, 18, 20, 21, 22, 23, 24, 32, 34, 44, 75, 80, 513]",53.16666666666666,113.4632833416461,"[58, 59, 82, 94, 115, 164]",95.33333333333331,36.50418545256907,0.3880541336587181,0.035056978076889,0.9977829677768753,0.9953407745645187,-0.5587418701452069,802.0,"[6, 7, 8, 11, 12, 19, 20, 22, 23, 24, 26, 27, 37, 43, 60, 125, 126, 138, 148, 170, 192, 222, 345, 802]",108.875,167.85691141068136,0.2673180218117742,0.9975543064507943
0.0,0.6,0.6,256.0,-1.0,2.0,-0.5735862467235152,351.0,-0.5863575420595937,143.0,"[7, 8, 9, 10, 11, 16, 17, 18, 19, 20, 22, 23, 24, 31, 34, 70, 78, 351]",42.66666666666666,77.16072691322819,"[50, 56, 99, 114, 124, 143]",97.66666666666669,34.2182537381569,0.3857505511194303,0.0338976096531274,0.9983160709450312,0.9952223913411128,-0.5735862467235152,561.0,"[9, 10, 11, 12, 13, 18, 19, 20, 21, 22, 25, 26, 27, 36, 39, 110, 123, 131, 136, 195, 223, 241, 265, 561]",95.54166666666669,126.1715033749257,0.2753842276685362,0.9978926643996684
0.0,0.4,0.4,64.0,-1.0,2.0,-0.5941903191002029,120.0,-0.6008259243529925,112.0,"[1, 3, 4, 5, 6, 14, 15, 16, 17, 18, 20, 21, 26, 27, 44, 82, 84, 120]",29.05555555555556,32.096161456580965,"[39, 49, 54, 66, 69, 112]",64.83333333333333,23.376745329968887,0.5405551706324861,0.0514423608367707,0.9990071306074556,0.9968882124133266,-0.5941903191002029,241.0,"[1, 3, 4, 5, 6, 14, 15, 16, 17, 18, 20, 21, 29, 30, 80, 83, 100, 105, 133, 138, 184, 194, 199, 241]",69.0,73.57422555940815,0.4245910362613931,0.998566208191646
0.0,0.6,0.8,16.0,-1.0,2.0,-0.5990508297149969,183.0,-0.5310046911798174,565.0,"[2, 3, 4, 5, 8, 17, 21, 22, 23, 54, 60, 61, 72, 78, 82, 86, 173, 183]",53.0,52.88457031855112,"[59, 126, 135, 160, 306, 565]",225.16666666666663,169.23496158365808,0.3628603874753239,0.0178339548242009,0.9977914297319253,0.9887535937764248,-0.5310046911798174,1406.0,"[4, 5, 6, 7, 10, 33, 38, 39, 40, 79, 90, 91, 115, 126, 133, 144, 145, 252, 275, 324, 344, 443, 694, 1406]",201.79166666666663,299.7872828032496,0.1907358385958983,0.9951963744945778
0.0,0.6,0.8,32.0,-1.0,2.0,-0.5864195395334824,197.0,-0.5635849166090812,286.0,"[2, 3, 4, 5, 6, 18, 19, 20, 21, 22, 29, 32, 33, 34, 35, 38, 107, 197]",34.72222222222222,45.60434379354127,"[44, 51, 100, 215, 251, 286]",157.83333333333334,96.68749775551242,0.4706937360482763,0.0252411583114489,0.9987194241357524,0.9921697953661424,-0.5635849166090812,696.0,"[4, 5, 6, 7, 8, 28, 29, 30, 31, 32, 43, 46, 47, 48, 50, 54, 124, 136, 188, 247, 330, 519, 624, 696]",138.83333333333334,197.72448564156693,0.2605157153447758,0.9967940584344176
0.0,0.6,0.8,64.0,-1.0,2.0,-0.59449556153918,135.0,-0.5784902768021958,185.0,"[5, 6, 8, 9, 10, 11, 12, 13, 14, 15, 23, 27, 28, 30, 39, 59, 69, 135]",28.5,31.15418644955014,"[39, 65, 85, 125, 161, 185]",110.0,51.86842327788009,0.4461273572947609,0.0311987845184776,0.9990353371242892,0.9945966514459664,-0.5784902768021958,376.0,"[5, 6, 9, 12, 13, 14, 15, 16, 17, 18, 26, 30, 31, 34, 47, 93, 99, 125, 139, 181, 258, 261, 308, 376]",88.875,107.07447272031432,0.3047530175597268,0.9980618433741054
0.0,0.6,0.8,128.0,-1.0,2.0,-0.5734197482986818,276.0,-0.5891539104795945,125.0,"[7, 8, 11, 15, 16, 17, 18, 19, 20, 21, 22, 27, 28, 29, 36, 61, 69, 276]",38.888888888888886,59.67494252558689,"[35, 43, 90, 94, 105, 125]",82.0,32.44482495971687,0.3571445785020135,0.0410981048200246,0.9985078752595,0.9960172501268392,-0.5734197482986818,469.0,"[9, 10, 13, 17, 18, 19, 20, 21, 22, 24, 25, 30, 31, 32, 43, 89, 103, 106, 119, 183, 188, 202, 256, 469]",85.375,106.59730003616414,0.2628032595580566,0.998150662335685
0.0,0.6,0.8,256.0,-1.0,2.0,-0.5879198831680524,138.0,-0.585306344937229,153.0,"[7, 8, 9, 12, 13, 14, 17, 18, 20, 21, 27, 30, 33, 34, 37, 55, 60, 138]",30.72222222222222,29.88832093636345,"[34, 36, 96, 104, 127, 153]",91.66666666666669,43.97979333992171,0.365099442671196,0.0388774372896072,0.9989225110569546,0.9955268053441568,-0.585306344937229,299.0,"[9, 10, 11, 15, 16, 17, 21, 22, 25, 26, 32, 35, 39, 40, 44, 88, 89, 93, 99, 191, 206, 263, 267, 299]",81.54166666666667,89.88834702315732,0.2523696147344175,0.9982479402459862
