LSX-UniWue/explainable-ERP-fraud-detection/outputs/summary/ex2/IsolationForest_zscore.csv
bootstrap,max_features,max_samples,n_estimators,n_jobs,random_state,max_fraud_eval,min_detect_eval,max_fraud_test,min_detect_test,fraud_ranks_eval,rank_mean_eval,rank_std_eval,fraud_ranks_test,rank_mean_test,rank_std_test,auc_pr_eval,auc_pr_test,auc_roc_eval,auc_roc_test,max_fraud_joint,min_detect_joint,fraud_ranks_joint,rank_mean_joint,rank_std_joint,auc_pr_joint,auc_roc_joint
0.0,0.4,0.4,16.0,-1.0,0.0,-0.6314666786713619,96.0,-0.5876643087996856,310.0,"[2, 5, 7, 8, 10, 11, 12, 15, 17, 18, 19, 21, 22, 23, 51, 60, 62, 96]",25.5,24.400022768659685,"[49, 75, 79, 223, 236, 310]",162.0,98.59682212593536,0.4693399169999608,0.0239213354324769,0.9991890626410326,0.9919583967529172,-0.5876643087996856,573.0,"[2, 6, 8, 11, 14, 16, 17, 21, 23, 24, 28, 30, 34, 36, 90, 107, 115, 123, 143, 150, 234, 355, 377, 573]",105.70833333333331,141.5033801618259,0.2750031340385133,0.997635195147947
0.0,0.4,0.8,16.0,-1.0,0.0,-0.6536750690061469,69.0,-0.6016132911541845,212.0,"[4, 7, 10, 14, 15, 19, 24, 29, 30, 31, 32, 36, 37, 39, 40, 46, 54, 69]",29.77777777777778,16.443693676555615,"[78, 102, 144, 147, 150, 212]",138.83333333333334,42.0888610231047,0.3136989038826312,0.0236846322951047,0.9989718724614136,0.9931337730424488,-0.6016132911541845,442.0,"[4, 7, 10, 14, 15, 19, 25, 32, 35, 36, 37, 44, 46, 48, 50, 68, 88, 130, 153, 247, 310, 316, 319, 442]",103.95833333333331,122.93849382471257,0.2214843846298975,0.9976801333130318
0.0,0.4,0.8,32.0,-1.0,0.0,-0.6793011906014568,48.0,-0.5990599770465691,168.0,"[3, 4, 7, 8, 10, 11, 12, 15, 19, 20, 22, 23, 24, 25, 27, 39, 42, 48]",19.944444444444443,12.607194692900215,"[111, 135, 138, 157, 164, 168]",145.5,19.737865470545017,0.4870383251237561,0.0228737919762183,0.9994697174835274,0.9927955352612888,-0.5990599770465691,357.0,"[3, 4, 7, 8, 10, 11, 12, 15, 19, 20, 22, 23, 25, 26, 28, 43, 47, 53, 207, 298, 301, 341, 353, 357]",93.04166666666669,128.17386602016634,0.3755254472573101,0.9979561065150824
0.0,0.4,0.8,64.0,-1.0,0.0,-0.6734865119573524,55.0,-0.6000528152419,154.0,"[6, 7, 9, 11, 13, 15, 17, 20, 21, 26, 28, 31, 32, 34, 41, 42, 43, 55]",25.05555555555556,13.806086508904617,"[74, 111, 135, 141, 148, 154]",127.16666666666669,27.37040169396293,0.3681285433299577,0.0258112284708029,0.999210217528658,0.993725689159479,-0.6000528152419,337.0,"[6, 7, 9, 11, 13, 15, 17, 20, 21, 26, 28, 31, 32, 34, 44, 45, 46, 65, 159, 266, 294, 305, 328, 337]",89.95833333333333,115.31568235596676,0.2908092595590727,0.9980343517907594
0.0,0.4,0.8,128.0,-1.0,0.0,-0.6799719242269973,53.0,-0.5929716589775398,198.0,"[3, 6, 8, 12, 13, 14, 17, 19, 21, 22, 25, 27, 28, 31, 38, 39, 45, 53]",23.38888888888889,13.42526179711173,"[77, 90, 93, 122, 197, 198]",129.5,49.92243984422236,0.4014920981872136,0.0259896543223657,0.9992948370791588,0.993607305936073,-0.5929716589775398,434.0,"[3, 6, 8, 12, 13, 14, 17, 19, 21, 22, 25, 27, 28, 31, 38, 39, 48, 58, 165, 181, 184, 227, 433, 434]",85.54166666666667,122.39348402000635,0.3216284021449417,0.998146432861324
0.0,0.4,0.8,256.0,-1.0,0.0,-0.6733002857352224,56.0,-0.5946523658151314,179.0,"[5, 6, 7, 9, 10, 12, 15, 19, 20, 22, 25, 28, 30, 31, 34, 37, 55, 56]",23.38888888888889,14.933701219013503,"[78, 85, 86, 111, 169, 179]",118.0,40.995934757810645,0.4142366671006106,0.0283958389067801,0.9992948370791588,0.9941907661085744,-0.5946523658151314,407.0,"[5, 6, 7, 9, 10, 12, 15, 19, 20, 22, 25, 28, 30, 31, 34, 37, 65, 66, 165, 172, 173, 209, 390, 407]",81.54166666666667,112.70757855569823,0.3306679043979313,0.9982479402459864
0.0,0.4,1.0,16.0,-1.0,0.0,-0.6827515478052649,52.0,-0.5891545619812141,266.0,"[11, 13, 14, 15, 17, 18, 22, 28, 30, 31, 32, 36, 37, 38, 42, 48, 51, 52]",29.72222222222222,13.033314388543587,"[94, 136, 158, 209, 254, 266]",186.16666666666663,62.317511360950725,0.2970252479131561,0.0176186180543028,0.9989746931130968,0.9907322847962116,-0.5891545619812141,639.0,"[11, 13, 14, 15, 17, 18, 24, 33, 37, 38, 39, 44, 49, 51, 63, 73, 80, 81, 182, 252, 286, 491, 622, 639]",132.16666666666666,186.189568868816,0.1981987761973088,0.99696376609315
0.0,0.4,1.0,32.0,-1.0,0.0,-0.6835164661998088,50.0,-0.5792463720857726,253.0,"[4, 10, 12, 13, 15, 16, 19, 20, 21, 22, 24, 25, 26, 37, 38, 42, 48, 50]",24.55555555555556,12.910900744126698,"[152, 158, 185, 210, 233, 253]",198.5,37.14274267381629,0.3707850654561181,0.0166126088279885,0.999235603393808,0.9901065449010654,-0.5792463720857726,553.0,"[4, 10, 12, 13, 15, 16, 19, 20, 21, 22, 24, 25, 26, 41, 42, 46, 58, 60, 281, 290, 404, 436, 526, 553]",123.5,176.75335923257583,0.2821491116839631,0.997183170075623
0.0,0.4,1.0,64.0,-1.0,0.0,-0.6826176481135207,52.0,-0.5813807259430082,217.0,"[8, 11, 12, 13, 14, 15, 19, 20, 21, 23, 24, 27, 35, 36, 39, 40, 50, 52]",25.5,13.11593602369948,"[116, 117, 164, 166, 189, 217]",161.5,36.31689230463789,0.3548496058564708,0.0203680952097445,0.9991876523151908,0.9919837645865044,-0.5813807259430082,535.0,"[8, 11, 12, 13, 14, 15, 19, 20, 21, 23, 24, 27, 37, 38, 41, 42, 52, 55, 222, 223, 344, 346, 396, 535]",105.75,148.2754334563439,0.2783259622524795,0.9976336090950616
0.0,0.4,1.0,128.0,-1.0,0.0,-0.6864903939312296,48.0,-0.5876577454900371,194.0,"[8, 9, 10, 12, 14, 16, 19, 22, 23, 24, 30, 32, 33, 34, 35, 40, 46, 48]",25.27777777777778,12.255636143585146,"[66, 85, 113, 122, 174, 194]",125.66666666666669,45.44838342070656,0.354068569772792,0.0262799919939914,0.9991989349219244,0.9938017926602402,-0.5876577454900371,476.0,"[8, 9, 10, 12, 14, 16, 19, 22, 23, 24, 30, 32, 33, 34, 35, 40, 48, 51, 149, 177, 212, 227, 373, 476]",86.41666666666667,120.96311995351678,0.2868476366772452,0.9981242281209292
0.0,0.4,1.0,256.0,-1.0,0.0,-0.6801824344762784,53.0,-0.5980919418125167,163.0,"[10, 11, 13, 15, 16, 17, 19, 23, 24, 25, 27, 32, 33, 34, 35, 39, 52, 53]",26.55555555555556,12.504320241075002,"[70, 82, 88, 111, 157, 163]",111.83333333333331,36.20965187472656,0.3349681922112373,0.0295766421706634,0.9991340599332068,0.9945036360561474,-0.5980919418125167,362.0,"[10, 11, 13, 15, 16, 17, 19, 23, 24, 25, 27, 32, 33, 34, 35, 39, 58, 59, 154, 167, 174, 210, 354, 362]",79.625,101.45147136274892,0.2733720288214608,0.9982965792011368
0.0,0.4,0.4,32.0,-1.0,0.0,-0.6164983730502799,98.0,-0.5767200943695616,318.0,"[1, 2, 3, 4, 5, 6, 7, 8, 9, 11, 12, 13, 15, 24, 55, 72, 94, 98]",24.38888888888889,31.14685446734352,"[70, 128, 135, 245, 262, 318]",193.0,87.37657962329875,0.7810171403889743,0.0177352268523553,0.999244065348858,0.9903855910705226,-0.5767200943695616,540.0,"[1, 2, 3, 4, 5, 6, 7, 8, 9, 11, 12, 13, 16, 25, 98, 141, 142, 219, 223, 232, 234, 421, 444, 540]",117.33333333333331,157.20015549893355,0.5833098354016822,0.9973396606269772
0.0,0.6,0.4,16.0,-1.0,0.0,-0.6010411026417675,230.0,-0.5755401013776049,398.0,"[12, 14, 18, 19, 21, 23, 25, 27, 28, 37, 38, 40, 41, 45, 46, 48, 149, 230]",47.833333333333336,53.013887069542655,"[23, 40, 47, 69, 164, 398]",123.5,130.9487813358083,0.2468304260425293,0.0434737073931387,0.9980579813160032,0.9939117199391172,-0.5755401013776049,806.0,"[15, 17, 22, 23, 25, 27, 29, 31, 32, 43, 44, 46, 50, 56, 57, 61, 83, 109, 118, 151, 297, 316, 421, 806]",119.95833333333331,176.69311417602617,0.1856617408969156,0.9972751611429732
0.0,0.6,0.4,32.0,-1.0,0.0,-0.6218075455973885,96.0,-0.571180475641755,319.0,"[1, 2, 3, 4, 6, 13, 15, 17, 18, 19, 21, 26, 27, 28, 43, 58, 93, 96]",27.22222222222222,27.69186714854813,"[42, 50, 53, 55, 151, 319]",111.66666666666669,99.86935910923276,0.569426594168566,0.0408436550554377,0.9991002121130066,0.9945120920006764,-0.571180475641755,618.0,"[1, 2, 3, 4, 6, 13, 15, 17, 18, 19, 21, 28, 29, 30, 50, 72, 112, 126, 130, 132, 170, 177, 284, 618]",86.54166666666667,131.95484681216612,0.4432231613828132,0.9981210560151584
0.0,0.6,0.4,64.0,-1.0,0.0,-0.6257264258158449,91.0,-0.5909773962353388,212.0,"[4, 7, 9, 10, 12, 13, 16, 17, 18, 19, 21, 22, 23, 29, 33, 50, 89, 91]",26.83333333333333,24.624400725928563,"[45, 54, 65, 101, 139, 212]",102.66666666666669,58.29427263653113,0.4090142078656295,0.0348816959371967,0.99911995667479,0.9949687130052428,-0.5909773962353388,387.0,"[4, 7, 9, 10, 12, 13, 16, 17, 18, 19, 21, 22, 23, 32, 37, 57, 120, 133, 148, 164, 169, 200, 267, 387]",79.375,97.50718456435231,0.3228957576585488,0.9983029234126782
0.0,0.6,0.4,128.0,-1.0,0.0,-0.6203111338727788,99.0,-0.5890643205505224,224.0,"[1, 2, 3, 4, 5, 7, 8, 10, 12, 14, 15, 16, 19, 24, 59, 70, 93, 99]",25.61111111111111,30.777226228511683,"[26, 43, 53, 68, 201, 224]",102.5,79.05430622890403,0.699707131214498,0.0420103009235745,0.999182011011824,0.9949771689497716,-0.5890643205505224,467.0,"[1, 2, 3, 4, 5, 7, 8, 10, 12, 14, 15, 16, 19, 24, 80, 91, 102, 120, 135, 155, 177, 190, 430, 467]",86.95833333333333,124.61556857213128,0.5431826409265001,0.998110482329256
0.0,0.6,0.4,256.0,-1.0,0.0,-0.6152141894178041,114.0,-0.5899698200735327,218.0,"[2, 3, 5, 6, 7, 8, 9, 10, 14, 15, 17, 18, 19, 22, 57, 62, 95, 114]",26.83333333333333,31.97264455749633,"[45, 52, 55, 66, 213, 218]",108.16666666666669,76.16083128631293,0.5709602668847317,0.0378053983364747,0.99911995667479,0.9946896668357856,-0.5899698200735327,450.0,"[2, 3, 5, 6, 7, 8, 9, 10, 14, 15, 17, 18, 19, 22, 80, 93, 120, 130, 133, 152, 179, 217, 445, 450]",89.75,125.12035872177904,0.444043635196992,0.9980396386337106
0.0,0.6,0.6,16.0,-1.0,0.0,-0.6603891312502337,66.0,-0.5658976657064659,358.0,"[7, 9, 12, 14, 16, 18, 20, 21, 23, 24, 28, 30, 33, 34, 39, 41, 62, 66]",27.61111111111111,15.993536503117229,"[26, 55, 69, 77, 297, 358]",147.0,129.8139694588632,0.3336606516899881,0.0339743801690202,0.9990804675512228,0.9927194317605276,-0.5658976657064659,980.0,"[7, 9, 12, 14, 16, 18, 21, 22, 24, 25, 29, 31, 35, 36, 45, 47, 76, 86, 98, 137, 159, 168, 793, 980]",120.33333333333331,237.0398466268676,0.26285212691427,0.9972635300884806
0.0,0.6,0.6,32.0,-1.0,0.0,-0.6566810341964505,66.0,-0.5706981285259509,303.0,"[9, 11, 14, 15, 17, 18, 19, 20, 22, 23, 26, 29, 30, 31, 38, 50, 62, 66]",27.77777777777778,16.06084111383805,"[77, 79, 93, 96, 179, 303]",137.83333333333334,81.54429607411068,0.3331722861664412,0.0266605234929809,0.9990720055961728,0.9931845087096228,-0.5706981285259509,853.0,"[9, 11, 14, 15, 17, 18, 19, 20, 22, 23, 26, 31, 32, 34, 41, 57, 80, 92, 163, 165, 184, 189, 406, 853]",105.04166666666669,180.00312015042653,0.260400772549246,0.9976515843610956
0.0,0.6,0.6,64.0,-1.0,0.0,-0.63835874354118,81.0,-0.5735838942288566,274.0,"[4, 9, 12, 13, 16, 17, 19, 20, 23, 24, 26, 30, 34, 35, 36, 39, 67, 81]",28.05555555555556,18.969192046937064,"[59, 74, 79, 105, 162, 274]",125.5,74.20860237645408,0.3433363488995403,0.0288013514931306,0.9990579023377562,0.9938102486047692,-0.5735838942288566,722.0,"[4, 9, 12, 13, 16, 17, 19, 20, 23, 24, 26, 30, 34, 35, 36, 41, 95, 129, 146, 165, 171, 205, 329, 722]",96.70833333333331,152.79247340937823,0.2744663945440909,0.997863058079142
0.0,0.6,0.6,128.0,-1.0,0.0,-0.632629697217556,84.0,-0.5665374786699762,333.0,"[3, 4, 6, 9, 11, 12, 14, 15, 16, 19, 25, 26, 27, 28, 29, 37, 76, 84]",24.5,21.726200260924085,"[61, 73, 83, 95, 193, 333]",139.66666666666666,96.66206885617312,0.4513964463725,0.0276608830228974,0.9992384240454916,0.9930914933198038,-0.5665374786699762,768.0,"[3, 4, 6, 9, 11, 12, 14, 15, 16, 19, 27, 28, 29, 30, 31, 39, 113, 144, 145, 168, 180, 198, 473, 768]",103.41666666666669,173.0139485385178,0.3471958020047928,0.9976928217361148
0.0,0.6,0.6,256.0,-1.0,0.0,-0.6345087513754452,83.0,-0.5766019590118141,251.0,"[5, 7, 8, 9, 10, 12, 14, 15, 16, 20, 23, 26, 27, 30, 31, 33, 78, 83]",24.83333333333333,21.468969855739857,"[40, 63, 64, 78, 214, 251]",118.33333333333331,82.18813107066548,0.4273597323979192,0.0336953252465851,0.9992215001353912,0.9941738542195164,-0.5766019590118141,585.0,"[5, 7, 8, 9, 10, 12, 14, 15, 16, 20, 25, 28, 29, 32, 33, 35, 116, 126, 141, 149, 150, 172, 503, 585]",93.33333333333331,146.74145820304346,0.3325031149032516,0.9979487049349508
0.0,0.4,0.4,64.0,-1.0,0.0,-0.6119256590955505,107.0,-0.5866433768559541,247.0,"[1, 3, 4, 6, 8, 10, 11, 12, 13, 14, 15, 18, 19, 22, 46, 65, 96, 107]",26.11111111111111,30.717148465906515,"[60, 67, 72, 134, 202, 247]",130.33333333333334,72.02005893422255,0.5920044244839338,0.0278464665156466,0.9991566251466738,0.993565026213428,-0.5866433768559541,492.0,"[1, 3, 4, 6, 8, 10, 11, 12, 13, 14, 15, 18, 20, 24, 62, 106, 134, 146, 155, 226, 231, 261, 343, 492]",96.45833333333331,127.43102028374236,0.4498514574868498,0.9978694022906832
0.0,0.6,0.8,16.0,-1.0,0.0,-0.6690935244719302,75.0,-0.5932913481590081,189.0,"[10, 11, 14, 16, 17, 19, 21, 22, 24, 25, 27, 29, 35, 37, 50, 54, 62, 75]",30.444444444444443,17.97288767443965,"[12, 17, 29, 79, 162, 189]",81.33333333333333,70.46196767681761,0.3116054831402504,0.0696119681147054,0.9989464865962632,0.9960510739049552,-0.5932913481590081,341.0,"[10, 11, 14, 16, 17, 19, 21, 22, 24, 25, 27, 29, 35, 38, 54, 59, 73, 75, 90, 92, 111, 183, 307, 341]",70.54166666666667,86.2447965419106,0.2663959349670301,0.9985307863438732
0.0,0.6,0.8,32.0,-1.0,0.0,-0.6484607646437496,78.0,-0.5796725951817338,207.0,"[6, 8, 9, 13, 14, 15, 16, 18, 23, 28, 29, 30, 33, 34, 37, 40, 65, 78]",27.55555555555556,18.649462971780245,"[41, 58, 66, 86, 124, 207]",97.0,55.62972826346239,0.3536363531450546,0.0366912106293648,0.9990832882029064,0.9952562151192288,-0.5796725951817338,372.0,"[6, 8, 9, 13, 14, 15, 16, 18, 23, 28, 29, 30, 33, 34, 37, 40, 75, 112, 120, 138, 153, 180, 250, 372]",73.04166666666667,88.94824298745623,0.2908242391443636,0.9984636434383934
0.0,0.6,0.8,64.0,-1.0,0.0,-0.651626554456648,78.0,-0.5867740611415918,190.0,"[8, 13, 14, 15, 16, 18, 19, 20, 24, 25, 27, 28, 30, 32, 33, 41, 55, 78]",27.55555555555556,16.40535895581489,"[34, 39, 55, 61, 124, 190]",83.83333333333333,55.87312015231972,0.3355841437177908,0.0454524281731289,0.9990832882029064,0.99592423473702,-0.5867740611415918,386.0,"[8, 13, 14, 15, 16, 18, 19, 20, 24, 25, 27, 28, 30, 32, 33, 43, 60, 106, 113, 123, 142, 148, 257, 386]",70.83333333333333,88.74150976603653,0.2797749059467121,0.9985196839736756
0.0,0.6,0.8,128.0,-1.0,0.0,-0.649992346133189,78.0,-0.5774320880804136,236.0,"[10, 11, 13, 14, 15, 16, 21, 22, 25, 29, 30, 33, 34, 36, 41, 42, 62, 78]",29.55555555555556,17.55696196898105,"[27, 39, 48, 87, 193, 236]",105.0,80.5377758156589,0.314541444101406,0.0413544273963659,0.9989817447423052,0.9948503297818366,-0.5774320880804136,543.0,"[10, 11, 13, 14, 15, 16, 21, 22, 25, 29, 30, 33, 34, 36, 43, 44, 71, 103, 108, 121, 132, 186, 427, 543]",86.95833333333333,129.31791547921304,0.2605538905893316,0.998110482329256
0.0,0.6,0.8,256.0,-1.0,0.0,-0.6529704506699999,77.0,-0.5820255383015086,215.0,"[8, 9, 10, 16, 20, 21, 22, 23, 24, 26, 28, 29, 30, 33, 39, 40, 71, 77]",29.22222222222222,18.167601063295663,"[42, 58, 70, 85, 203, 215]",112.16666666666669,69.76010480369294,0.3211446688706298,0.0334576279054792,0.9989986686524056,0.9944867241670896,-0.5820255383015086,512.0,"[8, 9, 10, 16, 20, 21, 22, 23, 24, 26, 28, 29, 30, 33, 41, 42, 86, 100, 125, 145, 159, 184, 495, 512]",91.16666666666669,134.09345828770154,0.261757401237577,0.9980036881016427
0.0,0.6,1.0,16.0,-1.0,0.0,-0.6442998013681374,87.0,-0.6085731504536619,137.0,"[5, 14, 19, 20, 22, 23, 25, 27, 28, 31, 34, 35, 36, 39, 40, 50, 64, 87]",33.27777777777778,18.44452811226003,"[15, 16, 53, 55, 121, 137]",66.16666666666667,47.35826808019435,0.2829879824005519,0.067685941244398,0.9987941714053616,0.9968205648570946,-0.6085731504536619,277.0,"[5, 14, 22, 23, 25, 26, 28, 31, 32, 35, 38, 39, 40, 43, 44, 61, 68, 69, 87, 136, 139, 147, 259, 277]",70.33333333333333,70.73051361014957,0.2285209881582907,0.9985329010810536
0.0,0.6,1.0,32.0,-1.0,0.0,-0.6259528655659898,87.0,-0.5718666283189402,262.0,"[4, 5, 6, 10, 13, 14, 16, 18, 19, 21, 25, 26, 28, 33, 48, 53, 84, 87]",28.33333333333333,24.020824298928627,"[43, 67, 94, 124, 143, 262]",122.16666666666669,70.82235208996913,0.3893742689429206,0.0291908861131848,0.9990437990793392,0.9939793674953492,-0.5718666283189402,637.0,"[4, 5, 6, 10, 13, 14, 16, 18, 19, 21, 25, 26, 30, 36, 58, 74, 117, 147, 151, 172, 183, 235, 271, 637]",95.33333333333331,137.19592640535004,0.3014323800274584,0.9978979512426196
0.0,0.6,1.0,64.0,-1.0,0.0,-0.6498290141556194,78.0,-0.5813645690373632,208.0,"[8, 9, 10, 14, 16, 17, 19, 20, 21, 24, 30, 32, 35, 37, 42, 44, 52, 78]",28.22222222222222,17.373528892336164,"[61, 68, 87, 96, 127, 208]",107.83333333333331,49.5897054728992,0.3323323320678842,0.0316951442004168,0.999049440382706,0.9947065787248436,-0.5813645690373632,403.0,"[8, 9, 10, 14, 16, 17, 19, 20, 21, 24, 32, 34, 38, 40, 48, 50, 62, 117, 146, 154, 180, 190, 249, 403]",79.20833333333333,95.23916349847308,0.2627399607686857,0.9983071528870392
0.0,0.6,1.0,128.0,-1.0,0.0,-0.6444766947203974,82.0,-0.5864837917184288,200.0,"[8, 16, 17, 19, 20, 21, 22, 23, 25, 26, 31, 33, 35, 36, 40, 43, 53, 82]",30.55555555555556,16.45270063013034,"[60, 70, 85, 118, 177, 200]",118.33333333333331,53.16849526635946,0.2971937193601621,0.0287798509234202,0.9989309730120048,0.9941738542195162,-0.5864837917184288,426.0,"[8, 18, 19, 21, 22, 23, 24, 25, 27, 28, 33, 35, 37, 38, 43, 48, 62, 123, 149, 164, 185, 232, 391, 426]",90.875,113.00343376051308,0.2269335949170855,0.9980110896817744
0.0,0.6,1.0,256.0,-1.0,0.0,-0.6515443870451093,74.0,-0.5759932929585689,224.0,"[12, 15, 18, 20, 21, 22, 24, 25, 29, 31, 33, 34, 37, 40, 41, 42, 53, 74]",31.72222222222222,14.628000378101184,"[50, 65, 76, 82, 204, 224]",116.83333333333331,69.66208118880425,0.2798432135799235,0.0317198201653196,0.998871739326654,0.9942499577202772,-0.5759932929585689,551.0,"[12, 15, 20, 22, 23, 24, 26, 27, 31, 33, 35, 36, 40, 43, 44, 45, 62, 99, 135, 156, 171, 182, 492, 551]",96.83333333333331,137.68008409191054,0.2178487527210653,0.9978598859733712
0.0,0.4,0.4,128.0,-1.0,0.0,-0.6178603161437836,108.0,-0.5814922315511012,275.0,"[3, 4, 6, 7, 9, 10, 11, 12, 13, 14, 17, 18, 19, 20, 39, 58, 88, 108]",25.33333333333333,28.90213371592716,"[38, 65, 69, 78, 200, 275]",120.83333333333331,86.15377079514408,0.5271223958268014,0.0331105857021188,0.999196114270241,0.9940470150515812,-0.5814922315511012,607.0,"[3, 4, 6, 7, 9, 10, 11, 12, 13, 14, 17, 18, 19, 20, 48, 77, 106, 144, 149, 165, 167, 220, 371, 607]",92.375,139.86744096345893,0.4103982283175673,0.997973024412526
0.0,0.8,0.4,16.0,-1.0,0.0,-0.6454396247613189,118.0,-0.6035731279902917,237.0,"[6, 9, 14, 16, 20, 26, 27, 28, 30, 31, 35, 36, 39, 41, 46, 54, 105, 118]",37.833333333333336,28.827552406990392,"[47, 53, 55, 66, 143, 237]",100.16666666666669,69.30227669821213,0.26574026957948,0.0390742417690062,0.9985656986190088,0.9950955521731776,-0.6035731279902917,475.0,"[6, 9, 15, 17, 21, 33, 34, 35, 38, 39, 44, 45, 50, 53, 63, 77, 149, 152, 162, 165, 183, 186, 296, 475]",97.79166666666669,107.48216098755904,0.187931231152944,0.9978376812329764
0.0,0.8,0.4,32.0,-1.0,0.0,-0.6177313386488795,116.0,-0.5997808915985229,176.0,"[2, 5, 6, 7, 8, 9, 11, 13, 14, 15, 16, 17, 25, 28, 54, 77, 81, 116]",28.0,31.335106332816057,"[59, 63, 76, 98, 148, 176]",103.33333333333331,44.05173725922232,0.5049093663823022,0.0328099813173726,0.9990607229894396,0.9949348892271268,-0.5997808915985229,365.0,"[2, 5, 6, 7, 8, 9, 11, 13, 14, 15, 16, 17, 25, 30, 71, 122, 134, 149, 154, 180, 213, 214, 321, 365]",87.54166666666667,104.63108969400804,0.3903245851443057,0.998095679168993
0.0,0.8,0.4,64.0,-1.0,0.0,-0.6410783418673214,87.0,-0.5916665576260605,201.0,"[1, 3, 4, 5, 8, 9, 12, 13, 14, 15, 16, 18, 19, 20, 39, 51, 78, 87]",22.88888888888889,24.28508661913244,"[50, 69, 115, 136, 164, 201]",122.5,52.02803731322821,0.6058672753619108,0.0274704632701172,0.999320222944309,0.9939624556062912,-0.5916665576260605,435.0,"[1, 3, 4, 5, 8, 9, 12, 13, 14, 15, 16, 18, 19, 20, 41, 65, 110, 128, 145, 171, 247, 303, 348, 435]",89.58333333333333,122.04333815857748,0.4673536745753838,0.9980438681080716
0.0,0.8,0.4,128.0,-1.0,0.0,-0.6280986644994632,93.0,-0.5941278704404234,188.0,"[2, 3, 4, 5, 6, 7, 8, 10, 13, 14, 17, 18, 19, 20, 42, 62, 88, 93]",23.944444444444443,27.61133467380988,"[48, 62, 74, 83, 154, 188]",101.5,51.250203251629486,0.621589436599923,0.0343678559264823,0.9992666305623252,0.9950279046169458,-0.5941278704404234,388.0,"[2, 3, 4, 5, 6, 7, 8, 10, 13, 14, 17, 18, 19, 20, 49, 83, 132, 145, 152, 160, 179, 193, 296, 388]",80.125,102.43994683878616,0.4816399195522133,0.998283890778054
0.0,0.8,0.4,256.0,-1.0,0.0,-0.6182119923110999,108.0,-0.5909258747900573,210.0,"[1, 2, 3, 4, 5, 8, 9, 11, 13, 14, 15, 17, 18, 20, 51, 69, 94, 108]",25.666666666666668,31.559467676119,"[49, 67, 73, 74, 173, 210]",107.66666666666669,60.78833952512786,0.6887000697592743,0.0338136694457417,0.9991791903601408,0.9947150346693726,-0.5909258747900573,525.0,"[1, 2, 3, 4, 5, 8, 9, 11, 13, 14, 15, 17, 18, 20, 65, 100, 131, 160, 162, 169, 170, 202, 327, 525]",89.625,124.69790578968572,0.5308433403818856,0.9980428107394812
0.0,0.8,0.6,16.0,-1.0,0.0,-0.6549291184711087,114.0,-0.5823671376539662,368.0,"[5, 12, 13, 18, 20, 21, 22, 23, 24, 25, 27, 28, 34, 38, 50, 83, 104, 114]",36.72222222222222,30.511938566104387,"[21, 70, 86, 100, 339, 368]",164.0,136.44657073985653,0.2957172139215541,0.0303546345806114,0.9986249323043596,0.9918569254185692,-0.5823671376539662,1058.0,"[5, 14, 15, 20, 22, 23, 24, 25, 26, 27, 29, 30, 36, 42, 55, 99, 112, 136, 156, 196, 215, 236, 977, 1058]",149.08333333333334,270.6687576889673,0.2221579571596835,0.9965365891826964
0.0,0.8,0.6,32.0,-1.0,0.0,-0.6421120871604385,99.0,-0.5820724339464239,315.0,"[3, 5, 7, 9, 10, 11, 13, 14, 15, 19, 20, 25, 27, 28, 38, 67, 81, 99]",27.27777777777778,26.64124946093006,"[67, 75, 95, 123, 284, 315]",159.83333333333334,100.72142550398874,0.4418500054723906,0.0237240942038506,0.9990988017871648,0.9920683240317943,-0.5820724339464239,788.0,"[3, 5, 9, 11, 12, 13, 15, 16, 17, 21, 22, 27, 29, 30, 43, 89, 121, 159, 170, 207, 245, 283, 745, 788]",128.33333333333334,208.86312636642103,0.3077107045873219,0.9970610440034512
0.0,0.8,0.6,64.0,-1.0,0.0,-0.6516319568313966,78.0,-0.5700303112073692,357.0,"[4, 5, 6, 8, 10, 12, 13, 15, 20, 21, 23, 24, 25, 26, 34, 40, 69, 78]",24.05555555555556,20.01519484520093,"[56, 65, 67, 135, 218, 357]",149.66666666666666,108.5106241598285,0.4446127927202096,0.0271291041940962,0.9992609892589585,0.9925841366480636,-0.5700303112073692,919.0,"[4, 5, 6, 8, 10, 12, 13, 17, 22, 23, 25, 26, 27, 28, 36, 43, 89, 117, 153, 163, 168, 302, 568, 919]",116.0,208.4738192995306,0.3346207787481011,0.9973734964218648
0.0,0.8,0.6,128.0,-1.0,0.0,-0.6514473914807258,81.0,-0.5897123602882237,225.0,"[4, 5, 7, 8, 9, 10, 11, 12, 13, 16, 19, 21, 23, 31, 34, 35, 76, 81]",23.05555555555556,21.68837943390736,"[50, 52, 81, 107, 150, 225]",110.83333333333331,61.42045442865286,0.4925498319069104,0.0321469588447781,0.9993117609892588,0.9945543717233214,-0.5897123602882237,545.0,"[4, 5, 7, 8, 9, 10, 11, 12, 13, 16, 19, 21, 23, 33, 36, 38, 110, 117, 137, 140, 179, 245, 314, 545]",85.5,126.25767303415662,0.3852647656147982,0.9981474902299144
0.0,0.8,0.6,256.0,-1.0,0.0,-0.6470569573954799,83.0,-0.5846849400856164,229.0,"[3, 4, 5, 6, 7, 8, 10, 14, 16, 19, 20, 21, 32, 33, 34, 38, 80, 83]",24.05555555555556,23.020455208893924,"[51, 61, 66, 104, 171, 229]",113.66666666666669,65.39028130302614,0.5093359801614259,0.0319585752905928,0.9992609892589585,0.9944106206663283,-0.5846849400856164,555.0,"[3, 4, 5, 6, 7, 8, 10, 14, 16, 19, 20, 21, 35, 36, 37, 41, 110, 117, 145, 157, 163, 242, 368, 555]",89.125,131.8032980429549,0.3955927804558776,0.998055499162564
0.0,0.4,0.4,256.0,-1.0,0.0,-0.6171974673575042,99.0,-0.5897645042891813,225.0,"[3, 4, 5, 8, 9, 10, 11, 13, 14, 15, 16, 17, 21, 22, 51, 57, 86, 99]",25.61111111111111,27.604627005246154,"[49, 50, 54, 75, 175, 225]",104.66666666666669,69.4758151365559,0.5140703644656113,0.0374225245653817,0.999182011011824,0.9948672416708946,-0.5897645042891813,474.0,"[3, 4, 5, 8, 9, 10, 11, 13, 14, 15, 16, 17, 22, 23, 63, 78, 123, 124, 129, 157, 176, 203, 308, 474]",83.54166666666667,113.4011975122936,0.3998925133626922,0.9981971865536552
0.0,0.8,0.8,16.0,-1.0,0.0,-0.6548547002778587,88.0,-0.5970035983755648,237.0,"[1, 6, 7, 8, 10, 15, 16, 17, 19, 21, 22, 27, 29, 42, 49, 58, 64, 88]",27.72222222222222,22.8662914341311,"[9, 22, 36, 37, 175, 237]",86.0,87.2238499494261,0.4385174661939485,0.0745582546215457,0.999088929506273,0.995814307458143,-0.5970035983755648,513.0,"[1, 6, 7, 8, 10, 17, 18, 19, 21, 23, 24, 29, 32, 46, 56, 66, 70, 75, 95, 115, 118, 128, 395, 513]",78.83333333333333,120.30643743744092,0.3453336667233704,0.9983235421001878
0.0,0.8,0.8,32.0,-1.0,0.0,-0.6566996511867718,75.0,-0.5688224830479152,370.0,"[1, 2, 3, 9, 11, 12, 15, 16, 17, 20, 21, 22, 23, 26, 32, 43, 67, 75]",23.05555555555556,19.831154564422736,"[42, 52, 55, 64, 178, 370]",126.83333333333331,118.07683468356056,0.5501436497739889,0.0372704367788637,0.9993174022926256,0.9937426010485372,-0.5688224830479152,906.0,"[1, 2, 3, 9, 11, 12, 15, 16, 17, 20, 21, 22, 23, 26, 34, 45, 85, 105, 127, 142, 145, 156, 441, 906]",99.33333333333331,192.0559091051932,0.4329633660445392,0.997798558595138
0.0,0.8,0.8,64.0,-1.0,0.0,-0.6799843731127501,56.0,-0.5882769627400349,204.0,"[6, 8, 10, 11, 12, 13, 16, 17, 20, 23, 25, 28, 30, 33, 36, 40, 54, 56]",24.33333333333333,14.522013940527977,"[51, 58, 75, 80, 164, 204]",105.33333333333331,57.63582990544067,0.3850242356419537,0.0339983618903126,0.9992468860005416,0.9948334178927788,-0.5882769627400349,485.0,"[6, 8, 10, 11, 12, 13, 16, 17, 20, 23, 25, 28, 30, 33, 38, 42, 59, 62, 137, 146, 172, 180, 359, 485]",80.5,116.67047612828192,0.3110505271772159,0.998274374460742
0.0,0.8,0.8,128.0,-1.0,0.0,-0.6752763594433133,60.0,-0.6024798497084632,164.0,"[8, 9, 10, 11, 12, 13, 18, 21, 22, 24, 26, 30, 31, 34, 38, 41, 59, 60]",25.944444444444443,15.432549376137228,"[36, 62, 72, 75, 159, 164]",94.66666666666669,48.91375630183757,0.3617764091720077,0.0371779581713447,0.999165087101724,0.995374598342635,-0.6024798497084632,350.0,"[8, 9, 10, 11, 12, 13, 18, 21, 22, 24, 26, 30, 31, 34, 41, 44, 72, 73, 113, 155, 170, 173, 340, 350]",75.0,95.5357699154266,0.2931302034701527,0.9984139471146526
0.0,0.8,0.8,256.0,-1.0,0.0,-0.6749220376008466,55.0,-0.5956763442896312,176.0,"[8, 9, 11, 12, 14, 18, 22, 23, 25, 29, 31, 34, 35, 38, 41, 42, 50, 55]",27.61111111111111,13.82887031976899,"[56, 68, 76, 84, 175, 176]",105.83333333333331,49.981385423864445,0.3264612659485615,0.0328373295091561,0.999080467551223,0.9948080500591916,-0.5956763442896312,413.0,"[8, 9, 11, 12, 14, 18, 24, 25, 27, 31, 33, 36, 37, 40, 43, 44, 55, 63, 146, 165, 176, 185, 410, 413]",84.375,112.0836043986809,0.2579346499605705,0.9981760391818504
0.0,0.8,1.0,16.0,-1.0,0.0,-0.663126962013015,79.0,-0.5953991135687076,245.0,"[10, 13, 22, 23, 28, 31, 33, 34, 35, 36, 37, 38, 39, 40, 41, 42, 74, 79]",36.388888888888886,16.75688544678107,"[37, 41, 101, 108, 131, 245]",110.5,69.32952713911536,0.2516203516890855,0.0342008761692728,0.9986418562144598,0.9945712836123796,-0.5953991135687076,599.0,"[12, 15, 24, 25, 30, 33, 35, 36, 37, 38, 39, 41, 42, 43, 44, 45, 110, 112, 118, 122, 218, 229, 381, 599]",101.16666666666669,134.0732594102526,0.1968276591740351,0.9977552064829384
0.0,0.8,1.0,32.0,-1.0,0.0,-0.6352138284824949,98.0,-0.5899149800704927,212.0,"[14, 15, 17, 18, 19, 21, 23, 26, 27, 29, 32, 34, 36, 38, 39, 41, 69, 98]",33.111111111111114,20.22619008691698,"[50, 56, 75, 87, 146, 212]",104.33333333333331,57.41273571449302,0.2818700476244271,0.0340399598905762,0.99880122303457,0.9948841535599526,-0.5899149800704927,624.0,"[16, 17, 19, 20, 21, 23, 25, 28, 29, 31, 34, 36, 38, 40, 41, 45, 107, 124, 139, 170, 182, 189, 406, 624]",100.16666666666669,140.23660561905922,0.2163041499017846,0.9977752964861528
0.0,0.8,1.0,64.0,-1.0,0.0,-0.6638252183301911,70.0,-0.5988101598361971,166.0,"[8, 10, 13, 14, 15, 16, 17, 21, 23, 24, 26, 28, 32, 35, 36, 39, 61, 70]",27.11111111111111,16.264784347680212,"[44, 48, 76, 92, 157, 166]",97.16666666666669,48.368090950772725,0.3428420978582659,0.0358895994242076,0.9991058534163734,0.9952477591747,-0.5988101598361971,423.0,"[8, 10, 15, 16, 17, 18, 19, 23, 25, 26, 28, 30, 34, 37, 39, 42, 75, 97, 127, 132, 171, 192, 413, 423]",84.04166666666667,112.84594187307854,0.2602351196853331,0.9981844981305724
0.0,0.8,1.0,128.0,-1.0,0.0,-0.6684992412026035,59.0,-0.5955178600436276,173.0,"[5, 8, 9, 14, 15, 16, 17, 19, 20, 24, 32, 36, 37, 38, 40, 42, 53, 59]",26.88888888888889,15.358272793835788,"[63, 71, 85, 92, 162, 173]",107.66666666666669,43.43449729829454,0.3475284743067449,0.0313934478216444,0.9991171360231068,0.9947150346693724,-0.5955178600436276,460.0,"[5, 8, 9, 14, 15, 16, 17, 19, 20, 26, 34, 38, 40, 41, 45, 47, 66, 78, 154, 163, 181, 189, 422, 460]",87.79166666666667,120.1738252028656,0.27074484735729,0.9980893349574514
0.0,0.8,1.0,256.0,-1.0,0.0,-0.668542056468308,59.0,-0.5899434375145394,186.0,"[7, 11, 14, 15, 17, 18, 21, 22, 24, 27, 32, 36, 37, 38, 39, 42, 53, 59]",28.444444444444443,14.099732945549093,"[63, 70, 80, 90, 184, 186]",112.16666666666669,52.17412087317705,0.3146489843882112,0.0309701444080826,0.9990381577759726,0.9944867241670896,-0.5899434375145394,432.0,"[7, 13, 16, 17, 19, 20, 23, 24, 26, 29, 34, 38, 39, 40, 42, 46, 64, 73, 156, 164, 175, 189, 430, 432]",88.16666666666667,116.4963041855358,0.2391804808988906,0.9980798186401394
0.0,0.4,0.6,16.0,-1.0,0.0,-0.6783505381732846,56.0,-0.6093116037736386,215.0,"[2, 4, 5, 6, 9, 10, 12, 13, 15, 17, 20, 22, 23, 28, 29, 35, 36, 56]",19.0,13.511312133007497,"[57, 92, 125, 146, 154, 215]",131.5,49.73513178160216,0.5444204586486387,0.0251757932615994,0.999520489213828,0.993505834601725,-0.6093116037736386,420.0,"[2, 4, 5, 6, 9, 10, 12, 13, 15, 18, 22, 25, 27, 33, 34, 54, 55, 93, 124, 179, 284, 316, 327, 420]",86.95833333333333,120.68777871249247,0.3958212916594036,0.9981115396978464
0.0,1.0,0.4,16.0,-1.0,0.0,-0.6254985824258782,147.0,-0.5843375541634619,347.0,"[1, 2, 6, 11, 12, 13, 15, 18, 19, 20, 22, 23, 28, 35, 45, 52, 66, 147]",29.72222222222222,32.99798908949782,"[19, 29, 87, 98, 216, 347]",132.66666666666666,115.35259954687724,0.4767648309056177,0.039555899295103,0.9989746931130968,0.9934593269068156,-0.5843375541634619,702.0,"[1, 2, 6, 14, 15, 18, 23, 27, 28, 29, 31, 32, 37, 46, 58, 68, 74, 90, 110, 212, 226, 278, 494, 702]",109.20833333333331,166.67232802884692,0.3163289433453462,0.9975479622392528
0.0,1.0,0.4,32.0,-1.0,0.0,-0.6318099049701152,163.0,-0.6082447905649538,203.0,"[5, 8, 9, 10, 11, 13, 14, 15, 16, 17, 24, 26, 27, 30, 42, 50, 135, 163]",34.166666666666664,42.46076620442296,"[25, 37, 69, 70, 202, 203]",101.0,73.55496810775824,0.3925002250449843,0.0414973829267177,0.998747630652586,0.9950532724505328,-0.6082447905649538,421.0,"[7, 10, 11, 12, 15, 19, 20, 21, 22, 23, 31, 33, 34, 37, 54, 66, 79, 107, 201, 206, 208, 281, 420, 421]",97.41666666666669,123.0402768292652,0.2515969235880702,0.997845082813108
0.0,1.0,0.4,64.0,-1.0,0.0,-0.6474704559289806,117.0,-0.6097122019409831,197.0,"[4, 5, 9, 10, 11, 15, 16, 18, 19, 20, 22, 24, 25, 28, 43, 60, 81, 117]",29.27777777777778,28.52641184655908,"[51, 89, 103, 108, 196, 197]",124.0,54.41200847852123,0.3940407786596984,0.0273683434587325,0.998995848000722,0.99388635210553,-0.6097122019409831,442.0,"[6, 7, 11, 12, 13, 17, 18, 20, 21, 22, 24, 26, 28, 34, 51, 75, 125, 138, 174, 213, 260, 268, 441, 442]",101.91666666666669,129.77060423001126,0.2712589835850502,0.9977308870053628
0.0,1.0,0.4,128.0,-1.0,0.0,-0.6243368139944117,165.0,-0.5933054729687532,228.0,"[1, 2, 3, 4, 10, 11, 13, 16, 17, 18, 19, 20, 26, 27, 55, 66, 117, 165]",32.77777777777778,42.43368100872958,"[37, 83, 91, 96, 200, 228]",122.5,67.94789670524517,0.5631050478143702,0.0295121502794299,0.99881814694467,0.9939624556062912,-0.5933054729687532,501.0,"[1, 2, 3, 4, 12, 13, 15, 18, 19, 20, 21, 22, 30, 31, 72, 93, 118, 168, 210, 224, 232, 269, 445, 501]",105.95833333333331,138.51217731264242,0.4083521196307634,0.9976283222521104
0.0,1.0,0.4,256.0,-1.0,0.0,-0.6359073358283999,96.0,-0.5887903144198737,235.0,"[1, 2, 6, 7, 8, 12, 14, 15, 16, 17, 22, 24, 26, 27, 47, 64, 86, 96]",27.22222222222222,27.18977658270262,"[53, 65, 67, 73, 189, 235]",113.66666666666669,71.03676669318658,0.519629948454052,0.0335324560995177,0.9991002121130066,0.9944106206663283,-0.5887903144198737,571.0,"[1, 2, 6, 7, 8, 12, 14, 15, 16, 17, 24, 27, 29, 30, 59, 83, 128, 142, 153, 165, 167, 176, 424, 571]",94.83333333333331,137.03760635517375,0.3957174741104111,0.9979106396657024
0.0,1.0,0.6,16.0,-1.0,0.0,-0.6462447874515802,95.0,-0.5962411521807822,226.0,"[5, 6, 7, 12, 16, 17, 20, 21, 23, 24, 25, 28, 31, 32, 39, 48, 50, 95]",27.72222222222222,20.62308726633968,"[62, 72, 90, 102, 200, 226]",125.33333333333331,63.714641610508615,0.3653018168363219,0.0280007503683428,0.9990776468995396,0.9938229325215626,-0.5962411521807822,535.0,"[7, 8, 9, 14, 18, 19, 22, 23, 25, 26, 27, 30, 33, 37, 48, 62, 66, 151, 160, 175, 227, 244, 470, 535]",101.5,139.63374711484803,0.2563548499484376,0.9977435754284458
0.0,1.0,0.6,32.0,-1.0,0.0,-0.6720326103713342,69.0,-0.6027688160269483,222.0,"[7, 9, 12, 14, 15, 16, 20, 21, 22, 23, 26, 28, 30, 39, 47, 49, 57, 69]",28.0,16.986923074987875,"[36, 77, 78, 118, 143, 222]",112.33333333333331,59.51657098844172,0.3395680878798652,0.0313506182150249,0.9990649539669644,0.9944782682225604,-0.6027688160269483,541.0,"[9, 11, 14, 16, 17, 18, 22, 23, 24, 25, 29, 31, 33, 45, 58, 61, 77, 92, 115, 213, 215, 272, 301, 541]",94.25,125.626181586483,0.2445874052010465,0.9979270288788508
0.0,1.0,0.6,64.0,-1.0,0.0,-0.6874977676430923,55.0,-0.5997715117250059,209.0,"[2, 9, 10, 11, 16, 18, 20, 21, 24, 25, 26, 27, 29, 32, 35, 39, 49, 55]",24.88888888888889,13.374473567579267,"[49, 50, 77, 105, 129, 209]",103.16666666666669,55.25219955400468,0.3793878261858557,0.0341553773692259,0.999218679483708,0.9949433451716556,-0.5997715117250059,473.0,"[2, 9, 10, 11, 18, 20, 22, 23, 26, 27, 28, 29, 32, 36, 41, 45, 58, 66, 142, 144, 184, 247, 287, 473]",82.5,111.30513614983512,0.2860910157011611,0.9982236207684108
0.0,1.0,0.6,128.0,-1.0,0.0,-0.6615967000349063,79.0,-0.5899984294774676,238.0,"[3, 8, 10, 11, 15, 17, 18, 19, 20, 22, 25, 27, 28, 29, 32, 51, 66, 79]",26.666666666666668,19.405039437103845,"[44, 56, 74, 96, 164, 238]",112.0,68.36178269569433,0.3748399616802434,0.0327244424267379,0.9991284186298404,0.9944951801116184,-0.5899984294774676,519.0,"[3, 8, 10, 11, 17, 19, 20, 21, 22, 24, 27, 29, 30, 31, 35, 62, 80, 100, 141, 158, 208, 235, 392, 519]",91.75,127.81342196081496,0.2816540967400414,0.9979888849413796
0.0,1.0,0.6,256.0,-1.0,0.0,-0.6598062994102267,76.0,-0.5867497813242055,238.0,"[7, 8, 9, 15, 16, 19, 20, 21, 24, 26, 28, 29, 30, 32, 36, 39, 61, 76]",27.55555555555556,17.198908951901643,"[55, 63, 88, 91, 174, 238]",118.16666666666669,66.02882367235961,0.340647314918015,0.030320086532054,0.9990832882029064,0.9941823101640452,-0.5867497813242055,575.0,"[7, 8, 9, 17, 18, 21, 22, 23, 26, 28, 30, 31, 32, 34, 40, 44, 76, 96, 154, 163, 198, 201, 374, 575]",92.79166666666669,132.29291337995227,0.2575294081486077,0.9979624507266236
0.0,0.4,0.6,32.0,-1.0,0.0,-0.6519054653717897,69.0,-0.5859643071284245,254.0,"[1, 2, 3, 4, 6, 8, 9, 10, 13, 14, 15, 16, 20, 24, 27, 41, 64, 69]",19.22222222222222,19.363641632811497,"[101, 109, 171, 190, 219, 254]",174.0,55.142240312365495,0.7087036226435086,0.018883200442116,0.9995063859554112,0.991349568746829,-0.5859643071284245,522.0,"[1, 2, 3, 4, 6, 8, 9, 10, 13, 14, 15, 16, 20, 24, 28, 45, 102, 120, 191, 201, 363, 389, 441, 522]",106.125,156.30933873252744,0.5376593473232645,0.9976240927777495
0.0,1.0,0.8,16.0,-1.0,0.0,-0.6874205037824048,61.0,-0.557428164502878,496.0,"[11, 12, 16, 21, 29, 30, 34, 35, 36, 40, 42, 43, 44, 49, 50, 53, 54, 61]",36.66666666666666,14.29063407348401,"[87, 95, 100, 107, 256, 496]",190.16666666666663,148.66900222380664,0.2412162597862005,0.021926347702692,0.998631983933568,0.9905293421275156,-0.557428164502878,1232.0,"[11, 12, 17, 23, 33, 35, 39, 40, 41, 47, 50, 51, 52, 57, 59, 62, 63, 71, 219, 227, 233, 245, 551, 1232]",144.58333333333334,255.87446737718,0.1751995502646164,0.9966523710433268
0.0,1.0,0.8,32.0,-1.0,0.0,-0.6885752634603716,58.0,-0.5967223969007012,247.0,"[8, 17, 18, 22, 30, 31, 32, 33, 34, 35, 40, 41, 43, 46, 51, 52, 54, 58]",35.833333333333336,13.405015645065262,"[63, 68, 110, 120, 232, 247]",140.0,73.4007266085743,0.2424592946126119,0.0252890105497663,0.9986630111020852,0.9930745814307458,-0.5967223969007012,652.0,"[8, 19, 20, 27, 35, 36, 37, 38, 39, 40, 47, 48, 50, 53, 59, 60, 62, 70, 183, 189, 253, 288, 573, 652]",120.25,165.6062725261335,0.1760350510054779,0.9972656448256608
0.0,1.0,0.8,64.0,-1.0,0.0,-0.6758154841686411,68.0,-0.5924542880372199,225.0,"[10, 11, 13, 16, 19, 21, 23, 24, 25, 26, 29, 30, 34, 36, 39, 43, 46, 68]",28.5,14.0168549333373,"[71, 85, 131, 137, 157, 225]",134.33333333333334,50.32781426695272,0.3130715455323669,0.0247042604803895,0.9990353371242892,0.993362083544732,-0.5924542880372199,510.0,"[12, 13, 15, 18, 22, 26, 28, 29, 30, 31, 34, 35, 39, 41, 45, 49, 54, 83, 172, 187, 304, 315, 349, 510]",101.70833333333331,131.52106268790394,0.2194964384127023,0.997736173848314
0.0,1.0,0.8,128.0,-1.0,0.0,-0.6718269895287876,62.0,-0.5865637841546869,244.0,"[7, 9, 11, 13, 16, 18, 20, 21, 22, 23, 26, 28, 32, 35, 36, 44, 56, 62]",26.61111111111111,14.959719578807055,"[64, 71, 92, 113, 171, 244]",125.83333333333331,63.43347346279846,0.3443474204855107,0.027605144973579,0.9991312392815236,0.9937933367157112,-0.5865637841546869,591.0,"[7, 11, 13, 15, 18, 20, 22, 23, 24, 25, 28, 30, 35, 40, 41, 51, 69, 76, 187, 196, 223, 260, 421, 591]",101.08333333333331,143.59053957540362,0.2498188555642401,0.9977520343771676
0.0,1.0,0.8,256.0,-1.0,0.0,-0.6613385961773461,79.0,-0.5858223767378443,231.0,"[7, 10, 13, 14, 18, 19, 21, 23, 24, 26, 27, 32, 35, 38, 41, 42, 51, 79]",28.88888888888889,16.84533858664662,"[67, 87, 94, 103, 188, 231]",128.33333333333334,59.70948184519961,0.3179959567368648,0.0268722491016106,0.9990155925625056,0.993666497547776,-0.5858223767378443,579.0,"[9, 12, 15, 16, 20, 21, 23, 25, 26, 28, 29, 34, 37, 40, 46, 49, 64, 97, 167, 214, 224, 238, 452, 579]",102.70833333333331,143.472261885549,0.2339292563066841,0.9977107970021486
0.0,1.0,1.0,16.0,-1.0,0.0,-0.6966432215150622,45.0,-0.5608346359739146,410.0,"[5, 7, 11, 13, 14, 15, 16, 18, 19, 21, 23, 26, 32, 33, 38, 39, 43, 45]",23.22222222222222,12.057987465924612,"[47, 134, 146, 179, 247, 410]",193.8333333333333,113.43341169553568,0.4004514847135649,0.0189955573534654,0.9993188126184672,0.9903433113478776,-0.5608346359739146,1111.0,"[7, 9, 13, 15, 16, 17, 18, 20, 21, 24, 26, 29, 36, 37, 43, 44, 48, 51, 133, 345, 365, 415, 651, 1111]",145.58333333333334,258.7872222287818,0.279120233782809,0.9966301663029318
0.0,1.0,1.0,32.0,-1.0,0.0,-0.6896661311270427,55.0,-0.5963532734266065,213.0,"[12, 15, 16, 17, 18, 20, 22, 24, 25, 26, 30, 33, 34, 36, 41, 43, 50, 55]",28.72222222222222,12.123464647605006,"[59, 74, 102, 149, 200, 213]",132.83333333333334,59.24923815731492,0.3066740759808642,0.0255670993239469,0.9990254648433974,0.993438187045493,-0.5963532734266065,549.0,"[14, 17, 18, 19, 20, 22, 24, 26, 27, 28, 35, 39, 40, 42, 51, 53, 65, 71, 182, 202, 236, 302, 530, 549]",108.83333333333331,150.61835508625398,0.2176064477147795,0.9975558925036796
0.0,1.0,1.0,64.0,-1.0,0.0,-0.6639781912971117,86.0,-0.5893323209523391,228.0,"[7, 8, 10, 12, 13, 16, 19, 20, 21, 23, 27, 28, 32, 35, 47, 53, 73, 86]",29.444444444444443,21.61846490136055,"[58, 73, 118, 128, 165, 228]",128.33333333333334,56.85263601823773,0.3401680307342534,0.0263218646957652,0.998987386045672,0.993666497547776,-0.5893323209523391,503.0,"[9, 10, 12, 14, 15, 18, 21, 22, 23, 25, 30, 32, 41, 44, 59, 68, 92, 121, 157, 176, 259, 271, 361, 503]",99.29166666666669,126.287528800573,0.2379210459492438,0.9977975012265476
0.0,1.0,1.0,128.0,-1.0,0.0,-0.6809273850211078,60.0,-0.5864359363702308,223.0,"[8, 9, 13, 15, 16, 22, 23, 24, 26, 29, 30, 34, 37, 41, 42, 48, 52, 60]",29.38888888888889,14.591241242185475,"[42, 69, 91, 97, 181, 223]",117.16666666666669,63.68782370978686,0.3049094367049136,0.0302548860689455,0.9989902066973552,0.9942330458312194,-0.5864359363702308,507.0,"[10, 11, 15, 17, 18, 24, 25, 26, 28, 31, 32, 36, 43, 48, 49, 59, 63, 75, 135, 168, 219, 226, 440, 507]",96.04166666666669,129.32339282030748,0.2244771354703844,0.9978799759765856
0.0,1.0,1.0,256.0,-1.0,0.0,-0.6786482257637192,59.0,-0.584490160521166,219.0,"[9, 10, 14, 16, 19, 20, 23, 27, 29, 30, 33, 37, 40, 42, 47, 48, 50, 59]",30.72222222222222,14.375154320159316,"[67, 77, 89, 98, 171, 219]",120.16666666666669,55.53502398386885,0.2886908338718728,0.0286767695272249,0.9989225110569544,0.9940808388296972,-0.584490160521166,564.0,"[11, 12, 16, 18, 21, 22, 25, 29, 31, 33, 36, 42, 46, 48, 56, 57, 61, 71, 165, 176, 217, 254, 404, 564]",100.625,134.7871199645327,0.2118878885653029,0.9977636654316602
0.0,0.4,0.6,64.0,-1.0,0.0,-0.6767730479462126,54.0,-0.5961541378620148,203.0,"[1, 3, 6, 7, 8, 9, 10, 11, 12, 13, 17, 21, 22, 23, 36, 39, 45, 54]",18.72222222222222,14.842901616431394,"[71, 80, 134, 148, 186, 203]",137.0,49.14604087140015,0.6073550959633653,0.0241563274078643,0.9995317718205614,0.993226788432268,-0.5961541378620148,413.0,"[1, 3, 6, 7, 8, 9, 10, 11, 12, 13, 17, 21, 22, 24, 38, 41, 49, 60, 155, 165, 241, 325, 385, 413]",84.83333333333333,124.6193091869082,0.4715578493305058,0.998164408127358
0.0,0.4,0.6,128.0,-1.0,0.0,-0.679227240590979,54.0,-0.5959442208863873,205.0,"[2, 4, 5, 6, 8, 12, 13, 14, 15, 16, 18, 19, 25, 26, 27, 28, 42, 54]",18.55555555555556,13.158107860522188,"[46, 85, 93, 109, 192, 205]",121.66666666666669,57.65317761311071,0.5495993188098451,0.0282556356286055,0.9995402337756116,0.9940047353289364,-0.5959442208863873,470.0,"[2, 4, 5, 6, 8, 12, 13, 14, 15, 16, 18, 19, 25, 26, 27, 28, 44, 59, 127, 177, 186, 205, 395, 470]",79.20833333333333,122.55610251590448,0.4349272295403787,0.9983071528870392
0.0,0.4,0.6,256.0,-1.0,0.0,-0.6596600636318434,66.0,-0.5972851311387374,204.0,"[4, 5, 7, 8, 9, 10, 11, 16, 18, 20, 21, 24, 25, 27, 31, 32, 61, 66]",21.944444444444443,16.99827514851702,"[71, 81, 92, 93, 178, 204]",119.83333333333331,51.40498246495394,0.4704503015487797,0.0286494942922704,0.9993681740229264,0.9940977507187554,-0.5972851311387374,436.0,"[4, 5, 7, 8, 9, 10, 11, 16, 18, 20, 21, 24, 25, 27, 31, 33, 69, 85, 156, 169, 181, 182, 374, 436]",80.04166666666667,114.1703694655005,0.3730525882515108,0.9982860055152344
0.0,0.4,0.4,16.0,-1.0,1.0,-0.6498099560305513,86.0,-0.6168005559459467,190.0,"[4, 6, 7, 11, 12, 14, 15, 16, 17, 19, 20, 25, 26, 29, 61, 64, 71, 86]",27.944444444444443,24.07504983777517,"[47, 66, 116, 143, 160, 190]",120.33333333333331,50.47991899975892,0.411500108640256,0.0280404450589462,0.9990705952703312,0.9940723828851684,-0.6168005559459467,386.0,"[4, 7, 8, 13, 14, 16, 17, 18, 19, 22, 23, 30, 31, 35, 93, 106, 113, 121, 140, 179, 219, 257, 340, 386]",92.125,107.9499546472037,0.2833818257991535,0.9979846554670184
0.0,0.4,0.8,16.0,-1.0,1.0,-0.6504374332320738,85.0,-0.6030465177896969,191.0,"[1, 3, 4, 5, 6, 7, 9, 10, 11, 12, 13, 16, 19, 23, 31, 45, 77, 85]",20.944444444444443,23.73574946086885,"[82, 95, 102, 132, 151, 191]",125.5,37.3217988133834,0.6906841525492714,0.0262481239809969,0.999423176730752,0.9938102486047692,-0.6030465177896969,367.0,"[1, 3, 4, 5, 6, 7, 9, 10, 11, 13, 14, 18, 23, 28, 41, 62, 133, 146, 176, 200, 232, 273, 302, 367]",86.83333333333333,110.15733697257252,0.5050173895342841,0.9981168265407976
0.0,0.4,0.8,32.0,-1.0,1.0,-0.6673503663601679,66.0,-0.6075293314193527,165.0,"[1, 2, 3, 4, 5, 7, 10, 12, 13, 14, 16, 18, 19, 22, 34, 60, 62, 66]",20.444444444444443,20.5080532209564,"[86, 88, 105, 112, 136, 165]",115.33333333333331,27.746871695542342,0.6977726510065719,0.0286282060392867,0.9994443316183772,0.9943260612210384,-0.6075293314193527,328.0,"[1, 2, 3, 4, 5, 8, 11, 13, 14, 15, 17, 20, 21, 24, 39, 77, 81, 89, 204, 206, 234, 242, 280, 328]",80.75,102.3332994028174,0.5121430861190303,0.9982680302492006
0.0,0.4,0.8,64.0,-1.0,1.0,-0.6477614104207982,80.0,-0.6153954271645884,121.0,"[1, 2, 3, 5, 7, 9, 10, 12, 13, 14, 16, 17, 21, 22, 48, 50, 69, 80]",22.166666666666668,22.81386030951847,"[68, 74, 76, 97, 105, 121]",90.16666666666669,19.02118701752221,0.6503823818977272,0.0366082552451846,0.9993568914161928,0.995602908844918,-0.6153954271645884,262.0,"[1, 2, 3, 5, 7, 9, 10, 12, 13, 14, 16, 18, 22, 23, 54, 56, 92, 122, 155, 165, 168, 193, 214, 262]",68.16666666666667,79.42851433137152,0.5035692338493601,0.9985873555634506
0.0,0.4,0.8,128.0,-1.0,1.0,-0.6523471729029261,71.0,-0.6010521966257549,167.0,"[4, 5, 7, 11, 12, 14, 16, 17, 18, 19, 20, 24, 26, 27, 33, 36, 69, 71]",23.83333333333333,18.44586674569672,"[88, 90, 92, 110, 139, 167]",114.33333333333331,29.39765674713245,0.4271809037820484,0.029076259555971,0.999272271865692,0.9943767968882125,-0.6010521966257549,326.0,"[4, 5, 7, 11, 12, 14, 16, 17, 18, 20, 21, 25, 27, 29, 37, 40, 87, 101, 184, 186, 189, 211, 281, 326]",77.83333333333333,94.36925111261375,0.3301768210712023,0.9983420460505168
0.0,0.4,0.8,256.0,-1.0,1.0,-0.6581673239523432,67.0,-0.5906553764900546,188.0,"[5, 6, 7, 11, 12, 17, 18, 19, 20, 21, 22, 24, 26, 28, 30, 35, 61, 67]",23.83333333333333,16.36476567371362,"[69, 78, 86, 95, 165, 188]",113.5,45.71925196238451,0.4075427257493124,0.0298901145453988,0.999272271865692,0.9944190766108574,-0.5906553764900546,362.0,"[5, 6, 7, 11, 12, 17, 18, 19, 20, 21, 22, 25, 27, 29, 32, 39, 72, 78, 161, 170, 178, 191, 300, 362]",75.91666666666667,96.69363847855875,0.3222163785083187,0.9983906850056674
0.0,0.4,1.0,16.0,-1.0,1.0,-0.5969757028052762,212.0,-0.5892650645849001,245.0,"[10, 11, 13, 14, 15, 17, 18, 20, 21, 22, 23, 28, 33, 36, 52, 69, 112, 212]",40.333333333333336,48.37239800639295,"[86, 102, 107, 108, 174, 245]",137.0,55.67764362830022,0.3203342663838449,0.0249225997384802,0.998445820922466,0.993226788432268,-0.5892650645849001,472.0,"[11, 12, 14, 15, 16, 18, 19, 23, 24, 25, 26, 34, 41, 45, 70, 110, 167, 187, 193, 194, 264, 318, 415, 472]",113.04166666666669,132.72543060979518,0.22696992669221,0.9974533277504272
0.0,0.4,1.0,32.0,-1.0,1.0,-0.6529718971872088,76.0,-0.5767431223730788,284.0,"[2, 6, 8, 12, 15, 17, 18, 19, 20, 24, 25, 27, 33, 34, 53, 56, 67, 76]",28.444444444444443,20.64036558198581,"[78, 80, 81, 87, 130, 284]",123.33333333333331,74.05328411953712,0.3696669172253798,0.0300704767294535,0.9990381577759726,0.9939201758836462,-0.5767431223730788,653.0,"[2, 6, 8, 13, 16, 18, 19, 20, 21, 25, 26, 28, 35, 37, 74, 78, 94, 112, 160, 162, 163, 174, 249, 653]",91.375,134.84367878522647,0.2806793277291797,0.9979984012586915
0.0,0.4,1.0,64.0,-1.0,1.0,-0.6561138076906462,73.0,-0.5957611412818872,201.0,"[10, 11, 12, 15, 16, 18, 20, 22, 25, 27, 28, 34, 35, 36, 39, 43, 67, 73]",29.5,17.308475765743594,"[50, 92, 93, 95, 140, 201]",111.83333333333331,47.60748073803341,0.3139697660605912,0.0302779150152914,0.9989845653939886,0.9945036360561474,-0.5957611412818872,435.0,"[10, 11, 12, 15, 16, 18, 21, 23, 26, 29, 30, 36, 37, 38, 41, 45, 94, 105, 130, 182, 183, 185, 289, 435]",83.79166666666667,102.91824391503944,0.2472664354168895,0.9981908423421136
0.0,0.4,1.0,128.0,-1.0,1.0,-0.664193382327705,66.0,-0.594153380101057,187.0,"[8, 10, 12, 14, 17, 18, 19, 20, 23, 26, 28, 29, 34, 35, 37, 45, 65, 66]",28.11111111111111,16.397455388256937,"[69, 91, 92, 98, 163, 187]",116.66666666666669,42.78109655235853,0.328707551882671,0.0287760343178482,0.9990550816860728,0.9942584136648064,-0.594153380101057,414.0,"[8, 10, 12, 14, 17, 18, 19, 21, 24, 27, 30, 31, 38, 39, 42, 50, 80, 81, 160, 187, 188, 195, 379, 414]",86.83333333333333,110.54586780558056,0.2549374481200021,0.9981136544350268
0.0,0.4,1.0,256.0,-1.0,1.0,-0.6569378361364485,64.0,-0.590624511153091,177.0,"[7, 9, 10, 12, 16, 17, 18, 19, 20, 22, 27, 31, 34, 36, 37, 40, 62, 64]",26.72222222222222,16.13417888815733,"[47, 63, 73, 77, 169, 177]",101.0,51.83306537980044,0.3502742119641886,0.0349251122918395,0.9991255979781568,0.9950532724505328,-0.590624511153091,343.0,"[7, 9, 10, 12, 16, 17, 18, 19, 20, 22, 30, 34, 38, 40, 41, 44, 73, 75, 131, 150, 162, 167, 330, 343]",75.33333333333333,92.71356726798705,0.2779927568216443,0.9984054881659308
0.0,0.4,0.4,32.0,-1.0,1.0,-0.6364652867601966,88.0,-0.5969576756250791,238.0,"[1, 2, 3, 5, 6, 8, 9, 10, 11, 15, 22, 23, 26, 27, 63, 65, 78, 88]",25.666666666666668,27.12931993250107,"[21, 98, 104, 153, 168, 238]",130.33333333333334,67.35148270247822,0.6329422500920087,0.0296648573959498,0.9991791903601408,0.993565026213428,-0.5969576756250791,438.0,"[1, 2, 3, 5, 6, 8, 9, 10, 11, 16, 25, 26, 29, 30, 67, 106, 110, 139, 182, 187, 194, 290, 311, 438]",91.875,116.67165911937084,0.4751602601000659,0.9979857128356088
0.0,0.6,0.4,16.0,-1.0,1.0,-0.6247140857462636,123.0,-0.6304028036437211,141.0,"[5, 6, 8, 9, 10, 11, 12, 13, 14, 15, 32, 35, 36, 38, 90, 103, 107, 123]",37.05555555555556,38.52916964561067,"[74, 81, 82, 111, 114, 141]",100.5,23.65551380404436,0.4117803925478107,0.0328731856733446,0.9986108290459428,0.9950786402841196,-0.6247140857462636,283.0,"[5, 6, 8, 9, 10, 11, 12, 13, 14, 15, 33, 37, 38, 41, 139, 151, 152, 195, 202, 207, 227, 234, 256, 283]",95.75,96.93737239407032,0.3199714012757749,0.9978916070310782
0.0,0.6,0.4,32.0,-1.0,1.0,-0.6213131236117271,124.0,-0.6275866623078845,138.0,"[1, 2, 3, 5, 6, 11, 13, 16, 18, 19, 20, 21, 22, 25, 64, 65, 107, 124]",30.11111111111111,35.02521137835952,"[79, 81, 91, 93, 102, 138]",97.33333333333331,19.73716179078328,0.5751825201679968,0.0343042067067833,0.9989648208322052,0.9952393032301708,-0.6213131236117271,281.0,"[1, 2, 3, 5, 6, 11, 13, 16, 18, 19, 20, 21, 22, 25, 108, 113, 154, 156, 170, 172, 191, 236, 251, 281]",83.91666666666667,91.13996409674272,0.4451344680961715,0.998191899710704
0.0,0.6,0.4,64.0,-1.0,1.0,-0.6471532799223775,78.0,-0.6155103707563332,148.0,"[1, 2, 4, 5, 6, 7, 8, 12, 13, 17, 24, 25, 32, 36, 42, 52, 77, 78]",24.5,23.56374333589636,"[52, 58, 72, 103, 126, 148]",93.16666666666669,35.498435020277846,0.6062523156763353,0.0357397043662527,0.9992384240454916,0.995450701843396,-0.6155103707563332,276.0,"[1, 2, 4, 5, 6, 7, 8, 12, 13, 17, 24, 25, 35, 43, 52, 66, 123, 131, 148, 151, 158, 188, 238, 276]",72.20833333333333,80.9109485621212,0.4666203101057309,0.998484790810198
0.0,0.6,0.4,128.0,-1.0,1.0,-0.633497999979744,81.0,-0.6106673074019313,152.0,"[1, 2, 4, 5, 9, 10, 11, 14, 16, 17, 18, 19, 22, 23, 50, 55, 75, 81]",24.0,23.722937798210783,"[44, 62, 69, 78, 149, 152]",92.33333333333331,42.38186194850602,0.5858986577125516,0.037129396764235,0.9992638099106418,0.9954929815660408,-0.6106673074019313,285.0,"[1, 2, 4, 5, 9, 10, 11, 14, 16, 17, 18, 19, 22, 23, 58, 64, 117, 135, 142, 147, 157, 166, 276, 285]",71.58333333333333,84.30100665011197,0.4582216753291752,0.9985006513390516
0.0,0.6,0.4,256.0,-1.0,1.0,-0.6353691836817532,79.0,-0.6001056411585409,196.0,"[1, 3, 4, 5, 6, 7, 8, 14, 16, 17, 18, 19, 22, 23, 52, 55, 78, 79]",23.72222222222222,24.225343835549936,"[42, 52, 65, 79, 187, 196]",103.5,63.30547632972469,0.6095427207131545,0.0360680054382852,0.9992779131690588,0.9949264332825976,-0.6001056411585409,373.0,"[1, 3, 4, 5, 6, 7, 8, 14, 16, 17, 18, 19, 22, 23, 63, 66, 112, 127, 142, 146, 148, 163, 356, 373]",77.45833333333333,102.35965154243584,0.4748849684562424,0.9983515623678288
0.0,0.6,0.6,16.0,-1.0,1.0,-0.6846833481173834,73.0,-0.6158943667568737,179.0,"[11, 12, 13, 16, 17, 20, 24, 28, 30, 31, 39, 40, 43, 46, 50, 51, 62, 73]",33.666666666666664,17.5720738041296,"[15, 30, 38, 85, 131, 179]",79.66666666666667,59.04141672494732,0.2752231002163045,0.0551711695479535,0.9987955817312032,0.9961398613225098,-0.6158943667568737,323.0,"[11, 12, 13, 16, 17, 23, 27, 31, 34, 35, 47, 48, 52, 55, 59, 60, 72, 81, 99, 108, 113, 180, 250, 323]",73.58333333333333,75.87320380447603,0.2197452095238736,0.9984594139640326
0.0,0.6,0.6,32.0,-1.0,1.0,-0.6754616194176198,76.0,-0.6165520770810581,156.0,"[7, 8, 9, 11, 12, 14, 15, 16, 23, 24, 33, 35, 40, 43, 44, 50, 64, 76]",29.11111111111111,19.80148391995152,"[31, 38, 51, 54, 130, 156]",76.66666666666667,48.116756148167575,0.3492341289055307,0.0491183873120688,0.9990085409332972,0.9962878403517672,-0.6165520770810581,290.0,"[7, 8, 9, 11, 12, 14, 15, 16, 25, 26, 38, 40, 46, 50, 51, 62, 94, 95, 111, 115, 134, 139, 251, 290]",69.125,73.49847645813257,0.2767402506033937,0.9985646221387606
0.0,0.6,0.6,64.0,-1.0,1.0,-0.6592339032521122,74.0,-0.6060300121456379,173.0,"[5, 6, 7, 8, 10, 11, 13, 14, 16, 17, 23, 28, 32, 41, 44, 51, 64, 74]",25.77777777777778,20.373063794998085,"[37, 39, 40, 76, 148, 173]",85.5,55.13241635674364,0.4214462915825704,0.0457344203275143,0.999173549056774,0.99583967529173,-0.6060300121456379,375.0,"[5, 6, 7, 8, 10, 11, 13, 14, 16, 17, 23, 29, 35, 47, 50, 58, 79, 103, 113, 116, 117, 176, 303, 375]",72.125,92.93784325200006,0.3366707906850564,0.9984869055473786
0.0,0.6,0.6,128.0,-1.0,1.0,-0.6532628698456708,75.0,-0.5993101263090133,184.0,"[4, 6, 7, 10, 11, 13, 14, 15, 18, 19, 21, 22, 26, 27, 29, 46, 74, 75]",24.27777777777778,20.24243495332284,"[35, 57, 61, 65, 147, 184]",91.5,54.23943829600991,0.4339009769208267,0.0401667063952231,0.9992497066522248,0.995535261288686,-0.5993101263090133,364.0,"[4, 6, 7, 10, 11, 13, 14, 15, 18, 19, 21, 22, 26, 27, 31, 53, 106, 116, 118, 137, 144, 149, 308, 364]",72.45833333333333,93.40190003718102,0.346576000096802,0.9984784465986568
0.0,0.6,0.6,256.0,-1.0,1.0,-0.65296546170243,75.0,-0.5919048954478415,221.0,"[3, 4, 8, 10, 11, 12, 13, 15, 17, 18, 20, 21, 27, 29, 34, 53, 73, 75]",24.61111111111111,20.9341265478402,"[44, 49, 55, 56, 207, 221]",105.33333333333331,77.04688327390163,0.4456249793835909,0.0401369226451433,0.9992327827421248,0.9948334178927788,-0.5919048954478415,510.0,"[3, 4, 8, 10, 11, 12, 13, 15, 17, 18, 20, 21, 27, 29, 39, 61, 102, 105, 127, 135, 143, 144, 429, 510]",83.45833333333333,126.3355252118562,0.3536821919727824,0.9981993012908356
0.0,0.4,0.4,64.0,-1.0,1.0,-0.6622131699573122,70.0,-0.6024633356495886,224.0,"[3, 4, 5, 6, 7, 8, 10, 11, 13, 16, 18, 19, 20, 22, 55, 64, 66, 70]",23.166666666666668,22.522211259110414,"[23, 62, 69, 95, 163, 224]",106.0,67.68554744798429,0.5486314286752884,0.0364634017207725,0.9993061196858922,0.9947995941146628,-0.6024633356495886,403.0,"[3, 4, 5, 6, 7, 8, 10, 11, 13, 16, 19, 21, 22, 24, 72, 84, 92, 96, 103, 146, 155, 192, 290, 403]",75.08333333333333,99.29959578075947,0.4214566604273037,0.998411832377472
0.0,0.6,0.8,16.0,-1.0,1.0,-0.7084748974269399,53.0,-0.6294061677853628,133.0,"[2, 5, 6, 9, 11, 12, 13, 18, 19, 20, 21, 23, 28, 29, 31, 36, 42, 53]",21.0,13.232955494186138,"[14, 19, 33, 49, 126, 133]",62.333333333333336,48.81825705842254,0.4723746880627129,0.0723381324885084,0.999423176730752,0.9970192795535262,-0.6294061677853628,256.0,"[2, 5, 6, 9, 11, 12, 14, 20, 21, 22, 23, 25, 33, 34, 36, 42, 49, 64, 77, 88, 107, 127, 244, 256]",55.29166666666666,67.03200676210996,0.3701636397062543,0.9989172545636028
0.0,0.6,0.8,32.0,-1.0,1.0,-0.6919240830843701,62.0,-0.6259169538516607,120.0,"[7, 9, 10, 11, 12, 13, 14, 15, 18, 31, 32, 33, 37, 40, 41, 42, 52, 62]",26.61111111111111,16.155972025810314,"[22, 29, 50, 57, 115, 120]",65.5,38.63827980988112,0.3660363639161501,0.0563456270269968,0.9991326496073653,0.9968543886352106,-0.6259169538516607,239.0,"[7, 9, 10, 12, 13, 14, 15, 16, 21, 36, 37, 39, 43, 46, 47, 48, 60, 76, 88, 99, 133, 144, 232, 239]",61.833333333333336,64.1792195513643,0.2853490127122868,0.998749132957756
0.0,0.6,0.8,64.0,-1.0,1.0,-0.6851938537938365,59.0,-0.6072792700402307,159.0,"[6, 15, 16, 18, 22, 24, 25, 26, 27, 30, 34, 35, 39, 40, 43, 45, 51, 59]",30.83333333333333,13.284284783992783,"[31, 32, 42, 52, 146, 159]",77.0,53.96912697706594,0.2852158142090574,0.0525153562111411,0.9989168697535878,0.9962709284627091,-0.6072792700402307,353.0,"[6, 15, 16, 18, 22, 24, 25, 26, 27, 30, 34, 36, 41, 42, 46, 48, 56, 66, 110, 111, 128, 141, 332, 353]",73.04166666666667,89.0030332660385,0.2414419276192305,0.9984636434383936
0.0,0.6,0.8,128.0,-1.0,1.0,-0.6872830948337086,57.0,-0.6007773855467027,169.0,"[10, 11, 12, 16, 17, 19, 20, 21, 23, 24, 30, 32, 33, 39, 43, 48, 51, 57]",28.11111111111111,14.003526892611688,"[30, 37, 56, 68, 164, 169]",87.33333333333333,57.33430231739305,0.319806803735554,0.0442955181380851,0.9990550816860728,0.995746659901911,-0.6007773855467027,345.0,"[10, 11, 12, 16, 17, 19, 20, 21, 23, 24, 31, 33, 34, 42, 46, 53, 57, 64, 108, 117, 140, 158, 335, 345]",72.33333333333333,90.38190576043908,0.2644419977435008,0.9984816187044274
0.0,0.6,0.8,256.0,-1.0,1.0,-0.6761048686389629,58.0,-0.5911299327670483,200.0,"[5, 8, 11, 12, 15, 16, 17, 22, 23, 25, 28, 29, 31, 40, 41, 43, 53, 58]",26.5,14.926672621704933,"[38, 51, 64, 75, 182, 200]",101.66666666666669,64.38598881399241,0.348675037117421,0.0372020560923424,0.9991368805848904,0.9950194486724168,-0.5911299327670483,485.0,"[5, 8, 11, 12, 15, 16, 17, 22, 23, 25, 28, 29, 32, 45, 46, 48, 60, 66, 117, 136, 153, 165, 396, 485]",81.66666666666667,118.07577604610051,0.2815915489771219,0.9982447681402156
0.0,0.6,1.0,16.0,-1.0,1.0,-0.7200518144756679,57.0,-0.6159798822476754,152.0,"[6, 7, 8, 9, 11, 12, 15, 18, 27, 36, 38, 39, 42, 46, 49, 53, 54, 57]",29.27777777777778,18.04255942534994,"[16, 97, 102, 120, 128, 152]",102.5,42.66048132249174,0.348204926415698,0.0373999731584621,0.9990043099557722,0.9949771689497716,-0.6159798822476754,319.0,"[6, 7, 8, 9, 11, 12, 15, 18, 28, 37, 39, 40, 44, 50, 53, 58, 59, 62, 83, 196, 205, 228, 251, 319]",76.58333333333333,88.40433467250851,0.2829260622573958,0.9983769392139944
0.0,0.6,1.0,32.0,-1.0,1.0,-0.6987558815922708,56.0,-0.6090100767166099,165.0,"[8, 10, 12, 13, 21, 24, 26, 27, 29, 30, 37, 40, 42, 43, 44, 45, 49, 56]",30.88888888888889,14.03522904412278,"[23, 70, 96, 101, 150, 165]",100.83333333333331,47.55143414124215,0.2908288653055458,0.0354334365890005,0.9989140491019044,0.9950617283950618,-0.6090100767166099,338.0,"[8, 10, 12, 13, 21, 24, 26, 27, 29, 30, 38, 43, 45, 46, 47, 48, 55, 64, 97, 157, 189, 196, 312, 338]",78.125,90.60137623126924,0.2389013801578664,0.9983346444703852
0.0,0.6,1.0,64.0,-1.0,1.0,-0.6798386066781384,57.0,-0.599669335039071,167.0,"[8, 12, 14, 15, 16, 20, 22, 24, 27, 28, 29, 34, 36, 37, 40, 42, 56, 57]",28.72222222222222,13.783265036330413,"[23, 54, 57, 60, 145, 167]",84.33333333333333,52.49656073390798,0.309675815755893,0.0450374076423169,0.9990240545175556,0.9958988669034332,-0.599669335039071,423.0,"[8, 12, 14, 15, 16, 22, 24, 26, 29, 30, 31, 36, 40, 41, 44, 47, 64, 65, 96, 141, 144, 148, 360, 423]",78.16666666666667,103.27780766241872,0.2472612796182509,0.998333587101795
0.0,0.6,1.0,128.0,-1.0,1.0,-0.6814161820954501,61.0,-0.6050915221413042,150.0,"[7, 13, 15, 16, 20, 22, 23, 24, 25, 26, 30, 31, 34, 37, 41, 42, 54, 61]",28.944444444444443,13.697007873669271,"[41, 44, 46, 72, 143, 150]",82.66666666666667,46.302147778357856,0.3068291497443446,0.0442637951969871,0.9990127719108224,0.995983426348723,-0.6050915221413042,281.0,"[7, 13, 15, 16, 21, 23, 24, 25, 26, 27, 31, 32, 37, 40, 45, 46, 61, 69, 122, 125, 127, 162, 272, 281]",68.625,74.90372292705706,0.2505262139705807,0.998575724508958
0.0,0.6,1.0,256.0,-1.0,1.0,-0.674904381937751,60.0,-0.5980347953497502,162.0,"[9, 11, 12, 13, 17, 20, 22, 24, 29, 31, 32, 36, 37, 40, 41, 44, 52, 60]",29.444444444444443,14.279831240141236,"[42, 43, 49, 83, 159, 162]",89.66666666666667,51.94120607849696,0.3035570919846546,0.0413703317523827,0.998987386045672,0.995628276678505,-0.5980347953497502,423.0,"[9, 11, 12, 13, 17, 20, 22, 24, 31, 33, 34, 39, 40, 43, 45, 48, 59, 68, 128, 129, 135, 175, 386, 423]",81.0,107.08446821707308,0.2454994884065443,0.9982616860376592
0.0,0.4,0.4,128.0,-1.0,1.0,-0.6364117026531233,85.0,-0.5970210428732845,231.0,"[4, 7, 8, 9, 10, 11, 13, 14, 17, 19, 20, 23, 26, 29, 56, 71, 83, 85]",28.05555555555556,25.835961634517243,"[53, 62, 65, 92, 185, 231]",114.66666666666669,68.35853193924581,0.4183623294072986,0.0322931915114825,0.9990579023377562,0.9943598849991544,-0.5970210428732845,475.0,"[4, 7, 8, 9, 10, 11, 13, 14, 17, 19, 20, 25, 30, 34, 74, 96, 132, 143, 145, 149, 152, 187, 342, 475]",88.16666666666667,114.4587504542818,0.3210085731227602,0.9980798186401394
0.0,0.8,0.4,16.0,-1.0,1.0,-0.5679209182129135,743.0,-0.582165396701156,437.0,"[12, 15, 18, 19, 20, 28, 29, 30, 31, 32, 33, 41, 42, 43, 132, 156, 231, 743]",91.94444444444444,167.8870229324941,"[136, 226, 240, 325, 431, 437]",299.1666666666667,109.94152486157762,0.2102149186700488,0.0110568493662062,0.9958141529018864,0.9849991544055472,-0.5679209182129135,1337.0,"[15, 21, 29, 30, 31, 39, 42, 43, 44, 46, 49, 63, 65, 66, 197, 243, 312, 432, 482, 560, 776, 1038, 1050, 1337]",292.0833333333333,380.64856020861146,0.1144818737078942,0.992905056759546
0.0,0.8,0.4,32.0,-1.0,1.0,-0.5782843613042641,441.0,-0.5847184403409191,349.0,"[8, 9, 10, 11, 12, 15, 18, 24, 25, 27, 29, 30, 31, 32, 129, 130, 165, 441]",63.66666666666666,102.469507659596,"[75, 79, 91, 130, 214, 349]",156.33333333333334,98.3220332490242,0.2965733593068402,0.0238237526374119,0.9972498646087192,0.9922458988669036,-0.5782843613042641,844.0,"[8, 9, 10, 11, 12, 15, 20, 28, 29, 33, 36, 37, 38, 39, 177, 184, 198, 240, 243, 282, 305, 447, 680, 844]",163.54166666666666,217.5344760351538,0.212717216733865,0.9961670388604104
0.0,0.8,0.4,64.0,-1.0,1.0,-0.5897697143123851,311.0,-0.5953835483940874,269.0,"[4, 6, 7, 8, 9, 10, 12, 16, 19, 21, 27, 30, 32, 36, 121, 136, 151, 311]",53.11111111111112,77.23764833931477,"[40, 55, 57, 80, 206, 269]",117.83333333333331,87.33349236626742,0.3730716238744892,0.0350953154474922,0.9977871987544004,0.9941992220531032,-0.5897697143123851,613.0,"[4, 6, 7, 8, 9, 10, 12, 16, 19, 21, 30, 34, 36, 40, 129, 149, 151, 185, 219, 250, 283, 447, 555, 613]",134.70833333333334,175.71389604663852,0.2889875868769223,0.996899266609146
0.0,0.8,0.4,128.0,-1.0,1.0,-0.5852228573589104,300.0,-0.5921824196182328,251.0,"[1, 3, 4, 8, 10, 11, 12, 15, 16, 20, 21, 26, 29, 34, 72, 103, 197, 300]",49.0,76.67898451770645,"[40, 49, 52, 69, 165, 251]",104.33333333333331,77.86669520547423,0.4720357770827452,0.0392811769148039,0.9979945166531276,0.9948841535599526,-0.5852228573589104,588.0,"[1, 3, 4, 8, 10, 11, 12, 15, 16, 22, 23, 28, 33, 38, 108, 118, 122, 125, 165, 179, 360, 372, 523, 588]",120.16666666666669,165.99765727931893,0.3646667628562647,0.9972677595628416
0.0,0.8,0.4,256.0,-1.0,1.0,-0.6162444171961475,150.0,-0.5944243297089624,233.0,"[3, 6, 7, 8, 9, 11, 14, 16, 18, 19, 20, 24, 27, 28, 57, 58, 127, 150]",33.44444444444444,40.20395533640139,"[63, 67, 75, 76, 196, 233]",118.33333333333331,68.97745203244962,0.4192735388123475,0.0316027696886745,0.9987842991244698,0.9941738542195164,-0.5944243297089624,497.0,"[3, 6, 7, 8, 9, 11, 14, 16, 18, 19, 20, 26, 31, 32, 80, 84, 147, 158, 188, 191, 232, 290, 404, 497]",103.79166666666669,133.23162136128028,0.3198283082958038,0.9976833054188026
0.0,0.8,0.6,16.0,-1.0,1.0,-0.6280043225279063,211.0,-0.5796337362848779,442.0,"[4, 13, 26, 28, 33, 34, 38, 39, 40, 41, 43, 44, 46, 50, 58, 59, 170, 211]",54.27777777777778,50.4279525170488,"[59, 153, 167, 206, 233, 442]",210.0,117.09540269939436,0.2051339405239474,0.0170727472754912,0.997735016698258,0.9895230847285642,-0.5796337362848779,913.0,"[6, 16, 38, 41, 52, 53, 62, 63, 64, 67, 70, 71, 74, 78, 88, 89, 133, 277, 338, 364, 388, 477, 520, 913]",180.91666666666663,214.10217900702355,0.1141469521166088,0.9957298169483496
0.0,0.8,0.6,32.0,-1.0,1.0,-0.6495531781280063,116.0,-0.5780289586920879,384.0,"[3, 19, 20, 21, 24, 26, 29, 30, 31, 32, 33, 34, 35, 36, 39, 43, 57, 116]",34.888888888888886,22.508983117583394,"[97, 120, 145, 214, 221, 384]",196.8333333333333,95.27751862614578,0.2769867894046807,0.0174344372272971,0.9987109621807022,0.9901911043463556,-0.5780289586920879,979.0,"[3, 23, 24, 25, 29, 32, 36, 37, 38, 39, 41, 42, 45, 47, 50, 58, 93, 185, 230, 264, 327, 461, 484, 979]",149.66666666666666,220.11278674554305,0.1795076751446223,0.9965191426009576
0.0,0.8,0.6,64.0,-1.0,1.0,-0.6520375862877327,122.0,-0.5958040245821774,250.0,"[8, 12, 13, 15, 16, 20, 22, 23, 24, 25, 27, 28, 30, 32, 33, 38, 61, 122]",30.5,25.058265436112425,"[86, 87, 102, 158, 196, 250]",146.5,61.20389421161587,0.3298064898967101,0.0231424728679313,0.998933793663688,0.9927447995941148,-0.5958040245821774,527.0,"[8, 14, 15, 17, 18, 23, 25, 26, 27, 29, 31, 32, 36, 40, 41, 46, 89, 195, 215, 216, 235, 313, 442, 527]",110.83333333333331,141.93210426898568,0.227545641520013,0.9975046101270536
0.0,0.8,0.6,128.0,-1.0,1.0,-0.6480895843580402,92.0,-0.5935888688751182,233.0,"[10, 11, 13, 17, 19, 20, 21, 22, 24, 25, 26, 29, 32, 34, 36, 38, 78, 92]",30.38888888888889,20.987135977622337,"[62, 75, 80, 99, 171, 233]",120.0,61.644140029689765,0.3160674469142187,0.0292817630620027,0.9989394349670548,0.9940892947742264,-0.5935888688751182,502.0,"[10, 11, 13, 19, 21, 22, 23, 25, 27, 28, 29, 32, 35, 37, 39, 42, 122, 152, 159, 172, 177, 207, 334, 502]",93.25,117.96618512664269,0.2355659107261469,0.9979508196721312
0.0,0.8,0.6,256.0,-1.0,1.0,-0.6530904836625557,83.0,-0.5967991586202691,211.0,"[5, 7, 11, 13, 15, 16, 18, 19, 22, 23, 27, 28, 34, 35, 37, 39, 79, 83]",28.38888888888889,21.01623417183564,"[60, 68, 72, 102, 167, 211]",113.33333333333331,56.50270396676212,0.3496851763242199,0.030889487171925,0.999040978427656,0.9944275325553864,-0.5967991586202691,465.0,"[5, 7, 11, 13, 15, 16, 18, 19, 24, 25, 30, 31, 37, 38, 41, 44, 111, 131, 146, 160, 164, 209, 330, 465]",87.08333333333333,112.0115011455917,0.2692812965776517,0.9981073102234854
0.0,0.4,0.4,256.0,-1.0,1.0,-0.6203372259776097,93.0,-0.5918740234194427,220.0,"[6, 7, 8, 9, 10, 11, 12, 14, 15, 17, 19, 20, 23, 27, 64, 71, 92, 93]",28.77777777777778,28.54539378205948,"[54, 56, 57, 59, 196, 220]",107.0,71.76814520848833,0.431167695992883,0.037907320784004,0.9990212338658724,0.9947488584474884,-0.5918740234194427,404.0,"[6, 7, 8, 9, 10, 11, 12, 14, 15, 17, 19, 20, 24, 31, 99, 117, 130, 133, 135, 138, 179, 180, 370, 404]",87.0,108.36896849805912,0.3347356659199775,0.9981094249606658
0.0,0.8,0.8,16.0,-1.0,1.0,-0.6233734557808807,239.0,-0.5763123783446668,437.0,"[14, 17, 34, 35, 36, 40, 41, 42, 43, 44, 45, 52, 57, 59, 61, 102, 111, 239]",59.55555555555556,49.53923498066089,"[19, 23, 76, 97, 360, 437]",168.66666666666666,166.3096175477801,0.1750096461095656,0.0413196273841134,0.9974670547883382,0.9916286149162862,-0.5763123783446668,1120.0,"[18, 21, 43, 46, 47, 51, 52, 58, 59, 60, 61, 68, 72, 79, 80, 83, 88, 140, 158, 271, 306, 383, 918, 1120]",178.41666666666666,270.41371338911216,0.1244065415586235,0.9957964311695342
0.0,0.8,0.8,32.0,-1.0,1.0,-0.6610526104758947,79.0,-0.5948954960768654,205.0,"[14, 25, 27, 30, 31, 33, 34, 35, 36, 37, 38, 39, 40, 41, 42, 44, 77, 79]",39.0,15.427248620541512,"[39, 40, 70, 86, 158, 205]",99.66666666666669,61.65134944905009,0.2292634178564424,0.0376539431180542,0.9985022339561332,0.9951209200067648,-0.5948954960768654,466.0,"[16, 27, 29, 32, 33, 36, 37, 38, 39, 40, 41, 43, 44, 46, 48, 50, 95, 108, 124, 125, 164, 212, 379, 466]",94.66666666666669,110.4534844277093,0.1810918372692802,0.9979148691400632
0.0,0.8,0.8,64.0,-1.0,1.0,-0.6664217403300645,83.0,-0.6027684629108606,195.0,"[14, 17, 18, 19, 21, 22, 25, 26, 27, 28, 29, 30, 31, 32, 36, 42, 70, 83]",31.666666666666668,17.3749500398962,"[67, 70, 77, 99, 192, 195]",116.66666666666669,55.28913897764089,0.2927476733758131,0.0299454630844556,0.9988745599783374,0.9942584136648064,-0.6027684629108606,419.0,"[16, 19, 20, 21, 23, 24, 27, 28, 29, 30, 31, 32, 33, 34, 38, 46, 92, 112, 160, 186, 194, 250, 414, 419]",94.91666666666669,116.4910285052983,0.2226418907557731,0.9979085249285218
0.0,0.8,0.8,128.0,-1.0,1.0,-0.6586338008635412,83.0,-0.5914579447994532,212.0,"[12, 14, 17, 20, 21, 22, 24, 25, 26, 27, 28, 32, 33, 36, 37, 40, 62, 83]",31.05555555555556,16.824163252174014,"[59, 74, 82, 87, 201, 212]",119.16666666666669,62.43774677406466,0.2938236837664783,0.0299526776000519,0.9989055871468544,0.9941315744968714,-0.5914579447994532,486.0,"[14, 16, 19, 22, 23, 24, 26, 27, 29, 30, 31, 35, 36, 39, 40, 43, 75, 113, 153, 170, 180, 185, 452, 486]",94.5,125.4163067547438,0.2225522663154454,0.9979190986144244
0.0,0.8,0.8,256.0,-1.0,1.0,-0.6632071790050981,77.0,-0.5941542228388148,202.0,"[10, 14, 18, 20, 21, 22, 23, 24, 25, 28, 29, 31, 32, 34, 39, 42, 52, 77]",30.05555555555556,15.090365661655424,"[35, 74, 76, 80, 199, 202]",111.0,65.00769185258002,0.2992138465594461,0.0333167897077858,0.998956358877155,0.9945459157787924,-0.5941542228388148,518.0,"[10, 16, 20, 22, 23, 24, 25, 26, 27, 31, 32, 34, 35, 37, 42, 45, 63, 97, 123, 170, 173, 177, 453, 518]",92.625,129.1303645223178,0.2290552057012398,0.9979666802009848
0.0,0.8,1.0,16.0,-1.0,1.0,-0.658444591789881,106.0,-0.5739865076933093,391.0,"[12, 15, 20, 27, 28, 29, 30, 31, 32, 34, 35, 36, 39, 41, 42, 46, 50, 106]",36.27777777777778,19.45594897755656,"[46, 93, 110, 168, 379, 391]",197.8333333333333,137.10265821233696,0.2516097519371051,0.0204774397567537,0.998640445888618,0.9901403686791814,-0.5739865076933093,1023.0,"[16, 19, 24, 34, 35, 36, 37, 38, 39, 42, 43, 44, 52, 54, 56, 60, 66, 140, 165, 279, 298, 393, 1001, 1023]",166.41666666666666,272.58376643193964,0.1636685661147648,0.9960951377962746
0.0,0.8,1.0,32.0,-1.0,1.0,-0.6648702631197023,70.0,-0.5719283614223704,362.0,"[10, 14, 15, 16, 18, 23, 24, 25, 26, 27, 28, 31, 32, 33, 40, 42, 48, 70]",29.0,13.992061241210235,"[82, 83, 106, 107, 206, 362]",157.66666666666666,100.51976035696774,0.3076335341721231,0.0238038336919146,0.9990099512591388,0.9921782513106714,-0.5719283614223704,915.0,"[10, 16, 17, 18, 20, 25, 26, 27, 28, 29, 30, 34, 35, 36, 46, 48, 57, 94, 236, 238, 294, 295, 532, 915]",129.41666666666666,207.18227012839577,0.2231069218419667,0.99703302373581
0.0,0.8,1.0,64.0,-1.0,1.0,-0.6812958505260346,57.0,-0.5812206486019657,278.0,"[9, 13, 14, 15, 19, 20, 21, 24, 27, 29, 30, 32, 34, 38, 42, 43, 44, 57]",28.38888888888889,12.548301739407204,"[102, 103, 105, 114, 224, 278]",154.33333333333334,70.21554117303535,0.3098735987652565,0.0227974512584725,0.999040978427656,0.9923473702012516,-0.5812206486019657,771.0,"[11, 15, 16, 17, 21, 22, 23, 26, 29, 31, 32, 34, 36, 40, 46, 47, 48, 74, 228, 229, 231, 281, 565, 771]",119.70833333333331,185.79726387621773,0.2285940082570231,0.997279390617334
0.0,0.8,1.0,128.0,-1.0,1.0,-0.6752799043655581,68.0,-0.5812802249265963,257.0,"[14, 15, 17, 19, 23, 25, 26, 27, 28, 29, 31, 32, 33, 38, 42, 43, 47, 68]",30.944444444444443,12.873194467670762,"[65, 70, 76, 88, 190, 257]",124.33333333333331,73.07682411149395,0.2849320212753673,0.0297577277661242,0.9989112284502212,0.9938694402164724,-0.5812802249265963,739.0,"[16, 17, 19, 21, 25, 27, 28, 29, 30, 32, 34, 35, 36, 41, 45, 47, 52, 83, 159, 168, 176, 210, 456, 739]",105.20833333333331,163.6080120202621,0.2175480102734505,0.9976473548867346
0.0,0.8,1.0,256.0,-1.0,1.0,-0.673986197597619,67.0,-0.586891040189965,217.0,"[15, 17, 18, 20, 21, 23, 25, 26, 27, 28, 29, 34, 35, 36, 41, 42, 61, 67]",31.38888888888889,13.864979420142957,"[63, 64, 72, 79, 183, 217]",113.0,62.52199612936234,0.2841574419861481,0.0323991279814876,0.9988886632367542,0.9944444444444444,-0.586891040189965,556.0,"[17, 19, 20, 22, 23, 25, 27, 28, 29, 30, 31, 36, 37, 38, 44, 45, 74, 80, 156, 159, 168, 176, 444, 556]",95.16666666666669,133.00647436204835,0.2205681253040933,0.9979021807169806
0.0,0.4,0.6,16.0,-1.0,1.0,-0.6334247165314963,102.0,-0.5906342432757732,293.0,"[1, 2, 3, 4, 5, 6, 7, 9, 15, 19, 20, 25, 32, 41, 59, 61, 81, 102]",27.33333333333333,29.11280741453073,"[111, 112, 148, 239, 289, 293]",198.66666666666663,77.94157355923016,0.6497665330302609,0.0169419462620007,0.9990988017871648,0.9900980889565364,-0.5906342432757732,555.0,"[1, 2, 3, 4, 5, 7, 8, 11, 20, 24, 27, 34, 42, 54, 96, 99, 161, 204, 217, 219, 272, 425, 548, 555]",126.58333333333331,166.8097510805515,0.440742875143508,0.9971075682214214
0.0,1.0,0.4,16.0,-1.0,1.0,-0.5996327019882189,448.0,-0.5576728040443208,597.0,"[10, 11, 44, 45, 49, 50, 51, 52, 53, 54, 58, 65, 67, 83, 108, 116, 208, 448]",87.33333333333333,97.43373816770726,"[244, 314, 318, 440, 441, 597]",392.3333333333333,115.6094959575361,0.1386222569532729,0.0083967964165661,0.9960510876432892,0.9802722814138338,-0.5576728040443208,1460.0,"[17, 18, 53, 56, 60, 61, 62, 63, 64, 65, 69, 77, 79, 100, 153, 169, 318, 684, 697, 847, 856, 1139, 1140, 1460]",346.125,431.4273125819304,0.0867406733929464,0.9915352357509007
0.0,1.0,0.4,32.0,-1.0,1.0,-0.6330356975614283,134.0,-0.5726800059353899,499.0,"[7, 8, 10, 11, 12, 13, 15, 18, 25, 26, 29, 30, 33, 42, 103, 110, 127, 134]",41.833333333333336,42.41625736541225,"[141, 169, 183, 266, 291, 499]",258.1666666666667,120.04779140918096,0.3142378023259247,0.0132606222327475,0.9983583807202816,0.987079316759682,-0.5726800059353899,1282.0,"[9, 10, 12, 14, 15, 16, 19, 24, 31, 33, 38, 39, 43, 56, 141, 155, 198, 207, 340, 408, 427, 649, 746, 1282]",204.66666666666663,304.0154418592728,0.1924880794847332,0.9951234160618518
0.0,1.0,0.4,64.0,-1.0,1.0,-0.6420688154712092,93.0,-0.592836077630385,256.0,"[4, 5, 8, 9, 11, 12, 13, 15, 16, 17, 19, 24, 28, 29, 74, 91, 92, 93]",31.11111111111111,31.09106497030384,"[56, 118, 130, 149, 160, 256]",144.83333333333334,59.77295003223076,0.4127427579232303,0.0232360593433885,0.998902766495171,0.9928293590394046,-0.592836077630385,552.0,"[4, 5, 8, 9, 11, 12, 13, 15, 16, 17, 21, 29, 33, 35, 115, 142, 143, 145, 151, 262, 278, 374, 391, 552]",115.875,147.73154495570674,0.3042925231430202,0.9973766685276354
0.0,1.0,0.4,128.0,-1.0,1.0,-0.6293868346317449,106.0,-0.5863389795865024,268.0,"[2, 3, 6, 8, 12, 13, 16, 17, 18, 19, 20, 25, 26, 28, 77, 90, 93, 106]",32.166666666666664,32.85532258587978,"[46, 75, 99, 107, 234, 268]",138.16666666666666,82.69505560928188,0.4296925451056676,0.0266412643405978,0.9988491741131872,0.9931675968205648,-0.5863389795865024,564.0,"[2, 3, 8, 10, 14, 15, 18, 19, 20, 21, 22, 29, 31, 33, 114, 129, 140, 145, 176, 207, 237, 246, 504, 564]",112.79166666666669,149.03242912385062,0.2985128270318345,0.9974549138033126
0.0,1.0,0.4,256.0,-1.0,1.0,-0.6328260094158037,96.0,-0.5795957795747239,281.0,"[2, 3, 12, 13, 14, 15, 17, 18, 19, 21, 23, 24, 27, 29, 67, 70, 86, 96]",30.88888888888889,27.551747048637385,"[50, 68, 82, 86, 201, 281]",128.0,83.96626306638478,0.3926507269151544,0.0297894489207207,0.9989140491019044,0.993683409436834,-0.5795957795747239,648.0,"[2, 3, 14, 15, 16, 17, 19, 20, 21, 23, 27, 28, 31, 34, 91, 96, 132, 140, 153, 171, 213, 217, 404, 648]",105.625,147.38408227598163,0.2806616113402131,0.9976367812008324
0.0,1.0,0.6,16.0,-1.0,1.0,-0.6505536428792661,68.0,-0.5390138107075445,784.0,"[6, 7, 9, 11, 16, 17, 20, 21, 23, 24, 25, 28, 32, 34, 38, 48, 59, 68]",27.0,16.82920741515245,"[95, 140, 186, 223, 252, 784]",280.0,231.196164904755,0.3511785003740016,0.0143954355216589,0.9991171360231068,0.9859715880263826,-0.5390138107075445,2141.0,"[9, 10, 12, 14, 20, 23, 26, 27, 29, 31, 32, 35, 39, 42, 46, 60, 81, 97, 227, 328, 395, 492, 534, 2141]",197.91666666666663,433.8784311942178,0.2164356423785436,0.995297353194945
0.0,1.0,0.6,32.0,-1.0,1.0,-0.6534604209728554,69.0,-0.553322550175055,588.0,"[6, 7, 12, 13, 16, 22, 23, 25, 29, 30, 31, 34, 47, 50, 58, 64, 65, 69]",33.388888888888886,20.053093108293208,"[91, 128, 145, 192, 195, 588]",223.16666666666663,167.08422693027876,0.286596159280384,0.0173303511280728,0.9987871197761532,0.9888550651107728,-0.553322550175055,1472.0,"[6, 7, 14, 15, 19, 25, 26, 31, 35, 36, 38, 47, 62, 69, 83, 93, 94, 111, 223, 290, 335, 447, 451, 1472]",167.875,302.37136555622016,0.1868845037826475,0.9960570725270264
0.0,1.0,0.6,64.0,-1.0,1.0,-0.6515430568570346,87.0,-0.5784571416551768,304.0,"[4, 6, 9, 10, 11, 15, 20, 24, 25, 27, 28, 32, 34, 40, 44, 48, 74, 87]",29.88888888888889,21.956747605966115,"[62, 97, 102, 138, 184, 304]",147.83333333333334,79.4195959585682,0.3442219230358739,0.023675936010016,0.9989648208322052,0.9926771520378826,-0.5784571416551768,636.0,"[4, 6, 9, 10, 11, 15, 22, 29, 30, 33, 34, 39, 41, 48, 53, 58, 104, 127, 155, 207, 212, 344, 414, 636]",110.04166666666669,152.62958406074347,0.2478259636028478,0.9975247001302676
0.0,1.0,0.6,128.0,-1.0,1.0,-0.6463078521144828,88.0,-0.5743469855412601,298.0,"[8, 12, 15, 16, 18, 19, 21, 22, 23, 26, 27, 30, 31, 36, 40, 41, 84, 88]",30.944444444444443,21.38917748723048,"[55, 73, 74, 89, 210, 298]",133.16666666666666,89.67983174728988,0.310885821772846,0.0291678652030822,0.9989112284502212,0.9934212751564352,-0.5743469855412601,618.0,"[10, 14, 17, 18, 20, 21, 23, 24, 25, 28, 29, 36, 38, 44, 49, 50, 120, 127, 150, 174, 175, 218, 481, 618]",104.54166666666669,148.20115248277332,0.2234882933363278,0.9976642727841784
0.0,1.0,0.6,256.0,-1.0,1.0,-0.6519779732621673,77.0,-0.5774014723682948,265.0,"[9, 10, 13, 17, 18, 21, 23, 24, 25, 26, 30, 31, 33, 37, 40, 51, 73, 77]",31.0,18.69343319041327,"[53, 66, 69, 76, 197, 265]",121.0,80.50879869099195,0.3002451509180114,0.0322171691236877,0.9989084077985378,0.9940385591070522,-0.5774014723682948,636.0,"[11, 12, 15, 19, 20, 23, 25, 26, 28, 29, 36, 37, 39, 46, 52, 66, 91, 100, 153, 167, 170, 180, 439, 636]",100.83333333333331,144.6471761063988,0.2157501199614729,0.997758378588709
0.0,0.4,0.6,32.0,-1.0,1.0,-0.66794435901339,57.0,-0.5995959251107895,183.0,"[1, 2, 3, 5, 8, 12, 14, 15, 16, 20, 23, 24, 25, 28, 31, 45, 52, 57]",21.166666666666668,16.18040653245633,"[102, 105, 121, 127, 164, 183]",133.66666666666666,29.953667926019047,0.5834018487112961,0.0247359470270124,0.9994076631464932,0.993395907322848,-0.5995959251107895,386.0,"[1, 2, 3, 5, 10, 15, 17, 19, 20, 25, 28, 30, 31, 35, 38, 60, 69, 77, 202, 206, 227, 237, 327, 386]",86.25,109.91824613472204,0.4018988846840644,0.9981289862795852
0.0,1.0,0.8,16.0,-1.0,1.0,-0.6836343921177779,64.0,-0.5668802000742216,427.0,"[10, 14, 19, 20, 21, 27, 32, 35, 41, 42, 43, 44, 50, 51, 53, 62, 63, 64]",38.388888888888886,16.663796049082936,"[13, 95, 293, 375, 410, 427]",268.8333333333333,159.40976200415776,0.2347430156513951,0.0241879878696638,0.9985642882931672,0.9865381363098258,-0.5668802000742216,1176.0,"[12, 16, 24, 25, 26, 34, 39, 42, 48, 50, 51, 52, 59, 60, 65, 74, 75, 77, 78, 263, 707, 906, 1034, 1176]",208.04166666666663,344.87201480726475,0.1639395067295029,0.9950546871034868
0.0,1.0,0.8,32.0,-1.0,1.0,-0.6893312722968042,58.0,-0.5785606272549407,331.0,"[14, 16, 17, 18, 19, 20, 22, 25, 27, 30, 31, 32, 44, 45, 46, 48, 50, 58]",31.22222222222222,13.431122876676955,"[34, 83, 138, 176, 198, 331]",160.0,94.18952524918396,0.2850445900833253,0.0235589944800257,0.998898535517646,0.9920598680872652,-0.5785606272549407,667.0,"[16, 18, 19, 20, 21, 22, 25, 29, 31, 35, 36, 37, 52, 53, 54, 57, 59, 68, 126, 245, 344, 419, 457, 667]",121.25,170.66835529763566,0.2034045588996501,0.9972407966637906
0.0,1.0,0.8,64.0,-1.0,1.0,-0.6748917523566363,68.0,-0.5958374503341506,218.0,"[12, 16, 17, 22, 25, 26, 27, 28, 30, 31, 32, 34, 40, 44, 48, 53, 66, 68]",34.388888888888886,15.581823060108954,"[42, 60, 113, 122, 216, 218]",128.5,68.46349392194354,0.2578603861847117,0.0278582498138491,0.9987363480458524,0.993658041603247,-0.5958374503341506,489.0,"[12, 18, 19, 24, 27, 29, 30, 31, 34, 35, 36, 38, 47, 53, 57, 62, 82, 86, 138, 158, 307, 325, 485, 489]",109.25,139.63680567815922,0.1895708841137072,0.9975447901334822
0.0,1.0,0.8,128.0,-1.0,1.0,-0.6667313767499544,74.0,-0.5862493994411099,244.0,"[10, 11, 17, 19, 20, 21, 23, 27, 30, 31, 32, 35, 40, 44, 47, 48, 71, 74]",33.333333333333336,17.710637105046974,"[60, 66, 111, 116, 240, 244]",139.5,75.39617585350953,0.271816957366991,0.0256504966475288,0.9987899404278364,0.9930999492643328,-0.5862493994411099,540.0,"[12, 13, 19, 21, 22, 23, 25, 29, 34, 36, 37, 40, 46, 52, 58, 61, 88, 91, 187, 194, 277, 308, 527, 540]",114.16666666666669,149.6739975932879,0.1947125250603818,0.9974200206398348
0.0,1.0,0.8,256.0,-1.0,1.0,-0.6713298620678214,66.0,-0.5817565811566386,249.0,"[10, 13, 15, 16, 20, 21, 22, 23, 25, 27, 31, 32, 33, 36, 45, 46, 57, 66]",29.88888888888889,14.895520910994572,"[54, 61, 82, 112, 221, 249]",129.83333333333334,77.03552571523232,0.3000410008126148,0.0283876458772788,0.9989648208322052,0.993590394047015,-0.5817565811566386,614.0,"[12, 15, 17, 18, 22, 23, 24, 25, 27, 29, 37, 38, 39, 43, 56, 57, 72, 82, 154, 166, 236, 303, 500, 614]",108.70833333333331,154.29881160880305,0.2150020778960324,0.9975585359251552
0.0,1.0,1.0,16.0,-1.0,1.0,-0.6716967863091614,70.0,-0.5408113131150135,525.0,"[10, 11, 13, 14, 18, 21, 25, 28, 29, 33, 35, 36, 37, 45, 47, 56, 61, 70]",32.72222222222222,17.155515975774723,"[122, 124, 144, 236, 472, 525]",270.5,166.37282430332985,0.282918060704966,0.0140216718688001,0.9988435328098204,0.9864535768645356,-0.5408113131150135,1329.0,"[14, 15, 17, 18, 22, 26, 30, 33, 34, 38, 40, 41, 42, 50, 53, 66, 72, 90, 281, 284, 359, 574, 1233, 1329]",198.375,353.247884223435,0.1889600247925361,0.9952915376676986
0.0,1.0,1.0,32.0,-1.0,1.0,-0.6575962582220632,87.0,-0.5593741666997571,388.0,"[8, 9, 11, 17, 18, 22, 24, 26, 35, 43, 44, 48, 49, 55, 58, 59, 75, 87]",38.22222222222222,22.480993343898195,"[89, 119, 128, 177, 234, 388]",189.16666666666663,100.32516578052034,0.2541807101154955,0.0184850811158411,0.998543133405542,0.9905800777946896,-0.5593741666997571,836.0,"[10, 11, 13, 19, 20, 24, 26, 28, 40, 52, 53, 57, 58, 64, 70, 71, 97, 124, 227, 321, 333, 436, 525, 836]",146.45833333333334,201.1436011010265,0.1762603373435502,0.9966010886667004
0.0,1.0,1.0,64.0,-1.0,1.0,-0.6581456275602026,87.0,-0.5851241355724973,228.0,"[8, 13, 15, 16, 18, 21, 22, 27, 29, 30, 31, 38, 39, 43, 49, 55, 82, 87]",34.611111111111114,21.55648623420413,"[54, 66, 94, 115, 184, 228]",123.5,62.79530237207239,0.2717379205312903,0.0281681256085641,0.9987250654391192,0.9939117199391172,-0.5851241355724973,521.0,"[8, 13, 15, 16, 20, 23, 24, 29, 31, 32, 33, 41, 42, 47, 57, 68, 113, 124, 151, 199, 257, 289, 446, 521]",108.29166666666669,136.73041577213982,0.204972372864257,0.9975691096110576
0.0,1.0,1.0,128.0,-1.0,1.0,-0.6585331103523505,78.0,-0.5816734127237673,242.0,"[11, 13, 14, 19, 20, 21, 24, 26, 27, 28, 29, 31, 34, 39, 42, 53, 77, 78]",32.55555555555556,18.91566729290306,"[60, 74, 97, 131, 224, 242]",138.0,70.85431061927943,0.2840794025386659,0.0253784494819098,0.9988294295514036,0.993176052765094,-0.5816734127237673,538.0,"[13, 15, 16, 21, 22, 23, 26, 28, 29, 30, 31, 33, 37, 43, 48, 63, 101, 103, 158, 207, 265, 353, 508, 538]",112.95833333333331,150.21941706679897,0.2095113876468411,0.9974506843289516
0.0,1.0,1.0,256.0,-1.0,1.0,-0.6809446795488231,58.0,-0.586306385844409,209.0,"[13, 14, 19, 21, 24, 26, 27, 28, 29, 35, 36, 38, 40, 42, 46, 52, 53, 58]",33.388888888888886,12.970645871389276,"[58, 59, 89, 130, 202, 209]",124.5,62.11481304809666,0.260713530046089,0.0281795649252795,0.9987871197761532,0.9938609842719432,-0.586306385844409,488.0,"[15, 16, 21, 23, 26, 28, 29, 30, 31, 38, 40, 43, 45, 51, 56, 62, 64, 69, 153, 154, 243, 327, 476, 488]",105.33333333333331,135.7861881374129,0.1938205095416281,0.997644182780964
0.0,0.4,0.6,64.0,-1.0,1.0,-0.6757856524321937,57.0,-0.6066574279278604,176.0,"[7, 8, 9, 11, 12, 13, 14, 15, 17, 22, 23, 24, 25, 30, 32, 38, 53, 57]",22.77777777777778,14.218749576041237,"[58, 74, 101, 111, 124, 176]",107.33333333333331,37.84030772719599,0.415366493282934,0.0307368170677513,0.9993258642476758,0.9947319465584306,-0.6066574279278604,401.0,"[7, 8, 9, 11, 12, 13, 14, 15, 17, 22, 24, 25, 26, 32, 35, 43, 62, 68, 146, 168, 202, 214, 232, 401]",75.25,98.13436791800652,0.325652365888455,0.9984076029031111
0.0,0.4,0.6,128.0,-1.0,1.0,-0.6648703864928693,65.0,-0.5993256573398937,196.0,"[8, 9, 10, 11, 12, 13, 15, 16, 17, 18, 21, 24, 26, 29, 34, 38, 57, 65]",23.5,15.706509620041126,"[88, 95, 105, 124, 145, 196]",125.5,36.763886265373706,0.4102590910342414,0.0263901274247983,0.999289195775792,0.9938102486047692,-0.5993256573398937,426.0,"[8, 9, 10, 11, 12, 13, 15, 16, 17, 18, 21, 25, 28, 31, 40, 46, 69, 77, 186, 194, 209, 238, 264, 426]",82.625,107.79487174722182,0.3168747074895437,0.9982204486626404
0.0,0.4,0.6,256.0,-1.0,1.0,-0.6540126331527926,68.0,-0.5941237177839039,185.0,"[8, 9, 10, 11, 12, 15, 17, 18, 19, 21, 22, 25, 26, 28, 41, 43, 64, 68]",25.38888888888889,17.26634133827652,"[79, 87, 88, 97, 153, 185]",114.83333333333331,39.742574428718406,0.3823270363174545,0.0293478211804537,0.9991932936185576,0.9943514290546254,-0.5941237177839039,326.0,"[8, 9, 10, 11, 12, 15, 17, 18, 19, 21, 22, 26, 27, 29, 48, 50, 80, 87, 170, 178, 179, 190, 277, 326]",76.20833333333333,90.36914073522124,0.3010486872400708,0.998383283425536
0.0,0.4,0.4,16.0,-1.0,2.0,-0.6615479836935335,66.0,-0.6077173070662778,189.0,"[3, 4, 5, 9, 18, 19, 21, 28, 34, 38, 43, 44, 45, 48, 54, 58, 61, 66]",33.22222222222222,20.06255648813247,"[34, 38, 103, 120, 130, 189]",102.33333333333331,53.84752135015646,0.3240227139560611,0.0357850767977312,0.9987969920570448,0.9949856248943008,-0.6077173070662778,338.0,"[3, 4, 5, 9, 19, 20, 23, 30, 40, 45, 50, 51, 52, 56, 63, 69, 74, 81, 110, 115, 219, 243, 259, 338]",82.41666666666667,88.57525833374062,0.2512196860711203,0.9982262641898864
0.0,0.4,0.8,16.0,-1.0,2.0,-0.6581223923731498,71.0,-0.5804065215905394,314.0,"[5, 8, 12, 13, 15, 23, 26, 33, 34, 37, 41, 46, 56, 59, 61, 64, 70, 71]",37.44444444444444,21.577308611445964,"[63, 94, 111, 127, 194, 314]",150.5,83.25212709995263,0.2577444177979734,0.0234256962946525,0.9985812122032672,0.9925418569254184,-0.5804065215905394,623.0,"[5, 8, 12, 13, 15, 24, 27, 39, 40, 45, 57, 67, 82, 85, 90, 93, 112, 113, 145, 194, 216, 236, 399, 623]",114.16666666666669,139.3965167745912,0.1820203903513658,0.9974200206398348
0.0,0.4,0.8,32.0,-1.0,2.0,-0.6638780949194633,66.0,-0.5852155263621324,266.0,"[8, 11, 13, 14, 18, 27, 28, 32, 33, 35, 36, 39, 49, 51, 55, 56, 62, 66]",35.166666666666664,17.708284313657643,"[81, 82, 89, 143, 163, 266]",137.33333333333334,65.59640911581128,0.2577871903287553,0.0252745089430937,0.9986968589222854,0.99320987654321,-0.5852155263621324,625.0,"[8, 11, 13, 14, 18, 27, 28, 33, 34, 36, 37, 40, 54, 56, 61, 62, 73, 78, 174, 176, 186, 352, 389, 625]",107.70833333333331,146.79903472850978,0.2045675288840808,0.9975839127713207
0.0,0.4,0.8,64.0,-1.0,2.0,-0.6849513390394997,48.0,-0.591802692603451,200.0,"[5, 6, 8, 13, 16, 18, 23, 24, 28, 30, 32, 33, 35, 36, 37, 40, 47, 48]",26.61111111111111,12.979209395922767,"[86, 114, 119, 120, 125, 200]",127.33333333333331,34.86959834711161,0.3424507441977762,0.0262858639988022,0.9991312392815236,0.9937172332149502,-0.591802692603451,408.0,"[5, 6, 8, 13, 16, 18, 23, 24, 28, 30, 32, 33, 36, 37, 38, 41, 50, 52, 173, 209, 215, 216, 225, 408]",80.66666666666667,100.8669365495398,0.276600203081472,0.9982701449863812
0.0,0.4,0.8,128.0,-1.0,2.0,-0.6751015260279813,55.0,-0.5993809188398798,173.0,"[5, 6, 7, 15, 18, 19, 21, 26, 27, 28, 29, 30, 31, 34, 37, 38, 51, 55]",26.5,13.55339235927465,"[99, 110, 121, 124, 170, 173]",132.83333333333334,28.51559027775664,0.3472852499191821,0.0249046878099078,0.9991368805848904,0.993438187045493,-0.5993809188398798,293.0,"[5, 6, 7, 15, 18, 19, 21, 26, 27, 28, 29, 30, 31, 34, 40, 41, 58, 65, 190, 205, 221, 224, 290, 293]",80.125,93.8501964569068,0.2771400134157283,0.998283890778054
0.0,0.4,0.8,256.0,-1.0,2.0,-0.673231181600122,56.0,-0.5975999468109351,182.0,"[6, 7, 8, 9, 11, 18, 19, 26, 27, 28, 29, 30, 31, 32, 37, 38, 40, 56]",25.11111111111111,13.228289924286798,"[77, 84, 102, 119, 175, 182]",123.16666666666669,41.39008201113992,0.3686303070808027,0.0268933680698386,0.9992073968769744,0.9939286318281751,-0.5975999468109351,375.0,"[6, 7, 8, 9, 11, 18, 19, 26, 27, 28, 29, 30, 31, 32, 37, 38, 43, 65, 162, 172, 194, 216, 365, 375]",81.16666666666667,106.39849100851426,0.2971610359877243,0.9982574565632985
0.0,0.4,1.0,16.0,-1.0,2.0,-0.6513869158090064,74.0,-0.6201752770629094,123.0,"[3, 18, 21, 24, 29, 30, 37, 38, 40, 43, 46, 47, 48, 49, 59, 60, 70, 74]",40.888888888888886,17.86644554865936,"[59, 64, 67, 96, 115, 123]",87.33333333333333,25.40778533354601,0.2245365130696829,0.0378167812144113,0.9984077421247404,0.995746659901911,-0.6201752770629094,290.0,"[3, 18, 21, 24, 29, 30, 39, 40, 42, 47, 53, 58, 59, 61, 79, 82, 105, 118, 143, 149, 152, 183, 214, 290]",84.95833333333333,69.93537443398886,0.1755150564286773,0.9981617647058824
0.0,0.4,1.0,32.0,-1.0,2.0,-0.6657548970676174,62.0,-0.6012556703900427,166.0,"[11, 12, 15, 19, 23, 24, 28, 33, 35, 38, 39, 44, 45, 46, 47, 52, 53, 62]",34.77777777777778,14.702817400286683,"[45, 55, 94, 101, 126, 166]",97.83333333333331,41.00982267159364,0.2518973435144563,0.0343219717657853,0.998716603484069,0.9952139353965838,-0.6012556703900427,305.0,"[11, 12, 15, 19, 23, 24, 28, 33, 35, 40, 41, 46, 47, 49, 53, 59, 60, 73, 124, 140, 190, 199, 236, 305]",77.58333333333333,77.78652232588597,0.2084981217019678,0.9983483902620582
0.0,0.4,1.0,64.0,-1.0,2.0,-0.6809615088236757,51.0,-0.6114568711387922,131.0,"[12, 13, 14, 16, 19, 22, 24, 27, 28, 29, 30, 34, 35, 36, 38, 40, 45, 51]",28.5,10.970921160554893,"[90, 94, 103, 116, 129, 131]",110.5,16.028620235898867,0.3053861438520051,0.0300929826181254,0.9990353371242892,0.9945712836123796,-0.6114568711387922,235.0,"[12, 13, 14, 16, 19, 22, 24, 27, 28, 29, 30, 34, 35, 36, 38, 40, 46, 56, 177, 181, 191, 216, 232, 235]",72.95833333333333,77.9794199167675,0.2536721825285368,0.998465758175574
0.0,0.4,1.0,128.0,-1.0,2.0,-0.6694977971787367,57.0,-0.6049557721238775,154.0,"[11, 13, 14, 17, 18, 21, 27, 28, 29, 31, 32, 33, 36, 37, 39, 45, 46, 57]",29.666666666666668,12.25198396632607,"[102, 106, 129, 134, 153, 154]",129.66666666666666,20.33606539022619,0.2948959801263017,0.0255698639737008,0.9989761034389386,0.993598849991544,-0.6049557721238775,266.0,"[11, 13, 14, 17, 18, 21, 27, 28, 29, 31, 32, 33, 40, 41, 43, 52, 53, 67, 192, 196, 234, 241, 265, 266]",81.83333333333333,89.08734789831581,0.2339401645734445,0.9982405386658546
0.0,0.4,1.0,256.0,-1.0,2.0,-0.6716511449578746,55.0,-0.6023819604238685,141.0,"[9, 11, 12, 16, 18, 19, 21, 25, 28, 29, 31, 32, 34, 36, 38, 40, 41, 55]",27.5,11.908213785264168,"[87, 99, 106, 130, 135, 141]",116.33333333333331,20.047166605006524,0.3191005717123508,0.0283929365272776,0.9990861088545898,0.9942753255538644,-0.6023819604238685,259.0,"[9, 11, 12, 16, 18, 19, 21, 25, 28, 29, 31, 32, 34, 36, 40, 42, 43, 64, 176, 189, 199, 237, 245, 259]",75.625,84.17185421307212,0.2599328637764192,0.9983980865857992
0.0,0.4,0.4,32.0,-1.0,2.0,-0.6658213124291813,57.0,-0.6071404279636994,162.0,"[1, 4, 6, 10, 11, 16, 18, 20, 26, 27, 34, 36, 37, 38, 49, 51, 55, 57]",27.55555555555556,17.531629265169794,"[25, 34, 61, 116, 150, 162]",91.33333333333331,54.23918222916795,0.4086845572772399,0.0421428310452795,0.9990832882029064,0.9955437172332148,-0.6071404279636994,363.0,"[1, 4, 6, 10, 11, 16, 19, 21, 27, 28, 38, 40, 41, 43, 55, 60, 67, 69, 100, 115, 156, 286, 342, 363]",79.91666666666667,102.08326530609978,0.3193473685948314,0.9982891776210052
0.0,0.6,0.4,16.0,-1.0,2.0,-0.660269730503511,90.0,-0.6191782812977218,194.0,"[4, 5, 7, 8, 9, 11, 14, 17, 18, 19, 20, 23, 24, 25, 36, 42, 85, 90]",25.38888888888889,24.08120264828263,"[43, 52, 133, 143, 182, 194]",124.5,58.38021925275718,0.4613185717853237,0.028441022314762,0.9991989349219244,0.9938609842719432,-0.6191782812977218,423.0,"[4, 5, 7, 8, 9, 11, 18, 24, 25, 26, 27, 30, 31, 32, 49, 58, 104, 116, 158, 170, 249, 323, 399, 423]",96.08333333333331,124.66017697012236,0.3111987371787375,0.997882090713766
0.0,0.6,0.4,32.0,-1.0,2.0,-0.6671720513797362,77.0,-0.6133423780214287,204.0,"[3, 4, 7, 8, 9, 10, 11, 12, 14, 18, 22, 23, 26, 27, 29, 55, 73, 77]",23.77777777777778,21.69115425327813,"[15, 24, 40, 94, 132, 204]",84.83333333333333,67.2022238388648,0.4852196880095031,0.0558072906790053,0.9992765028432168,0.995873499069846,-0.6133423780214287,430.0,"[3, 4, 7, 8, 10, 11, 12, 13, 15, 19, 28, 29, 32, 33, 36, 62, 72, 94, 99, 113, 119, 193, 248, 430]",70.41666666666667,96.9398080712402,0.3616580761909427,0.9985307863438732
0.0,0.6,0.4,64.0,-1.0,2.0,-0.6472323200119992,72.0,-0.6038111257768619,186.0,"[4, 5, 6, 8, 10, 11, 13, 15, 16, 17, 19, 20, 21, 22, 62, 65, 66, 72]",25.11111111111111,22.663943191502536,"[13, 17, 19, 37, 137, 186]",68.16666666666667,67.91272994725576,0.463778245711108,0.0882212325963187,0.9992073968769744,0.9967190935227463,-0.6038111257768619,364.0,"[4, 5, 6, 8, 10, 11, 14, 16, 17, 18, 21, 23, 25, 27, 55, 66, 70, 95, 99, 108, 109, 122, 281, 364]",65.58333333333333,86.96642870799182,0.36291036570231,0.9986529124160448
0.0,0.6,0.4,128.0,-1.0,2.0,-0.6182667924094414,132.0,-0.6020349840437653,182.0,"[3, 4, 5, 6, 9, 10, 11, 13, 14, 15, 19, 20, 21, 25, 49, 60, 89, 132]",28.05555555555556,33.31911733895293,"[26, 43, 51, 69, 151, 182]",87.0,58.30666056864058,0.5041659217922911,0.0446412210035872,0.999057902337756,0.9957635717909692,-0.6020349840437653,361.0,"[3, 4, 5, 6, 9, 10, 11, 13, 14, 15, 19, 20, 23, 27, 64, 83, 88, 119, 128, 148, 169, 255, 313, 361]",79.45833333333333,100.93809124353842,0.3952154676806615,0.998300808675498
0.0,0.6,0.4,256.0,-1.0,2.0,-0.6258154455760251,96.0,-0.5942120130142482,225.0,"[3, 4, 5, 6, 8, 11, 13, 14, 15, 17, 18, 19, 22, 26, 44, 50, 85, 96]",25.33333333333333,26.16188916046477,"[43, 49, 66, 88, 167, 225]",106.33333333333331,67.11101913165147,0.4993916515678641,0.0352646696367228,0.999196114270241,0.9947826822256046,-0.5942120130142482,501.0,"[3, 4, 5, 6, 8, 11, 13, 14, 15, 17, 18, 19, 22, 30, 56, 62, 116, 125, 150, 151, 180, 186, 333, 501]",85.20833333333333,118.88649319367146,0.3873481518199654,0.9981548918100458
0.0,0.6,0.6,16.0,-1.0,2.0,-0.6618999732429921,76.0,-0.5786127704094808,354.0,"[6, 7, 12, 13, 16, 18, 20, 21, 22, 23, 24, 30, 35, 37, 49, 50, 58, 76]",28.72222222222222,18.399292122722656,"[68, 70, 88, 96, 190, 354]",144.33333333333334,102.39411875471929,0.3376847102834156,0.027049971449667,0.9990254648433974,0.9928547268729916,-0.5786127704094808,830.0,"[7, 8, 13, 14, 17, 19, 21, 22, 25, 26, 29, 35, 43, 48, 69, 70, 83, 127, 182, 184, 211, 222, 480, 830]",116.04166666666669,182.4784186250223,0.2349006700752004,0.9973734964218648
0.0,0.6,0.6,32.0,-1.0,2.0,-0.6950677402741307,51.0,-0.593096022102727,244.0,"[8, 14, 16, 23, 24, 25, 27, 28, 29, 30, 31, 32, 35, 36, 38, 40, 42, 51]",29.38888888888889,10.187895262346547,"[71, 72, 81, 96, 144, 244]",118.0,61.54943812362005,0.2949361843830254,0.0299797291133972,0.998991617023197,0.9941907661085744,-0.593096022102727,525.0,"[8, 14, 16, 23, 24, 25, 27, 28, 29, 30, 32, 34, 38, 39, 41, 45, 47, 62, 161, 162, 174, 199, 297, 525]",86.66666666666667,116.5499416082603,0.2347219558830049,0.9981184125936828
0.0,0.6,0.6,64.0,-1.0,2.0,-0.6633177025340606,68.0,-0.5855713623936425,239.0,"[8, 9, 10, 11, 12, 13, 14, 15, 18, 19, 24, 29, 31, 32, 36, 37, 60, 68]",24.77777777777778,16.708466102732856,"[32, 34, 45, 60, 162, 239]",95.33333333333331,78.14445313363935,0.3930462459526329,0.0465626104644037,0.9992243207870748,0.9953407745645187,-0.5855713623936425,505.0,"[8, 9, 10, 11, 12, 13, 14, 15, 18, 19, 25, 31, 34, 35, 39, 40, 78, 94, 103, 105, 121, 143, 347, 505]",76.20833333333333,114.84880610563128,0.315348553019983,0.9983832834255358
0.0,0.6,0.6,128.0,-1.0,2.0,-0.6608742585404356,70.0,-0.595137278322339,199.0,"[7, 8, 10, 11, 12, 13, 15, 16, 18, 19, 25, 26, 27, 31, 34, 41, 61, 70]",24.666666666666668,17.175564037317667,"[36, 47, 50, 77, 158, 199]",94.5,61.802777715353,0.3960869828802786,0.0406792241007148,0.9992299620904412,0.995383054287164,-0.595137278322339,416.0,"[7, 8, 10, 11, 12, 13, 15, 16, 18, 19, 25, 26, 27, 32, 39, 47, 75, 90, 113, 131, 135, 168, 354, 416]",75.29166666666667,104.28745496889302,0.3179122483880871,0.998406545534521
0.0,0.6,0.6,256.0,-1.0,2.0,-0.6539379596753268,64.0,-0.5896675356927095,220.0,"[5, 7, 8, 9, 12, 13, 14, 15, 17, 18, 25, 26, 30, 33, 34, 36, 63, 64]",23.83333333333333,16.912355772563966,"[50, 61, 62, 98, 199, 220]",115.0,68.70225614927067,0.4165272731081555,0.0323981106606897,0.9992722718656918,0.9943429731100965,-0.5896675356927095,506.0,"[5, 7, 8, 9, 12, 13, 14, 15, 17, 18, 25, 26, 33, 36, 37, 40, 78, 80, 141, 153, 154, 223, 468, 506]",88.25,133.16445033616642,0.3263104408769229,0.9980777039029588
0.0,0.4,0.4,64.0,-1.0,2.0,-0.6389049342829441,73.0,-0.60486354059771,129.0,"[1, 2, 5, 6, 7, 8, 9, 14, 15, 18, 19, 20, 24, 27, 46, 50, 54, 73]",22.11111111111111,19.905021390172124,"[28, 67, 73, 98, 122, 129]",86.16666666666667,34.59969492479506,0.5934624418401573,0.0391620805648112,0.9993597120678762,0.995805851513614,-0.60486354059771,240.0,"[1, 2, 5, 6, 7, 8, 9, 14, 15, 18, 19, 20, 27, 30, 58, 65, 72, 91, 104, 156, 163, 200, 233, 240]",65.125,75.35157181505905,0.4604142452118085,0.9986645434705376
0.0,0.6,0.8,16.0,-1.0,2.0,-0.6074316614740345,258.0,-0.5790430031437243,328.0,"[8, 9, 11, 12, 14, 16, 17, 18, 22, 23, 24, 27, 32, 37, 51, 63, 244, 258]",49.22222222222222,72.74197592675355,"[59, 70, 71, 118, 158, 328]",134.0,93.23625904121208,0.3218399845717986,0.0286017766453983,0.9979860546980774,0.99337899543379,-0.5790430031437243,1017.0,"[8, 9, 11, 12, 17, 20, 21, 22, 26, 29, 30, 39, 44, 51, 76, 100, 138, 155, 156, 346, 387, 414, 421, 1017]",147.875,225.58097446741084,0.2154956862236842,0.9965661955032228
0.0,0.6,0.8,32.0,-1.0,2.0,-0.6631773134700382,84.0,-0.5961571403483328,216.0,"[7, 10, 11, 13, 17, 19, 22, 23, 24, 26, 27, 31, 35, 39, 46, 47, 73, 84]",30.77777777777778,20.34304564643258,"[33, 52, 61, 145, 149, 216]",109.33333333333331,65.41321646952464,0.3126129683112881,0.0344776547146027,0.9989196904052712,0.9946304752240824,-0.5961571403483328,542.0,"[7, 10, 11, 13, 17, 19, 22, 23, 26, 28, 30, 35, 40, 45, 55, 56, 98, 108, 124, 144, 154, 400, 429, 542]",101.5,142.46637030073683,0.2399048784520571,0.9977419893755604
0.0,0.6,0.8,64.0,-1.0,2.0,-0.6574868269304502,76.0,-0.5900136495433408,201.0,"[7, 8, 11, 15, 17, 18, 19, 22, 23, 27, 29, 30, 35, 36, 40, 41, 67, 76]",28.944444444444443,18.10915122319904,"[23, 46, 50, 95, 146, 201]",93.5,62.494666439091695,0.3249377418465805,0.0421931844180246,0.9990127719108224,0.9954337899543378,-0.5900136495433408,523.0,"[7, 8, 11, 15, 18, 19, 20, 24, 25, 29, 31, 32, 38, 39, 43, 46, 89, 92, 105, 128, 135, 204, 350, 523]",84.625,119.07484078651264,0.2558511980002281,0.9981696949703092
0.0,0.6,0.8,128.0,-1.0,2.0,-0.662362217190854,68.0,-0.5849637205394128,231.0,"[7, 8, 10, 16, 17, 20, 21, 23, 24, 25, 28, 29, 32, 36, 42, 43, 66, 68]",28.61111111111111,16.88569048661844,"[53, 63, 70, 85, 148, 231]",108.33333333333331,62.91705297894647,0.3248022703181943,0.0333812887364496,0.9990296958209224,0.9946812108912566,-0.5849637205394128,555.0,"[7, 8, 10, 16, 17, 20, 21, 23, 24, 25, 29, 30, 35, 39, 48, 49, 82, 85, 143, 155, 162, 179, 300, 555]",85.91666666666667,120.77765958800308,0.2581376597974362,0.998136916544012
0.0,0.6,0.8,256.0,-1.0,2.0,-0.6689770610331228,59.0,-0.5817025496197505,232.0,"[7, 8, 13, 15, 20, 21, 22, 24, 25, 27, 28, 32, 36, 40, 41, 42, 56, 59]",28.666666666666668,14.406788523316203,"[60, 74, 84, 99, 190, 232]",123.16666666666669,64.33873034356695,0.3134624064269005,0.0286649797085368,0.999026875169239,0.9939286318281751,-0.5817025496197505,560.0,"[7, 8, 13, 15, 20, 21, 22, 24, 25, 27, 28, 34, 38, 43, 44, 45, 69, 72, 156, 171, 183, 228, 464, 560]",96.54166666666669,139.51701782896913,0.2481935272797388,0.9978672875535028
0.0,0.6,1.0,16.0,-1.0,2.0,-0.6441008033296973,127.0,-0.5785388794064625,321.0,"[5, 10, 12, 14, 16, 20, 21, 24, 25, 27, 29, 71, 72, 79, 81, 86, 124, 127]",46.833333333333336,38.572082592926655,"[54, 55, 102, 126, 146, 321]",134.0,90.2237958264522,0.2500781806658962,0.0281630192435969,0.9981059323946204,0.99337899543379,-0.5785388794064625,705.0,"[5, 10, 12, 14, 18, 23, 24, 30, 32, 35, 37, 89, 90, 106, 108, 117, 170, 171, 193, 196, 259, 314, 354, 705]",129.66666666666666,155.09719175049202,0.1766607332308674,0.9970277368928588
