LSX-UniWue/explainable-ERP-fraud-detection/outputs/summary/ex2/NALU_zscore.csv
cpus,n_layers,n_bottleneck,epochs,batch_size,verbose,learning_rate,shuffle,n_inputs,seed,fraud_ranks_eval,rank_mean_eval,rank_std_eval,max_fraud_eval,min_detect_eval,auc_pr_eval,auc_roc_eval,fraud_ranks_test,rank_mean_test,rank_std_test,max_fraud_test,min_detect_test,auc_pr_test,auc_roc_test,max_fraud_joint,min_detect_joint,fraud_ranks_joint,rank_mean_joint,rank_std_joint,auc_pr_joint,auc_roc_joint
8.0,1.0,16.0,100.0,32.0,2.0,0.0001,1.0,190.0,0.0,"[3, 4, 6, 7, 9, 10, 28, 29, 31, 32, 37, 38, 40, 41, 107, 120, 260, 266]",59.333333333333336,78.4686774027276,-0.05175614,266.0,0.3263959073934401,0.9974698754400216,"[1, 2, 3, 4, 34, 36]",13.333333333333334,15.358674711344362,-0.10001841,36.0,0.718954248366013,0.9995010992727889,-0.05175614,440.0,"[1, 2, 3, 4, 7, 8, 10, 11, 13, 14, 32, 33, 35, 36, 41, 42, 44, 45, 114, 126, 165, 187, 428, 440]",76.70833333333333,118.91855727298784,0.4990677388230758,0.9983705950024532
8.0,1.0,32.0,100.0,32.0,2.0,0.001,1.0,190.0,0.0,"[3, 4, 6, 7, 19, 20, 28, 29, 31, 32, 39, 40, 49, 51, 108, 113, 117, 126]",45.66666666666666,40.18291510911904,-0.04349989,126.0,0.2937283197183564,0.9981637557541294,"[1, 2, 3, 4, 333, 375]",119.66666666666669,166.14418102626672,-0.010664981,375.0,0.6718358358358358,0.9941062066632844,-0.010664981,1175.0,"[1, 2, 3, 4, 7, 8, 10, 11, 23, 24, 32, 33, 35, 36, 47, 48, 61, 63, 130, 135, 139, 148, 1090, 1175]",136.04166666666666,304.08366161944457,0.459153107866683,0.9968649021299631
8.0,2.0,32.0,100.0,32.0,2.0,0.001,1.0,190.0,0.0,"[3, 4, 6, 7, 8, 10, 28, 29, 31, 32, 39, 40, 42, 43, 138, 139, 148, 153]",50.0,52.33227175144097,-0.045523033,153.0,0.3295510294904381,0.997943744922827,"[1, 2, 3, 4, 94, 119]",37.16666666666666,49.56281087894655,-0.018324649,119.0,0.6839352762381548,0.9982918992051412,-0.018324649,506.0,"[1, 2, 3, 4, 7, 8, 10, 11, 12, 14, 32, 33, 35, 36, 46, 47, 51, 52, 166, 168, 177, 182, 349, 506]",81.33333333333333,121.49679922624392,0.4898295706502721,0.9982532270889374
8.0,1.0,64.0,100.0,32.0,2.0,0.001,1.0,190.0,0.0,"[1, 3, 7, 9, 23, 25, 29, 30, 33, 35, 39, 40, 42, 44, 88, 90, 93, 104]",40.833333333333336,31.15061975484776,-0.03161621,104.0,0.3320790685819058,0.9984091524505824,"[1, 2, 3, 4, 62, 65]",22.83333333333333,28.783193398617573,-0.0066810977,65.0,0.6954921422663358,0.9990191104346356,-0.0066810977,210.0,"[1, 2, 3, 4, 5, 7, 11, 13, 27, 29, 33, 34, 37, 39, 43, 44, 46, 48, 104, 110, 114, 148, 205, 210]",54.875,60.19919192425537,0.4818558974834511,0.9989246561437344
8.0,2.0,64.0,100.0,32.0,2.0,0.001,1.0,190.0,0.0,"[3, 4, 15, 16, 24, 25, 36, 38, 42, 44, 45, 46, 48, 49, 99, 105, 106, 128]",48.5,35.82247897619594,-0.030742839,128.0,0.2358308866419528,0.998019902518278,"[1, 2, 3, 4, 172, 174]",59.333333333333336,80.38172816145608,-0.009991837,174.0,0.6772587543437583,0.9971672585827838,-0.009991837,670.0,"[1, 2, 3, 4, 7, 8, 19, 20, 28, 29, 44, 46, 50, 52, 60, 61, 63, 64, 142, 151, 152, 192, 667, 670]",105.625,177.49807804123776,0.3996561517104123,0.9976367812008324
8.0,1.0,128.0,100.0,32.0,2.0,0.001,1.0,190.0,0.0,"[3, 4, 21, 22, 24, 26, 28, 29, 37, 38, 40, 41, 43, 45, 109, 116, 134, 137]",49.833333333333336,41.60428663811779,-0.012436382,137.0,0.2413495719294474,0.997952206877877,"[1, 2, 3, 4, 58, 59]",21.166666666666668,26.41600945554713,-0.0062682717,59.0,0.6979836353009935,0.9991036698799256,-0.0062682717,220.0,"[1, 2, 3, 4, 7, 8, 25, 26, 28, 30, 32, 33, 42, 43, 45, 46, 48, 51, 126, 134, 178, 181, 218, 220]",63.79166666666666,69.0519002675202,0.4246527552698212,0.9986983792654248
8.0,2.0,128.0,100.0,32.0,2.0,0.001,1.0,190.0,0.0,"[6, 7, 10, 11, 13, 14, 30, 32, 34, 35, 40, 41, 42, 44, 75, 85, 88, 89]",38.66666666666666,27.446918466985203,-0.030435592,89.0,0.2745561382472381,0.9985191578662334,"[1, 2, 3, 4, 81, 84]",29.166666666666668,37.73334805653423,-0.009749198,84.0,0.6888594944150499,0.9986977845425334,-0.009749198,240.0,"[1, 2, 3, 4, 10, 11, 14, 15, 17, 18, 34, 36, 38, 39, 44, 45, 47, 49, 94, 127, 136, 138, 235, 240]",58.208333333333336,67.48023115863062,0.4507718186958719,0.998840066656516
8.0,1.0,16.0,100.0,32.0,2.0,0.01,1.0,190.0,0.0,"[2, 4, 6, 8, 22, 24, 28, 30, 31, 33, 38, 40, 44, 46, 266, 344, 443, 461]",103.88888888888889,151.95024364314088,-0.07610829,461.0,0.2753828449830981,0.9952077127899628,"[1, 2, 3, 4, 80, 82]",28.666666666666668,37.02101505301489,-0.3071616,82.0,0.6892784552845528,0.9987231523761204,-0.07610829,1041.0,"[2, 4, 6, 8, 22, 23, 24, 25, 26, 28, 33, 35, 36, 38, 44, 46, 51, 53, 188, 190, 598, 780, 993, 1041]",178.91666666666666,313.3967023686681,0.2869327299094233,0.995776869850615
8.0,2.0,16.0,100.0,32.0,2.0,0.01,1.0,190.0,0.0,"[7, 9, 13, 15, 21, 23, 24, 26, 33, 35, 43, 45, 46, 48, 266, 344, 444, 461]",105.72222222222224,151.09114451422124,-0.07605356,461.0,0.2109040571048063,0.995114631284412,"[1, 2, 3, 4, 80, 81]",28.5,36.782015532956684,-0.3076769,81.0,0.689429012345679,0.9987316083206494,-0.07605356,1041.0,"[4, 5, 6, 7, 11, 13, 17, 19, 26, 28, 29, 31, 38, 40, 48, 50, 51, 53, 187, 188, 598, 782, 997, 1041]",177.875,314.6008466427472,0.3022898397475086,0.9958033040653708
8.0,1.0,32.0,100.0,32.0,2.0,0.01,1.0,190.0,0.0,"[1, 3, 18, 20, 24, 26, 32, 40, 42, 43, 45, 46, 47, 49, 97, 106, 247, 414]",72.22222222222223,98.9205941683393,-0.04833557,414.0,0.267974474144353,0.996815484249481,"[1, 2, 3, 4, 46, 142]",33.0,51.277025394745095,-0.05729126,142.0,0.6918248622167789,0.9985032978183664,-0.04833557,689.0,"[1, 3, 5, 6, 8, 9, 22, 24, 28, 30, 36, 44, 47, 48, 50, 51, 52, 54, 141, 147, 156, 323, 404, 689]",99.08333333333331,157.30779718613934,0.35487920897534,0.9978027880694986
8.0,2.0,32.0,100.0,32.0,2.0,0.01,1.0,190.0,0.0,"[7, 8, 26, 27, 29, 30, 39, 41, 50, 53, 60, 61, 63, 64, 96, 106, 248, 415]",79.05555555555556,96.85067097927512,-0.049404003,415.0,0.1664645113300059,0.9964685440924272,"[1, 2, 3, 4, 45, 101]",26.0,36.968455021364726,-0.058205545,101.0,0.695086175284195,0.9988584474885844,-0.049404003,687.0,"[7, 8, 10, 11, 12, 13, 30, 31, 34, 35, 44, 46, 55, 58, 65, 66, 68, 69, 139, 145, 156, 240, 399, 687]",101.16666666666669,150.15482750222262,0.2309447726626689,0.9977499196399872
8.0,2.0,16.0,100.0,32.0,2.0,0.0001,1.0,190.0,0.0,"[2, 3, 7, 8, 10, 11, 28, 29, 34, 35, 37, 38, 43, 44, 112, 113, 284, 373]",67.27777777777777,98.48169912084374,-0.051459987,373.0,0.3241226148694637,0.9970665222493004,"[1, 2, 3, 4, 28, 30]",11.333333333333334,12.538828582536018,-0.17188317,30.0,0.7297619047619047,0.9996025706071368,-0.051459987,641.0,"[2, 3, 4, 5, 6, 7, 11, 12, 14, 15, 32, 33, 38, 39, 41, 42, 47, 48, 110, 114, 197, 198, 495, 641]",89.75,155.3966028157201,0.4400605513266611,0.9980396386337106
8.0,1.0,64.0,100.0,32.0,2.0,0.01,1.0,190.0,0.0,"[1, 3, 21, 23, 27, 29, 30, 32, 36, 38, 39, 41, 42, 44, 87, 91, 92, 102]",43.22222222222222,29.06612299865325,-0.040482588,102.0,0.293552267801462,0.9982878644281976,"[1, 2, 3, 4, 364, 365]",123.16666666666669,170.65112233898594,-0.009579874,365.0,0.6716957699834412,0.9939286318281751,-0.009579874,1137.0,"[1, 2, 3, 4, 5, 7, 25, 27, 31, 33, 34, 36, 40, 42, 43, 45, 46, 48, 107, 111, 112, 122, 1136, 1137]",133.20833333333334,304.5634825952638,0.4399116207741051,0.996936803194099
8.0,2.0,64.0,100.0,32.0,2.0,0.01,1.0,190.0,0.0,"[1, 3, 21, 22, 23, 25, 26, 28, 32, 34, 39, 40, 42, 43, 83, 84, 98, 100]",41.333333333333336,29.11662373589661,-0.044485386,100.0,0.3067150530230657,0.9983837665854318,"[1, 2, 3, 4, 94, 95]",33.166666666666664,43.37978279746864,-0.016724918,95.0,0.6860582306830907,0.9984948418738372,-0.016724918,493.0,"[1, 3, 4, 5, 6, 7, 25, 26, 27, 29, 30, 32, 36, 38, 43, 44, 46, 47, 98, 99, 114, 117, 492, 493]",77.58333333333333,129.50608630056308,0.4155326835404755,0.9983483902620582
8.0,1.0,128.0,100.0,32.0,2.0,0.01,1.0,190.0,0.0,"[2, 3, 23, 24, 25, 27, 30, 31, 33, 36, 39, 40, 42, 43, 80, 83, 91, 94]",41.44444444444444,26.81256385068227,-0.024298854,94.0,0.2724235198837922,0.9983781252820652,"[1, 2, 3, 4, 53, 54]",19.5,24.06068716114872,-0.0062653334,54.0,0.7009084556254367,0.9991882293252156,-0.0062653334,159.0,"[1, 2, 3, 4, 6, 7, 27, 28, 29, 31, 34, 35, 37, 40, 43, 44, 46, 47, 126, 132, 140, 143, 158, 159]",55.083333333333336,53.097329395073054,0.4418249416891341,0.9989193693007832
8.0,2.0,128.0,100.0,32.0,2.0,0.01,1.0,190.0,0.0,"[14, 15, 28, 29, 31, 32, 38, 39, 41, 42, 46, 47, 51, 52, 83, 84, 88, 90]",47.22222222222222,23.239228222879127,-0.027138276,90.0,0.1904741943104158,0.9980847775069952,"[1, 2, 3, 4, 161, 162]",55.5,74.95943347349062,-0.007839729,162.0,0.6780154896096924,0.9973617453069508,-0.007839729,477.0,"[2, 3, 4, 5, 18, 19, 32, 33, 35, 36, 43, 44, 46, 47, 52, 53, 60, 61, 134, 135, 139, 141, 474, 477]",87.20833333333333,124.3948616190485,0.3033332941582,0.9981041381177148
8.0,1.0,32.0,100.0,32.0,2.0,0.0001,1.0,190.0,0.0,"[3, 4, 6, 7, 9, 10, 30, 31, 33, 34, 37, 38, 44, 45, 80, 86, 87, 103]",38.16666666666666,30.663496212923928,-0.041655328,103.0,0.3378843749524981,0.9985445437313836,"[1, 2, 3, 4, 335, 337]",113.66666666666669,157.21711809539767,-0.010487733,337.0,0.6721215879061665,0.9944106206663283,-0.010487733,1098.0,"[1, 2, 3, 4, 7, 8, 10, 11, 13, 14, 34, 35, 38, 39, 42, 43, 49, 50, 96, 102, 103, 121, 1095, 1098]",125.75,294.7155761634144,0.4968479977302154,0.9971260721717504
8.0,2.0,32.0,100.0,32.0,2.0,0.0001,1.0,190.0,0.0,"[2, 3, 5, 6, 9, 10, 27, 28, 30, 31, 36, 38, 43, 45, 74, 80, 97, 98]",36.77777777777778,30.536964040970187,-0.04836604,98.0,0.3751588169343983,0.9986150600234678,"[1, 2, 3, 4, 539, 546]",182.5,254.56809828937065,-0.010076578,546.0,0.6700442414728128,0.99091831557585,-0.010076578,1551.0,"[1, 2, 3, 4, 6, 7, 9, 10, 13, 14, 31, 32, 34, 35, 41, 43, 48, 50, 89, 96, 119, 120, 1543, 1551]",162.54166666666666,418.8990510022141,0.5187980287568218,0.996192415706576
8.0,1.0,64.0,100.0,32.0,2.0,0.0001,1.0,190.0,0.0,"[2, 3, 6, 7, 9, 10, 27, 28, 31, 32, 53, 56, 64, 65, 72, 78, 83, 88]",39.66666666666666,29.4599539865372,-0.023782572,88.0,0.3447008716036987,0.9984683861359328,"[1, 2, 3, 4, 63, 64]",22.83333333333333,28.77161023570901,-0.0060737752,64.0,0.6955191798941798,0.9990191104346356,-0.0060737752,201.0,"[1, 2, 3, 4, 6, 7, 10, 11, 13, 14, 31, 32, 35, 36, 63, 66, 79, 81, 99, 124, 133, 138, 200, 201]",57.875,60.64123493960195,0.4932232331986779,0.9988485256052378
8.0,2.0,64.0,100.0,32.0,2.0,0.0001,1.0,190.0,0.0,"[1, 3, 8, 10, 12, 13, 27, 29, 30, 32, 39, 41, 45, 48, 69, 71, 72, 78]",34.888888888888886,24.34905631045845,-0.0402768,78.0,0.3629114803576055,0.9987109621807024,"[1, 2, 3, 4, 160, 181]",58.5,79.4328857170211,-0.008646111,181.0,0.6773998618784529,0.9972095383054288,-0.008646111,524.0,"[1, 2, 3, 4, 5, 7, 12, 14, 16, 17, 31, 33, 34, 36, 44, 46, 50, 53, 98, 108, 110, 122, 474, 524]",76.83333333333333,132.39387783764357,0.4943891336755148,0.9983674228966825
8.0,1.0,128.0,100.0,32.0,2.0,0.0001,1.0,190.0,0.0,"[1, 3, 9, 10, 12, 13, 27, 29, 33, 35, 36, 38, 44, 46, 73, 76, 83, 91]",36.61111111111112,27.21139240360937,-0.011991906,91.0,0.3561968143559795,0.998623521978518,"[1, 2, 3, 4, 54, 56]",20.0,24.77229635432829,-0.007736638,56.0,0.6999559082892416,0.9991628614916288,-0.007736638,155.0,"[1, 2, 3, 4, 5, 7, 13, 14, 16, 17, 31, 33, 37, 39, 41, 43, 51, 53, 91, 107, 128, 142, 151, 155]",49.333333333333336,49.82775888554045,0.4991386444168276,0.9990652861662354
8.0,2.0,128.0,100.0,32.0,2.0,0.0001,1.0,190.0,0.0,"[3, 4, 7, 9, 17, 19, 30, 32, 36, 37, 41, 42, 43, 46, 64, 75, 78, 87]",37.22222222222222,24.987898305547727,-0.03503302,87.0,0.297394106101414,0.9985924948100008,"[1, 2, 3, 4, 63, 66]",23.166666666666668,29.254154500780835,-0.008354519,66.0,0.695045695045695,0.9990021985455776,-0.008354519,263.0,"[1, 2, 3, 4, 7, 8, 11, 13, 21, 23, 35, 37, 41, 42, 48, 49, 50, 53, 80, 105, 110, 137, 253, 263]",58.16666666666666,70.03788657259409,0.4645287861034326,0.9988411240251062
8.0,1.0,16.0,100.0,32.0,2.0,0.001,1.0,190.0,0.0,"[3, 4, 6, 7, 9, 10, 28, 29, 31, 32, 36, 38, 42, 44, 104, 109, 263, 414]",67.16666666666667,103.38667977817816,-0.050040938,414.0,0.324288309503862,0.9970721635526671,"[1, 2, 3, 4, 43, 56]",18.166666666666668,22.490121288146835,-0.06788234,56.0,0.7039036544850498,0.9992558768814476,-0.050040938,696.0,"[1, 2, 3, 4, 7, 8, 10, 11, 13, 14, 32, 33, 35, 36, 40, 42, 46, 48, 138, 157, 161, 168, 424, 696]",88.70833333333333,156.3005862557428,0.4950649237542553,0.9980660728484664
8.0,2.0,16.0,100.0,32.0,2.0,0.001,1.0,190.0,0.0,"[8, 9, 12, 13, 15, 16, 28, 29, 31, 32, 40, 41, 43, 44, 120, 121, 267, 319]",66.0,86.69807123319154,-0.054273486,319.0,0.2393028326942819,0.997131397238018,"[1, 2, 3, 4, 35, 39]",14.0,16.32993161855452,-0.17435165,39.0,0.716117216117216,0.9994672754946728,-0.054273486,541.0,"[7, 8, 9, 10, 12, 13, 16, 17, 19, 20, 32, 33, 35, 36, 44, 45, 48, 49, 119, 124, 203, 209, 474, 541]",88.45833333333333,138.32328653275349,0.3081000519484653,0.9980724170600078
8.0,1.0,16.0,100.0,32.0,2.0,0.0001,1.0,190.0,1.0,"[2, 3, 6, 7, 9, 10, 28, 29, 34, 35, 37, 38, 43, 44, 111, 116, 263, 265]",60.0,78.61792275160784,-0.050725736,265.0,0.3393975934684419,0.9974360276198212,"[1, 2, 3, 4, 24, 28]",10.333333333333334,11.175369742826806,-0.14956446,28.0,0.7371031746031745,0.9996533062743108,-0.050725736,446.0,"[1, 2, 3, 4, 6, 7, 10, 11, 13, 14, 32, 33, 38, 39, 41, 42, 47, 48, 103, 110, 181, 194, 436, 446]",77.54166666666667,121.02857072012192,0.5049411996903804,0.9983494476306484
8.0,1.0,32.0,100.0,32.0,2.0,0.001,1.0,190.0,1.0,"[3, 4, 6, 7, 12, 13, 31, 32, 34, 35, 39, 40, 47, 48, 108, 111, 117, 124]",45.05555555555556,40.09221623294397,-0.044244148,124.0,0.3073889341500401,0.9981947829226464,"[1, 2, 3, 4, 350, 353]",118.83333333333331,164.5249896587817,-0.010661209,353.0,0.6718804802374208,0.9941484863859292,-0.010661209,1085.0,"[1, 2, 3, 4, 7, 8, 10, 11, 16, 17, 36, 37, 39, 40, 44, 45, 52, 53, 128, 131, 137, 144, 1081, 1085]",130.45833333333334,290.5841787340728,0.4737118929264649,0.9970065895210544
8.0,2.0,32.0,100.0,32.0,2.0,0.001,1.0,190.0,1.0,"[5, 6, 8, 10, 11, 12, 31, 32, 37, 38, 39, 40, 42, 43, 111, 118, 129, 132]",46.888888888888886,42.660011054966645,-0.046242833,132.0,0.2778398778872163,0.9981017014170952,"[1, 2, 3, 4, 83, 87]",30.0,38.9187187182038,-0.020741934,87.0,0.6882010801828001,0.9986555048198884,-0.020741934,329.0,"[1, 2, 3, 4, 9, 10, 12, 14, 15, 16, 35, 36, 42, 43, 44, 45, 47, 48, 131, 138, 150, 154, 323, 329]",68.79166666666667,90.612719474451,0.4570077955237237,0.9985714950345972
8.0,1.0,64.0,100.0,32.0,2.0,0.001,1.0,190.0,1.0,"[1, 2, 7, 8, 10, 11, 13, 14, 28, 29, 35, 36, 48, 49, 90, 99, 109, 114]",39.05555555555556,37.17596628382109,-0.022697313,114.0,0.4220266542275247,0.99849941330445,"[1, 2, 3, 4, 60, 61]",21.83333333333333,27.358220377470136,-0.008978042,61.0,0.6969489981785063,0.9990698461018096,-0.008978042,191.0,"[1, 2, 3, 4, 5, 6, 11, 12, 14, 15, 17, 18, 32, 33, 39, 40, 57, 58, 135, 149, 159, 164, 188, 191]",56.375,64.99667459442315,0.5391318112851967,0.9988865908744862
8.0,2.0,64.0,100.0,32.0,2.0,0.001,1.0,190.0,1.0,"[1, 3, 4, 5, 7, 8, 14, 16, 17, 19, 36, 38, 42, 44, 126, 137, 145, 158]",45.55555555555556,53.220946400853016,-0.03341469,158.0,0.4695962201242277,0.998169397057496,"[1, 2, 3, 4, 89, 184]",47.16666666666666,68.87045004128323,-0.017522288,184.0,0.6814647451555121,0.997784542533401,-0.017522288,431.0,"[1, 2, 3, 4, 5, 7, 8, 9, 11, 12, 18, 20, 21, 23, 40, 42, 46, 48, 195, 223, 226, 240, 276, 431]",79.625,114.78160875477104,0.5717769034605215,0.9982965792011368
8.0,1.0,128.0,100.0,32.0,2.0,0.001,1.0,190.0,1.0,"[2, 3, 20, 22, 23, 25, 27, 29, 33, 39, 48, 53, 101, 104, 118, 125, 138, 144]",58.55555555555556,47.12421201489412,-0.0069309874,144.0,0.23568622649826,0.9975093645635889,"[1, 2, 3, 4, 25, 27]",10.333333333333334,11.130538571376,-0.01246827,27.0,0.7370370370370369,0.9996533062743108,-0.0069309874,202.0,"[1, 2, 3, 4, 6, 7, 24, 26, 27, 29, 32, 34, 39, 47, 63, 68, 120, 123, 139, 149, 150, 152, 195, 202]",68.41666666666667,64.73787960348682,0.4104044457113343,0.9985810113519092
8.0,2.0,128.0,100.0,32.0,2.0,0.001,1.0,190.0,1.0,"[16, 17, 19, 20, 23, 25, 32, 33, 35, 36, 39, 41, 43, 45, 118, 122, 795, 796]",125.27777777777776,238.7604111879046,-0.034141976,796.0,0.1934423209401181,0.9941217618918676,"[1, 2, 3, 4, 21, 33]",10.666666666666666,12.092238098144705,-0.35140792,33.0,0.7366522366522366,0.9996363943852528,-0.034141976,1504.0,"[1, 2, 3, 4, 20, 21, 23, 24, 27, 29, 36, 37, 39, 40, 43, 45, 50, 52, 77, 106, 222, 234, 1502, 1504]",172.54166666666666,405.3362780012281,0.3837762805195026,0.9959386472449204
8.0,1.0,16.0,100.0,32.0,2.0,0.01,1.0,190.0,1.0,"[15, 17, 19, 20, 22, 23, 27, 29, 30, 32, 36, 38, 42, 44, 216, 276, 439, 460]",99.16666666666669,141.8846362366271,-0.07510006,460.0,0.2017940559604837,0.9954474681830492,"[1, 2, 3, 4, 82, 83]",29.166666666666668,37.72451310340385,-0.29853544,83.0,0.6888774610637672,0.9986977845425334,-0.07510006,1061.0,"[15, 16, 17, 18, 19, 21, 23, 24, 26, 27, 31, 33, 34, 36, 40, 42, 46, 48, 191, 193, 475, 609, 1007, 1061]",168.83333333333334,298.7882007189857,0.2421904386631994,0.996032753049451
8.0,2.0,16.0,100.0,32.0,2.0,0.01,1.0,190.0,1.0,"[19, 20, 25, 26, 28, 30, 31, 34, 35, 36, 38, 40, 42, 43, 216, 276, 437, 460]",102.0,140.07339346055537,-0.0752891,460.0,0.179505375009955,0.9953036149471972,"[2, 3, 4, 5, 82, 83]",29.83333333333333,37.2532623478207,-0.2987358,83.0,0.4749885721748783,0.9986639607644172,-0.0752891,1056.0,"[14, 15, 16, 17, 24, 25, 30, 31, 33, 35, 36, 39, 40, 41, 43, 45, 47, 48, 191, 193, 476, 613, 997, 1056]",171.04166666666666,296.0800115912739,0.2156433964332177,0.9959767125141687
8.0,1.0,32.0,100.0,32.0,2.0,0.01,1.0,190.0,1.0,"[2, 4, 6, 8, 9, 11, 12, 14, 15, 17, 44, 45, 49, 50, 99, 107, 280, 416]",66.0,106.54576481493764,-0.048925832,416.0,0.3839450815157967,0.997131397238018,"[1, 2, 3, 4, 47, 157]",35.666666666666664,56.64999754829847,-0.055524044,157.0,0.6907665898721597,0.9983680027059024,-0.048925832,703.0,"[2, 4, 6, 8, 9, 11, 12, 14, 15, 17, 18, 19, 20, 21, 51, 52, 56, 57, 145, 149, 157, 405, 472, 703]",100.95833333333331,173.04418490823537,0.4066976965949268,0.9977552064829384
8.0,2.0,32.0,100.0,32.0,2.0,0.01,1.0,190.0,1.0,"[1, 5, 26, 28, 33, 35, 37, 38, 41, 42, 44, 45, 47, 48, 96, 107, 250, 416]",74.38888888888889,98.64253020595172,-0.04964073,416.0,0.2411383021358401,0.9967054788338298,"[2, 3, 4, 5, 46, 97]",26.166666666666668,35.28652559956688,-0.058965493,97.0,0.4812029981572787,0.9988499915440554,-0.04964073,699.0,"[2, 3, 4, 5, 6, 10, 31, 33, 38, 40, 42, 43, 46, 47, 50, 51, 53, 54, 139, 144, 160, 226, 420, 699]",97.75,154.9812488657902,0.3369838851274935,0.997836623864386
8.0,2.0,16.0,100.0,32.0,2.0,0.0001,1.0,190.0,1.0,"[3, 4, 6, 7, 9, 10, 28, 29, 31, 32, 37, 38, 43, 44, 101, 114, 120, 127]",43.5,40.93660410385253,-0.070513524,127.0,0.3330478310720099,0.9982737611697806,"[1, 2, 3, 4, 24, 28]",10.333333333333334,11.175369742826806,-0.1588362,28.0,0.7371031746031745,0.9996533062743108,-0.070513524,208.0,"[1, 2, 3, 4, 7, 8, 10, 11, 13, 14, 32, 33, 35, 36, 41, 42, 48, 49, 106, 111, 152, 178, 194, 208]",55.75,63.95457372229136,0.5037206457085928,0.9989024514033396
8.0,1.0,64.0,100.0,32.0,2.0,0.01,1.0,190.0,1.0,"[2, 3, 6, 7, 9, 10, 16, 17, 31, 32, 40, 41, 43, 44, 92, 101, 103, 108]",39.16666666666666,35.90148557743352,-0.042761777,108.0,0.374773692566529,0.9984937720010832,"[1, 2, 3, 4, 153, 311]",79.0,117.4123786773212,-0.013005917,311.0,0.6753287238439498,0.9961694571283612,-0.013005917,989.0,"[1, 2, 3, 4, 6, 7, 10, 11, 13, 14, 20, 21, 35, 36, 44, 45, 47, 48, 127, 137, 139, 144, 439, 989]",97.58333333333331,207.1426474410542,0.5214734367165487,0.9978408533387472
8.0,2.0,64.0,100.0,32.0,2.0,0.01,1.0,190.0,1.0,"[2, 4, 7, 8, 18, 19, 31, 32, 33, 34, 39, 40, 42, 43, 85, 89, 100, 102]",40.44444444444444,31.524632735938457,-0.04428671,102.0,0.304703499762545,0.9984288970123656,"[1, 2, 3, 4, 232, 282]",87.33333333333333,120.84103423736308,-0.012579502,282.0,0.6738047199804352,0.995746659901911,-0.012579502,963.0,"[1, 2, 3, 4, 6, 8, 11, 12, 22, 23, 35, 36, 37, 38, 44, 45, 47, 48, 104, 108, 119, 121, 867, 963]",112.66666666666669,245.0259623432224,0.4711838341478997,0.9974580859090832
8.0,1.0,128.0,100.0,32.0,2.0,0.01,1.0,190.0,1.0,"[17, 19, 24, 26, 30, 32, 34, 35, 36, 37, 39, 40, 43, 45, 64, 65, 75, 78]",41.05555555555556,17.570405112076077,-0.032373164,78.0,0.2158486820972046,0.9983978698438488,"[1, 2, 3, 4, 56, 57]",20.5,25.473842793474773,-0.008705017,57.0,0.6990914786967418,0.9991374936580416,-0.008705017,154.0,"[1, 2, 3, 4, 21, 23, 28, 30, 34, 36, 38, 39, 40, 41, 43, 44, 47, 49, 113, 114, 124, 127, 153, 154]",54.5,46.94234051827128,0.3856500626595208,0.9989341724610464
8.0,2.0,128.0,100.0,32.0,2.0,0.01,1.0,190.0,1.0,"[4, 5, 22, 23, 24, 27, 28, 31, 36, 38, 39, 41, 42, 44, 98, 102, 103, 105]",45.11111111111112,32.28155456963154,-0.06086936,105.0,0.2367164204197351,0.9981919622709632,"[1, 2, 3, 4, 202, 277]",81.5,113.80502332205435,-0.013608294,277.0,0.6744021875111699,0.996042617960426,-0.013608294,785.0,"[2, 3, 4, 6, 8, 9, 26, 27, 28, 31, 32, 35, 40, 42, 43, 45, 46, 48, 148, 153, 155, 159, 572, 785]",101.95833333333331,183.23515837275576,0.3534234901101134,0.9977298296367728
8.0,1.0,32.0,100.0,32.0,2.0,0.0001,1.0,190.0,1.0,"[2, 3, 8, 10, 18, 19, 30, 31, 33, 34, 36, 37, 42, 43, 83, 86, 93, 101]",39.388888888888886,30.23452568190672,-0.04077107,101.0,0.3103469275572624,0.9984824893943496,"[1, 2, 3, 4, 329, 370]",118.16666666666669,164.00753708967835,-0.009978472,370.0,0.6719022974342123,0.9941823101640452,-0.009978472,1134.0,"[1, 2, 3, 4, 6, 7, 12, 14, 22, 23, 35, 36, 38, 39, 41, 42, 47, 48, 96, 99, 106, 114, 1057, 1134]",126.08333333333331,294.3805525543802,0.473136445863304,0.9971176132230288
8.0,2.0,32.0,100.0,32.0,2.0,0.0001,1.0,190.0,1.0,"[2, 4, 6, 7, 9, 10, 27, 28, 30, 31, 36, 38, 42, 47, 91, 96, 101, 112]",39.833333333333336,35.00357124637428,-0.04521758,112.0,0.3491006914004086,0.9984599241808828,"[1, 2, 3, 4, 505, 552]",177.83333333333334,248.3313758312111,-0.0110150045,552.0,0.6701284258860668,0.991155082022662,-0.0110150045,1529.0,"[1, 2, 3, 4, 6, 8, 10, 11, 13, 14, 31, 32, 34, 35, 41, 43, 48, 54, 110, 115, 137, 148, 1441, 1529]",161.25,401.5654004434811,0.5014612128338948,0.9962251941328732
8.0,1.0,64.0,100.0,32.0,2.0,0.0001,1.0,190.0,1.0,"[1, 3, 4, 6, 7, 8, 27, 29, 30, 32, 51, 56, 61, 62, 71, 77, 120, 122]",42.61111111111112,36.92505756993765,-0.0059170523,122.0,0.4040222796694356,0.9983188915967144,"[1, 2, 3, 4, 59, 60]",21.5,26.88710967483613,-0.0074188407,60.0,0.697457627118644,0.9990867579908675,-0.0059170523,185.0,"[1, 2, 3, 4, 5, 7, 8, 10, 11, 12, 31, 33, 34, 36, 61, 90, 111, 112, 121, 127, 172, 176, 183, 185]",63.958333333333336,65.37996581947375,0.5094971953946053,0.998694149791064
8.0,2.0,64.0,100.0,32.0,2.0,0.0001,1.0,190.0,1.0,"[2, 3, 5, 6, 9, 10, 27, 28, 30, 31, 36, 37, 43, 44, 65, 67, 86, 96]",34.72222222222222,27.591877942522537,-0.0330238,96.0,0.3811988876668836,0.9987194241357524,"[1, 2, 3, 4, 120, 186]",52.66666666666666,73.4657894684473,-0.010334972,186.0,0.6789874551971326,0.9975054963639438,-0.010334972,479.0,"[1, 2, 3, 4, 6, 7, 9, 10, 13, 14, 32, 33, 35, 36, 41, 42, 48, 49, 89, 98, 144, 155, 355, 479]",71.04166666666667,113.66452069088616,0.5179623981743791,0.9985143971307248
8.0,1.0,128.0,100.0,32.0,2.0,0.0001,1.0,190.0,1.0,"[1, 2, 4, 6, 7, 9, 28, 29, 33, 34, 36, 38, 42, 43, 69, 77, 96, 107]",36.72222222222222,31.17300391106873,-0.006341101,107.0,0.4398481897234368,0.9986178806751512,"[1, 2, 3, 4, 54, 57]",20.166666666666668,25.01610592309593,-0.0074128634,57.0,0.6996426250812215,0.9991544055470996,-0.006341101,166.0,"[1, 2, 3, 4, 5, 6, 8, 10, 11, 13, 32, 33, 37, 38, 40, 42, 46, 47, 86, 125, 136, 150, 153, 166]",49.75,53.51810441336651,0.548957560472881,0.999054712480333
8.0,2.0,128.0,100.0,32.0,2.0,0.0001,1.0,190.0,1.0,"[2, 3, 5, 6, 9, 10, 15, 16, 18, 19, 37, 38, 43, 44, 137, 153, 158, 166]",48.833333333333336,57.635106970973474,-0.035633285,166.0,0.4025310223183398,0.9980029786081775,"[1, 2, 3, 4, 261, 403]",112.33333333333331,160.64833920364347,-0.024205497,403.0,0.6723409042652646,0.9944782682225604,-0.024205497,585.0,"[2, 3, 4, 5, 6, 7, 9, 10, 13, 14, 19, 20, 22, 23, 41, 42, 47, 48, 394, 398, 463, 474, 514, 585]",131.79166666666666,199.2345726287372,0.4803996467933142,0.996972753726167
8.0,1.0,16.0,100.0,32.0,2.0,0.001,1.0,190.0,1.0,"[3, 4, 6, 7, 9, 10, 28, 29, 31, 32, 37, 38, 43, 44, 100, 109, 281, 425]",68.66666666666667,107.26239892069458,-0.049077284,425.0,0.3234575796183078,0.9969960059572164,"[1, 2, 3, 4, 46, 113]",28.166666666666668,41.139667259498125,-0.059035894,113.0,0.693632166217776,0.9987485202097076,-0.049077284,713.0,"[1, 2, 3, 4, 7, 8, 10, 11, 13, 14, 32, 33, 35, 36, 41, 42, 48, 49, 142, 151, 161, 254, 448, 713]",94.08333333333331,163.75131466817464,0.4917698873198203,0.9979296723003264
8.0,2.0,16.0,100.0,32.0,2.0,0.001,1.0,190.0,1.0,"[2, 3, 5, 6, 9, 10, 28, 29, 31, 32, 37, 38, 43, 44, 98, 114, 169, 418]",62.0,96.36619969908767,-0.049670056,418.0,0.3549018737596827,0.99733448415922,"[1, 2, 3, 4, 50, 168]",38.0,60.67673909058286,-0.054168973,168.0,0.6892857142857142,0.9982496194824962,-0.049670056,711.0,"[1, 2, 3, 4, 6, 7, 9, 10, 13, 14, 32, 33, 35, 36, 41, 42, 48, 49, 143, 153, 170, 280, 444, 711]",95.25,164.5091816079982,0.5067547853019743,0.9979000659798
8.0,1.0,16.0,100.0,32.0,2.0,0.0001,1.0,190.0,2.0,"[2, 3, 5, 6, 9, 10, 28, 29, 31, 32, 37, 38, 43, 44, 144, 147, 159, 165]",51.77777777777778,56.30132774786789,-0.069630854,165.0,0.3544548367346941,0.9978534840689592,"[1, 2, 3, 4, 22, 28]",10.0,10.785793124908958,-0.1851145,28.0,0.7402597402597402,0.9996702181633688,-0.069630854,305.0,"[1, 2, 3, 4, 6, 7, 9, 10, 13, 14, 32, 33, 35, 36, 41, 42, 47, 48, 104, 111, 255, 262, 293, 305]",71.375,97.18273702155132,0.5130183782813782,0.9985059381820028
8.0,1.0,32.0,100.0,32.0,2.0,0.001,1.0,190.0,2.0,"[2, 4, 5, 6, 8, 9, 27, 29, 30, 32, 34, 35, 40, 41, 109, 112, 113, 123]",42.16666666666666,40.62053394254904,-0.047256816,123.0,0.3675589107700595,0.9983414568101816,"[1, 2, 3, 4, 181, 232]",70.5,97.29122947796134,-0.021724759,232.0,0.6755810630596304,0.9966007102993404,-0.021724759,484.0,"[1, 2, 3, 4, 6, 8, 9, 10, 12, 13, 31, 33, 34, 36, 38, 39, 44, 45, 164, 172, 173, 186, 396, 484]",80.95833333333333,123.63032232111271,0.5142034516175058,0.9982627434062494
8.0,2.0,32.0,100.0,32.0,2.0,0.001,1.0,190.0,2.0,"[2, 4, 5, 7, 8, 10, 27, 29, 30, 34, 36, 38, 42, 44, 124, 134, 142, 146]",47.888888888888886,49.360227904310086,-0.046986148,146.0,0.347671939542206,0.9980509296867948,"[1, 2, 3, 4, 30, 37]",12.833333333333334,14.780805871880672,-0.054208882,37.0,0.7214714714714714,0.9995264671063756,-0.046986148,194.0,"[2, 3, 4, 5, 6, 8, 9, 11, 12, 14, 31, 33, 34, 38, 40, 42, 46, 49, 144, 159, 165, 178, 186, 194]",58.875,66.83144999424547,0.4578089966091287,0.9988231487590722
8.0,1.0,64.0,100.0,32.0,2.0,0.001,1.0,190.0,2.0,"[2, 3, 5, 6, 8, 9, 27, 28, 31, 32, 36, 38, 43, 44, 128, 138, 180, 194]",52.888888888888886,60.25675516661909,-0.029798375,194.0,0.3630558907233461,0.997797071035292,"[1, 2, 3, 4, 132, 219]",60.16666666666666,85.33740224674186,-0.041296206,219.0,0.6775460080254601,0.9971249788601386,-0.029798375,518.0,"[1, 2, 3, 4, 6, 7, 9, 10, 12, 13, 31, 32, 35, 36, 40, 42, 47, 48, 242, 262, 335, 369, 446, 518]",106.25,156.11007067664363,0.5060563502948762,0.9976209206719788
8.0,2.0,64.0,100.0,32.0,2.0,0.001,1.0,190.0,2.0,"[2, 3, 21, 22, 24, 25, 30, 32, 33, 34, 39, 41, 42, 43, 134, 136, 154, 160]",54.16666666666666,50.595619046184886,-0.03978007,160.0,0.2584538866260307,0.9977321960465746,"[1, 2, 3, 4, 117, 128]",42.5,56.66495095441861,-0.018116321,128.0,0.6816016737891737,0.9980213089802132,-0.018116321,335.0,"[1, 2, 3, 4, 6, 7, 25, 26, 28, 29, 34, 36, 37, 38, 43, 45, 46, 47, 188, 197, 233, 240, 316, 335]",81.91666666666667,102.79020570506164,0.4294502169236681,0.998238423928674
8.0,1.0,128.0,100.0,32.0,2.0,0.001,1.0,190.0,2.0,"[5, 7, 8, 10, 12, 14, 31, 32, 37, 39, 42, 43, 44, 46, 94, 105, 154, 163]",49.22222222222222,46.93560074489247,-0.004576351,163.0,0.2641646506564076,0.997983234046394,"[1, 2, 3, 4, 49, 52]",18.5,22.66237704507921,-0.01362787,52.0,0.7029042386185242,0.9992389649923896,-0.004576351,263.0,"[1, 2, 3, 4, 9, 11, 12, 14, 16, 18, 35, 36, 43, 45, 51, 52, 53, 55, 127, 137, 159, 170, 245, 263]",65.04166666666667,75.11906058976568,0.4427888308919428,0.998666658207718
8.0,2.0,128.0,100.0,32.0,2.0,0.001,1.0,190.0,2.0,"[1, 3, 4, 6, 22, 24, 27, 30, 31, 34, 36, 38, 40, 42, 89, 94, 96, 105]",40.11111111111112,32.49767323104992,-0.02989545,105.0,0.368773031853951,0.998445820922466,"[1, 2, 3, 4, 71, 76]",26.166666666666668,33.51326437231815,-0.008111261,76.0,0.6915616506053867,0.9988499915440554,-0.008111261,235.0,"[1, 3, 4, 6, 7, 8, 9, 10, 26, 28, 31, 34, 35, 38, 40, 42, 44, 46, 130, 139, 144, 164, 218, 235]",60.083333333333336,68.91414747511735,0.4411497526587978,0.9987924850699554
8.0,1.0,16.0,100.0,32.0,2.0,0.01,1.0,190.0,2.0,"[1, 3, 7, 8, 10, 11, 25, 27, 29, 31, 35, 37, 38, 40, 267, 275, 437, 450]",96.16666666666669,145.87980212033008,-0.07902798,450.0,0.3541051614887638,0.9955997833739508,"[1, 2, 3, 4, 76, 78]",27.33333333333333,35.13624276378389,-0.30588153,78.0,0.6904520917678811,0.9987907999323524,-0.07902798,1019.0,"[1, 2, 3, 4, 5, 7, 11, 12, 14, 15, 29, 31, 33, 35, 39, 41, 42, 44, 180, 183, 596, 619, 993, 1019]",164.91666666666666,301.92050784197414,0.4979621453670854,0.9961321456969328
8.0,2.0,16.0,100.0,32.0,2.0,0.01,1.0,190.0,2.0,"[1, 3, 4, 6, 9, 10, 14, 16, 29, 31, 36, 38, 42, 44, 267, 275, 437, 450]",95.11111111111111,146.5320931434055,-0.079157375,450.0,0.4063404563263978,0.9956533757559348,"[2, 3, 4, 5, 76, 77]",27.83333333333333,34.4258462334463,-0.306702,77.0,0.4767297030454924,0.9987654320987654,-0.079157375,1021.0,"[2, 3, 4, 5, 6, 8, 9, 11, 14, 15, 19, 21, 34, 36, 41, 43, 47, 49, 180, 182, 599, 619, 994, 1021]",165.08333333333334,302.4947543163168,0.4514949301526006,0.996127916222572
8.0,1.0,32.0,100.0,32.0,2.0,0.01,1.0,190.0,2.0,"[2, 3, 20, 22, 30, 32, 34, 35, 37, 38, 40, 41, 43, 44, 125, 139, 234, 539]",81.0,124.0980794909145,-0.051149126,539.0,0.2401583013123109,0.9963698212835094,"[1, 2, 3, 4, 101, 103]",35.666666666666664,46.917184721828974,-0.109427765,103.0,0.6846262296132525,0.9983680027059024,-0.051149126,996.0,"[1, 2, 3, 4, 6, 7, 24, 26, 34, 36, 38, 39, 41, 42, 44, 45, 47, 48, 219, 221, 246, 283, 464, 996]",121.5,214.9736417951435,0.4136284810042136,0.9972339237679542
8.0,2.0,32.0,100.0,32.0,2.0,0.01,1.0,190.0,2.0,"[1, 3, 10, 12, 22, 30, 31, 33, 38, 40, 51, 52, 54, 55, 98, 108, 281, 476]",77.5,114.66630329399788,-0.050100747,476.0,0.2790894414703996,0.9965475223395612,"[1, 2, 3, 4, 52, 207]",44.833333333333336,74.74716642715553,-0.054857697,207.0,0.6875232255667038,0.9979029257568072,-0.050100747,818.0,"[1, 2, 3, 4, 5, 7, 14, 16, 26, 34, 36, 38, 43, 45, 56, 57, 59, 60, 148, 153, 163, 484, 492, 818]",115.16666666666669,195.94571243643537,0.4324318590522966,0.9973946437936692
8.0,2.0,16.0,100.0,32.0,2.0,0.0001,1.0,190.0,2.0,"[2, 3, 5, 6, 9, 10, 31, 32, 36, 37, 40, 41, 42, 43, 107, 140, 311, 486]",76.72222222222223,122.43175221574378,-0.04551341,486.0,0.3407736549503222,0.9965870114631284,"[1, 2, 3, 4, 24, 25]",9.833333333333334,10.414999866645328,-0.18257852,25.0,0.7413888888888889,0.9996786741078978,-0.04551341,831.0,"[1, 2, 3, 4, 6, 7, 9, 10, 13, 14, 35, 36, 40, 41, 44, 45, 46, 47, 105, 106, 172, 209, 522, 831]",97.83333333333331,187.48414747800825,0.5044945167022796,0.9978345091272056
8.0,1.0,64.0,100.0,32.0,2.0,0.01,1.0,190.0,2.0,"[2, 3, 6, 7, 12, 13, 15, 16, 21, 22, 39, 40, 43, 44, 84, 93, 97, 104]",36.72222222222222,33.6481889153629,-0.041834194,104.0,0.3815328717817871,0.9986178806751512,"[1, 2, 3, 4, 377, 378]",127.5,176.7792880024882,-0.009449708,378.0,0.6715226025570853,0.9937087772704212,-0.009449708,1139.0,"[1, 2, 3, 4, 6, 7, 10, 11, 16, 17, 19, 20, 25, 26, 43, 44, 47, 48, 103, 112, 116, 123, 1138, 1139]",128.33333333333334,306.871127493104,0.5299701895848047,0.997060515319156
8.0,2.0,64.0,100.0,32.0,2.0,0.01,1.0,190.0,2.0,"[1, 2, 8, 10, 11, 13, 27, 28, 30, 32, 36, 37, 42, 43, 103, 106, 112, 118]",42.16666666666666,38.356876828021335,-0.046956096,118.0,0.3730247276202577,0.9983414568101816,"[2, 3, 4, 5, 121, 346]",80.16666666666667,126.39279603240402,-0.015573981,346.0,0.4625550035297802,0.9961102655166582,-0.015573981,935.0,"[1, 2, 5, 6, 7, 8, 13, 15, 16, 18, 32, 33, 35, 37, 41, 42, 47, 48, 131, 135, 141, 147, 331, 935]",92.75,190.1773843021299,0.4395183955488243,0.997963508095214
8.0,1.0,128.0,100.0,32.0,2.0,0.01,1.0,190.0,2.0,"[7, 8, 16, 17, 22, 24, 31, 33, 34, 35, 39, 41, 43, 44, 110, 111, 114, 117]",47.0,36.87817782917155,-0.02632118,117.0,0.2272385110950276,0.9980960601137286,"[1, 2, 3, 4, 91, 140]",40.16666666666666,55.12233868607375,-0.0086872345,140.0,0.682967032967033,0.9981396922036192,-0.0086872345,288.0,"[2, 3, 4, 5, 11, 12, 20, 21, 26, 28, 35, 37, 38, 39, 43, 45, 47, 48, 176, 177, 180, 183, 227, 288]",70.625,81.52801793453176,0.3553639508165017,0.9985249708166268
8.0,2.0,128.0,100.0,32.0,2.0,0.01,1.0,190.0,2.0,"[17, 18, 20, 21, 23, 24, 30, 31, 36, 37, 39, 40, 43, 44, 115, 123, 144, 145]",52.77777777777778,43.44032376024679,-0.03021517,145.0,0.2052632503733177,0.9978027123386588,"[1, 2, 3, 4, 85, 176]",45.16666666666666,65.81645353219479,-0.0125695,176.0,0.6821524064171123,0.997886013867749,-0.0125695,435.0,"[1, 2, 3, 4, 21, 22, 24, 25, 27, 28, 34, 35, 40, 41, 43, 44, 47, 48, 141, 149, 199, 200, 310, 435]",80.125,106.17529236283428,0.3837026916316621,0.998283890778054
8.0,1.0,32.0,100.0,32.0,2.0,0.0001,1.0,190.0,2.0,"[2, 3, 5, 7, 8, 10, 27, 28, 30, 31, 36, 38, 43, 44, 85, 86, 94, 98]",37.5,31.533491895302543,-0.044007227,98.0,0.3721968605626528,0.998578391551584,"[1, 2, 3, 4, 198, 355]",93.83333333333331,136.8885394115308,-0.010687662,355.0,0.6736923222838715,0.99541687806528,-0.010687662,1089.0,"[1, 2, 3, 4, 6, 7, 9, 11, 12, 14, 31, 32, 34, 35, 41, 43, 49, 50, 103, 104, 112, 116, 760, 1089]",111.16666666666669,252.30663663266745,0.5176300053123214,0.9974961511783316
8.0,2.0,32.0,100.0,32.0,2.0,0.0001,1.0,190.0,2.0,"[2, 3, 6, 7, 12, 13, 31, 32, 33, 34, 37, 38, 45, 47, 81, 85, 92, 107]",39.16666666666666,31.424070745564176,-0.045502316,107.0,0.3380681736143999,0.9984937720010832,"[1, 2, 3, 4, 72, 141]",37.16666666666666,52.92578661568375,-0.021127136,141.0,0.685332939322301,0.998291899205141,-0.021127136,407.0,"[1, 2, 3, 4, 6, 7, 10, 11, 16, 17, 35, 36, 38, 39, 42, 43, 52, 54, 100, 106, 118, 148, 284, 407]",65.79166666666667,94.666950923869,0.4938301309316895,0.9986476255730938
8.0,1.0,64.0,100.0,32.0,2.0,0.0001,1.0,190.0,2.0,"[2, 3, 4, 6, 23, 25, 28, 29, 34, 35, 39, 40, 44, 46, 70, 72, 91, 92]",37.94444444444444,27.19369253301668,-0.024918817,92.0,0.3398796569744919,0.9985558263381172,"[1, 2, 3, 4, 64, 66]",23.33333333333333,29.48257489131881,-0.006578955,66.0,0.6948390151515151,0.9989937426010486,-0.006578955,196.0,"[1, 2, 3, 4, 6, 7, 8, 10, 27, 29, 32, 33, 39, 40, 44, 45, 53, 55, 120, 122, 141, 142, 192, 196]",56.29166666666666,59.664673500228666,0.4853009604668135,0.9988887056116666
8.0,2.0,64.0,100.0,32.0,2.0,0.0001,1.0,190.0,2.0,"[5, 7, 8, 9, 17, 19, 31, 32, 34, 35, 38, 39, 60, 61, 72, 78, 87, 97]",40.5,28.129166358070407,-0.02979325,97.0,0.2655035651941165,0.9984260763606824,"[1, 2, 3, 4, 163, 191]",60.66666666666666,82.66129014774019,-0.008323513,191.0,0.6770147431985353,0.9970996110265518,-0.008323513,533.0,"[1, 2, 3, 4, 9, 11, 12, 13, 21, 23, 36, 37, 39, 40, 43, 44, 70, 71, 104, 119, 138, 150, 486, 533]",83.70833333333333,135.34877144087994,0.4344625209386552,0.9981929570792942
8.0,1.0,128.0,100.0,32.0,2.0,0.0001,1.0,190.0,2.0,"[5, 7, 20, 22, 28, 29, 31, 32, 36, 37, 40, 41, 42, 43, 88, 94, 108, 134]",46.5,34.48550420104076,-0.0038391629,134.0,0.2241260210245265,0.998121445978879,"[1, 2, 3, 4, 53, 54]",19.5,24.06068716114872,-0.008628971,54.0,0.7009084556254367,0.9991882293252156,-0.0038391629,195.0,"[1, 2, 3, 4, 9, 11, 24, 26, 32, 33, 35, 36, 40, 41, 45, 46, 47, 48, 123, 143, 144, 150, 168, 195]",58.583333333333336,58.00425032319231,0.4109752815899697,0.998830550339204
8.0,2.0,128.0,100.0,32.0,2.0,0.0001,1.0,190.0,2.0,"[2, 3, 8, 9, 12, 13, 28, 29, 34, 35, 36, 38, 42, 44, 73, 82, 83, 95]",37.0,28.128672599719707,-0.031610966,95.0,0.3324746387715358,0.9986037774167345,"[1, 2, 3, 4, 79, 81]",28.33333333333333,36.54981380101531,-0.007845416,81.0,0.6895608688857633,0.9987400642651784,-0.007845416,295.0,"[1, 2, 3, 4, 6, 7, 12, 13, 16, 17, 32, 33, 38, 39, 40, 42, 47, 49, 92, 115, 117, 146, 293, 295]",60.79166666666666,80.33729891664407,0.4918274160745559,0.9987745098039216
8.0,1.0,16.0,100.0,32.0,2.0,0.001,1.0,190.0,2.0,"[1, 2, 5, 6, 9, 10, 28, 29, 31, 32, 34, 37, 40, 41, 110, 117, 296, 323]",63.94444444444444,92.4352459365908,-0.05281961,323.0,0.4028610990157694,0.9972357613503025,"[1, 2, 3, 4, 32, 48]",15.0,18.29389697868299,-0.07719395,48.0,0.7135416666666666,0.9994165398274988,-0.05281961,542.0,"[1, 2, 3, 4, 5, 6, 9, 10, 13, 14, 32, 33, 35, 36, 38, 41, 44, 45, 124, 155, 160, 173, 507, 542]",84.66666666666667,142.310888160003,0.5272391840887513,0.9981686376017188
8.0,2.0,16.0,100.0,32.0,2.0,0.001,1.0,190.0,2.0,"[1, 3, 4, 6, 12, 13, 28, 29, 31, 32, 36, 38, 42, 44, 121, 135, 142, 312]",57.16666666666666,75.26785502457207,-0.052484598,312.0,0.375509435906293,0.9975798808556728,"[1, 2, 3, 4, 36, 106]",25.33333333333333,38.103659783397305,-0.06010564,106.0,0.6992487770789657,0.9988922712667004,-0.052484598,517.0,"[1, 2, 3, 4, 5, 7, 8, 10, 16, 17, 32, 33, 35, 36, 40, 42, 46, 48, 150, 160, 185, 194, 281, 517]",78.0,117.8675103665128,0.5107480838685264,0.9983378165761558
8.0,1.0,16.0,100.0,32.0,2.0,0.0001,1.0,190.0,3.0,"[3, 4, 6, 7, 9, 10, 27, 29, 30, 32, 37, 38, 40, 42, 94, 101, 274, 414]",66.5,104.31536053930142,-0.050171606,414.0,0.3279372921675748,0.9971060113728676,"[1, 2, 3, 4, 27, 37]",12.333333333333334,14.23220136013946,-0.07896601,37.0,0.7245578912245578,0.9995518349399628,-0.050171606,692.0,"[1, 2, 3, 4, 7, 8, 10, 11, 13, 14, 31, 33, 34, 36, 41, 42, 44, 46, 107, 121, 136, 147, 455, 692]",84.91666666666667,157.02333071518032,0.5018543868746557,0.9981622933901776
8.0,1.0,32.0,100.0,32.0,2.0,0.001,1.0,190.0,3.0,"[1, 2, 4, 5, 7, 8, 23, 26, 30, 31, 33, 34, 39, 40, 118, 119, 121, 124]",42.5,43.57656097796919,-0.046898406,124.0,0.45365244000195,0.9983245329000812,"[1, 2, 3, 4, 240, 284]",89.0,122.99051453940125,-0.019043066,284.0,0.6736600156494522,0.9956621004566212,-0.019043066,558.0,"[1, 2, 3, 4, 5, 6, 8, 9, 11, 12, 27, 30, 34, 35, 37, 38, 43, 44, 188, 189, 191, 194, 487, 558]",89.83333333333333,145.93710593570398,0.548188937186698,0.9980375238965302
8.0,2.0,32.0,100.0,32.0,2.0,0.001,1.0,190.0,3.0,"[2, 3, 5, 6, 8, 9, 12, 13, 18, 19, 33, 35, 39, 41, 131, 133, 140, 149]",44.22222222222222,51.738182285163816,-0.04757863,149.0,0.4321144150877372,0.998237092697897,"[1, 2, 3, 4, 216, 258]",80.66666666666667,111.2110106459288,-0.03415908,258.0,0.6744006603502727,0.9960848976830712,-0.03415908,477.0,"[1, 2, 3, 4, 6, 7, 9, 10, 12, 13, 16, 17, 22, 23, 37, 39, 44, 46, 275, 277, 299, 331, 369, 477]",97.45833333333331,143.7822367235335,0.5568516319892226,0.9978440254445178
8.0,1.0,64.0,100.0,32.0,2.0,0.001,1.0,190.0,3.0,"[1, 2, 4, 5, 8, 10, 22, 25, 27, 28, 33, 35, 39, 41, 119, 122, 161, 165]",47.05555555555556,53.06335021276426,-0.022683822,165.0,0.4403624536205749,0.9980932394620452,"[1, 2, 3, 4, 131, 183]",54.0,74.36845209271648,-0.030316629,183.0,0.6784924706961999,0.9974378488077118,-0.022683822,387.0,"[1, 2, 4, 5, 6, 7, 8, 9, 12, 14, 26, 29, 31, 32, 38, 40, 44, 46, 225, 300, 302, 306, 383, 387]",94.04166666666669,132.42686005448022,0.5062246320069395,0.9979307296689168
8.0,2.0,64.0,100.0,32.0,2.0,0.001,1.0,190.0,3.0,"[2, 3, 6, 7, 8, 9, 28, 29, 31, 32, 36, 38, 42, 44, 118, 121, 130, 132]",45.333333333333336,44.83921894453064,-0.029344987,132.0,0.3574433404154066,0.9981806796642296,"[1, 2, 3, 4, 256, 265]",88.5,121.65353810446014,-0.009507437,265.0,0.6736954599056604,0.995687468290208,-0.009507437,642.0,"[1, 2, 3, 4, 6, 7, 10, 11, 12, 13, 32, 33, 35, 36, 41, 43, 47, 49, 180, 183, 194, 197, 625, 642]",100.25,172.8853786954428,0.5033595899732062,0.9977731817489722
8.0,1.0,128.0,100.0,32.0,2.0,0.001,1.0,190.0,3.0,"[2, 3, 5, 6, 8, 9, 20, 21, 29, 30, 36, 37, 41, 42, 168, 173, 178, 179]",54.833333333333336,65.2637810053257,-0.013441554,179.0,0.3754306925794949,0.9976983482263744,"[1, 2, 3, 4, 186, 219]",69.16666666666667,94.76535349072584,-0.017650759,219.0,0.67571316345068,0.9966683578555724,-0.013441554,432.0,"[1, 2, 3, 4, 6, 7, 9, 10, 12, 13, 24, 25, 33, 34, 41, 42, 46, 47, 317, 361, 402, 416, 428, 432]",113.125,163.2953133895765,0.5150261673399535,0.9974464548545908
8.0,2.0,128.0,100.0,32.0,2.0,0.001,1.0,190.0,3.0,"[1, 2, 21, 22, 24, 25, 28, 29, 34, 35, 36, 37, 42, 43, 79, 83, 94, 98]",40.72222222222222,28.023413931836743,-0.027227756,98.0,0.3256358341705744,0.9984147937539488,"[1, 2, 3, 4, 52, 63]",20.83333333333333,26.13692577348929,-0.010422718,63.0,0.6985653235653235,0.9991205817689836,-0.010422718,201.0,"[1, 2, 3, 4, 5, 6, 25, 26, 28, 29, 32, 33, 38, 39, 40, 41, 46, 47, 126, 130, 141, 145, 181, 201]",57.04166666666666,59.32079396992443,0.4596657173080679,0.9988696729770424
8.0,1.0,16.0,100.0,32.0,2.0,0.01,1.0,190.0,3.0,"[19, 20, 25, 26, 31, 32, 34, 35, 37, 38, 40, 42, 43, 45, 212, 279, 441, 444]",102.38888888888889,137.87640958839788,-0.0782209,444.0,0.1720814240941466,0.995283870385414,"[1, 2, 3, 4, 77, 79]",27.666666666666668,35.60742743991609,-0.31211844,79.0,0.6901474053372787,0.9987738880432944,-0.0782209,1024.0,"[1, 2, 3, 4, 23, 24, 29, 30, 35, 36, 39, 40, 42, 43, 45, 47, 48, 50, 183, 185, 492, 646, 1019, 1024]",170.41666666666666,298.48198112374484,0.3520883534336188,0.9959925730430222
8.0,2.0,16.0,100.0,32.0,2.0,0.01,1.0,190.0,3.0,"[6, 8, 9, 10, 12, 13, 27, 29, 30, 32, 36, 38, 42, 44, 188, 193, 377, 378]",81.77777777777777,117.32128515583727,-0.07866035,378.0,0.2600154326465184,0.9963303321599424,"[1, 2, 3, 4, 60, 61]",21.83333333333333,27.358220377470136,-0.31354254,61.0,0.6969489981785063,0.9990698461018096,-0.07866035,919.0,"[2, 3, 4, 5, 10, 12, 13, 14, 16, 17, 32, 34, 35, 37, 41, 43, 47, 49, 154, 155, 432, 460, 918, 919]",143.83333333333334,262.2704816702702,0.3871167430701262,0.99666717420359
8.0,1.0,32.0,100.0,32.0,2.0,0.01,1.0,190.0,3.0,"[16, 18, 20, 21, 24, 25, 30, 31, 36, 37, 39, 40, 42, 43, 87, 95, 265, 275]",63.55555555555556,75.87213089740911,-0.05290599,275.0,0.2034269764534999,0.997255505912086,"[1, 2, 3, 4, 31, 163]",34.0,58.62877564245508,-0.056980606,163.0,0.6996833564219275,0.9984525621511924,-0.05290599,450.0,"[1, 2, 3, 4, 20, 22, 24, 25, 28, 29, 34, 35, 40, 41, 43, 44, 46, 47, 117, 119, 129, 425, 434, 450]",90.08333333333331,135.20414092113535,0.385410920745781,0.9980311796849888
8.0,2.0,32.0,100.0,32.0,2.0,0.01,1.0,190.0,3.0,"[13, 14, 16, 18, 20, 21, 37, 38, 40, 42, 44, 45, 46, 48, 109, 120, 192, 311]",65.22222222222223,74.40098233786638,-0.055848427,311.0,0.1964631662322245,0.997170886361585,"[2, 3, 4, 5, 35, 100]",24.83333333333333,35.540665284838,-0.06066036,100.0,0.4865873015873015,0.9989176391002874,-0.055848427,489.0,"[11, 12, 13, 14, 18, 19, 21, 23, 25, 26, 42, 43, 45, 47, 49, 50, 51, 53, 143, 144, 160, 270, 324, 489]",87.16666666666667,116.041180429861,0.2426987677112342,0.9981051954863048
8.0,2.0,16.0,100.0,32.0,2.0,0.0001,1.0,190.0,3.0,"[1, 3, 6, 7, 9, 10, 28, 29, 34, 35, 37, 38, 43, 44, 84, 113, 130, 213]",48.0,53.490393737775214,-0.05627483,213.0,0.3743871012883541,0.998045288383428,"[1, 2, 3, 4, 18, 21]",8.166666666666666,8.112062349091971,-0.18009318,21.0,0.7605820105820106,0.999763233553188,-0.05627483,344.0,"[1, 2, 3, 4, 5, 7, 10, 11, 13, 14, 32, 33, 38, 39, 41, 42, 48, 49, 99, 102, 124, 180, 223, 344]",61.0,81.81788720485677,0.5175114900519071,0.9987692229609704
8.0,1.0,64.0,100.0,32.0,2.0,0.01,1.0,190.0,3.0,"[5, 6, 24, 25, 30, 31, 39, 40, 42, 43, 44, 46, 47, 48, 94, 96, 98, 99]",47.61111111111112,28.94081871085061,-0.044041436,99.0,0.2091966722941398,0.9980650329452118,"[1, 2, 3, 4, 391, 397]",133.0,184.5652549461392,-0.008833344,397.0,0.6713168456518518,0.993429731100964,-0.008833344,1152.0,"[1, 2, 3, 4, 9, 10, 28, 29, 34, 35, 44, 45, 47, 48, 49, 51, 52, 53, 108, 110, 112, 113, 1141, 1152]",136.66666666666666,306.3903646584787,0.3910035829637045,0.99684904160111
8.0,2.0,64.0,100.0,32.0,2.0,0.01,1.0,190.0,3.0,"[9, 10, 12, 13, 21, 22, 31, 32, 35, 36, 38, 39, 42, 45, 102, 112, 120, 121]",46.66666666666666,37.61500882478813,-0.043668736,121.0,0.2326942717960531,0.9981129840238288,"[1, 2, 3, 4, 81, 193]",47.333333333333336,71.17739965903658,-0.015112822,193.0,0.682136079660547,0.9977760865888718,-0.015112822,753.0,"[1, 2, 3, 4, 13, 14, 16, 17, 25, 26, 35, 36, 39, 40, 42, 43, 46, 49, 116, 126, 134, 135, 295, 753]",83.75,153.7344165544376,0.4172930043883792,0.998191899710704
8.0,1.0,128.0,100.0,32.0,2.0,0.01,1.0,190.0,3.0,"[4, 5, 16, 17, 25, 26, 31, 32, 34, 35, 40, 41, 43, 44, 70, 74, 92, 93]",40.11111111111112,25.65560127035049,-0.021460453,93.0,0.2514896233776229,0.998445820922466,"[1, 2, 3, 4, 28, 32]",11.666666666666666,13.04692386052062,-0.0317498,32.0,0.7276785714285714,0.9995856587180788,-0.021460453,164.0,"[2, 3, 4, 5, 8, 9, 20, 21, 29, 30, 35, 36, 38, 39, 44, 45, 47, 48, 91, 96, 109, 116, 163, 164]",50.083333333333336,46.921846960901085,0.3854881392487912,0.999046253531611
8.0,2.0,128.0,100.0,32.0,2.0,0.01,1.0,190.0,3.0,"[7, 8, 9, 10, 13, 14, 17, 18, 23, 24, 38, 39, 44, 45, 60, 61, 74, 75]",32.166666666666664,22.485180304665857,-30995.035,75.0,0.3216285507979041,0.9988491741131872,"[1, 2, 3, 4, 19593, 19594]",6532.833333333333,9235.286016445596,-12407.685,19594.0,0.6667602348949778,0.6687299171317436,-12407.685,39212.0,"[7, 8, 9, 10, 11, 12, 13, 14, 17, 18, 21, 22, 27, 28, 42, 43, 48, 49, 79, 80, 105, 106, 39211, 39212]",3299.6666666666665,10827.864242571366,0.3615141885011523,0.9165820771794482
8.0,1.0,32.0,100.0,32.0,2.0,0.0001,1.0,190.0,3.0,"[3, 4, 8, 10, 12, 13, 28, 29, 33, 34, 37, 38, 44, 45, 82, 89, 98, 99]",39.22222222222222,31.185031230375674,-0.041921474,99.0,0.3064937531987607,0.9984909513493998,"[1, 2, 3, 4, 357, 366]",122.16666666666669,169.25662632687545,-0.010048734,366.0,0.6717331741439745,0.9939793674953492,-0.010048734,1112.0,"[1, 2, 3, 4, 7, 8, 12, 14, 16, 17, 32, 33, 38, 39, 42, 43, 49, 50, 94, 101, 110, 111, 1102, 1112]",126.66666666666669,297.4866476928932,0.4769221742788893,0.9971028100627654
8.0,2.0,32.0,100.0,32.0,2.0,0.0001,1.0,190.0,3.0,"[2, 4, 5, 7, 19, 20, 27, 29, 30, 32, 36, 38, 42, 44, 71, 76, 97, 101]",37.77777777777778,29.37034701787872,-0.052781623,101.0,0.3281404403611,0.9985642882931672,"[1, 2, 3, 4, 439, 626]",179.16666666666666,255.61130430575423,-0.012082269,626.0,0.6701623643628054,0.99108743446643,-0.012082269,1609.0,"[1, 2, 3, 4, 6, 8, 9, 11, 23, 24, 31, 33, 34, 36, 41, 43, 47, 49, 89, 94, 149, 153, 1216, 1609]",154.79166666666666,385.623518815812,0.4832449010677051,0.9963890862643592
8.0,1.0,64.0,100.0,32.0,2.0,0.0001,1.0,190.0,3.0,"[6, 7, 9, 10, 12, 13, 31, 32, 37, 38, 39, 40, 42, 43, 74, 79, 80, 82]",37.44444444444444,25.51083042818878,-0.023752507,82.0,0.2833627796572558,0.9985812122032676,"[1, 2, 3, 4, 64, 66]",23.33333333333333,29.48257489131881,-0.007432936,66.0,0.6948390151515151,0.9989937426010485,-0.007432936,206.0,"[1, 2, 3, 4, 10, 11, 13, 14, 16, 17, 35, 36, 41, 42, 44, 45, 47, 48, 119, 124, 125, 127, 203, 206]",55.54166666666666,60.03469772186378,0.4553858398680808,0.9989077382462908
8.0,2.0,64.0,100.0,32.0,2.0,0.0001,1.0,190.0,3.0,"[18, 19, 20, 21, 25, 26, 30, 32, 34, 35, 39, 41, 42, 44, 63, 65, 83, 84]",40.05555555555556,20.12867557110784,-0.04064886,84.0,0.2262006415736491,0.9984486415741494,"[1, 2, 3, 4, 93, 121]",37.333333333333336,49.92883824894075,-0.008007453,121.0,0.6838917029532865,0.998283443260612,-0.008007453,384.0,"[1, 2, 3, 4, 22, 23, 24, 25, 29, 30, 35, 37, 39, 40, 44, 46, 47, 49, 73, 75, 113, 117, 323, 384]",66.04166666666667,91.94268104217008,0.3965724042470478,0.9986412813615524
8.0,1.0,128.0,100.0,32.0,2.0,0.0001,1.0,190.0,3.0,"[2, 3, 9, 10, 12, 13, 28, 32, 34, 35, 37, 38, 43, 44, 81, 85, 125, 130]",42.27777777777778,37.58812690133172,-0.0039105075,130.0,0.3172278602553,0.9983358155068148,"[1, 2, 3, 4, 35, 56]",16.833333333333332,21.177162751941587,-0.01014375,56.0,0.7083333333333334,0.9993235244376796,-0.0039105075,222.0,"[1, 2, 3, 4, 6, 7, 13, 14, 16, 17, 32, 36, 38, 39, 41, 42, 47, 48, 111, 135, 138, 144, 208, 222]",56.833333333333336,64.42739238001867,0.4856553649343201,0.9988749598199936
8.0,2.0,128.0,100.0,32.0,2.0,0.0001,1.0,190.0,3.0,"[1, 2, 7, 8, 11, 13, 28, 29, 34, 35, 37, 38, 43, 44, 69, 74, 78, 88]",35.5,26.238754204844067,-0.034433577,88.0,0.3894796358502765,0.9986799350121852,"[1, 2, 3, 4, 76, 77]",27.166666666666668,34.89707087357842,-0.008168112,77.0,0.6906185919343814,0.9987992558768816,-0.008168112,287.0,"[1, 2, 3, 4, 5, 6, 11, 12, 15, 17, 32, 33, 38, 39, 41, 42, 48, 49, 82, 115, 124, 134, 286, 287]",59.41666666666666,78.21333894476625,0.5113020335577418,0.9988094029673992
8.0,1.0,16.0,100.0,32.0,2.0,0.001,1.0,190.0,3.0,"[2, 4, 5, 7, 9, 10, 27, 29, 30, 32, 34, 35, 40, 41, 104, 110, 286, 292]",60.94444444444444,85.81341012933055,-0.055648085,292.0,0.3454569519004006,0.997388076541204,"[1, 2, 3, 4, 55, 90]",25.83333333333333,34.52253692235777,-0.072445445,90.0,0.6929292929292928,0.9988669034331136,-0.055648085,544.0,"[1, 2, 3, 4, 6, 8, 9, 11, 13, 14, 31, 33, 34, 36, 38, 39, 44, 45, 150, 187, 196, 205, 535, 544]",91.16666666666669,148.9859240181956,0.504634908624339,0.9980036881016427
8.0,2.0,16.0,100.0,32.0,2.0,0.001,1.0,190.0,3.0,"[8, 9, 11, 12, 14, 15, 28, 29, 31, 32, 37, 38, 40, 41, 98, 104, 297, 308]",64.0,88.28615092099352,-0.054066733,308.0,0.2522915841482546,0.997232940698619,"[1, 2, 3, 4, 39, 53]",17.0,20.92048437935094,-0.06579454,53.0,0.7069021125624898,0.9993150684931508,-0.054066733,501.0,"[8, 9, 11, 12, 13, 14, 15, 16, 18, 19, 32, 33, 35, 36, 41, 42, 45, 46, 133, 140, 150, 165, 481, 501]",83.95833333333333,131.39649892807478,0.30824220604742,0.9981866128677528
8.0,1.0,16.0,100.0,32.0,2.0,0.0001,1.0,190.0,4.0,"[3, 4, 6, 7, 9, 10, 28, 29, 31, 32, 37, 38, 40, 42, 110, 114, 260, 263]",59.05555555555556,77.8770200181901,-0.051975276,263.0,0.3261645782123887,0.9974839786984384,"[1, 2, 3, 4, 22, 24]",9.333333333333334,9.72396809720988,-0.13665226,24.0,0.7462121212121212,0.9997040419414848,-0.051975276,445.0,"[1, 2, 3, 4, 7, 8, 10, 11, 13, 14, 32, 33, 35, 36, 41, 42, 45, 47, 99, 104, 174, 184, 432, 445]",75.91666666666667,119.7427508824183,0.50021138727407,0.9983906850056676
8.0,1.0,32.0,100.0,32.0,2.0,0.001,1.0,190.0,4.0,"[2, 3, 9, 10, 12, 13, 30, 31, 33, 34, 36, 37, 42, 43, 89, 97, 101, 106]",40.44444444444444,33.51156056285688,-0.043891497,106.0,0.3207249396719414,0.9984288970123656,"[1, 2, 3, 4, 329, 425]",127.33333333333331,178.70521972106903,-0.011011621,425.0,0.6715525359079801,0.99371723321495,-0.011011621,1195.0,"[1, 2, 3, 4, 6, 7, 13, 14, 16, 17, 34, 35, 37, 38, 40, 42, 47, 48, 114, 122, 126, 131, 1040, 1195]",130.5,301.1029724197355,0.4807217007993744,0.997005532152464
8.0,2.0,32.0,100.0,32.0,2.0,0.001,1.0,190.0,4.0,"[3, 4, 6, 7, 8, 10, 28, 29, 31, 32, 37, 38, 41, 43, 110, 115, 119, 124]",43.61111111111112,41.40201134256495,-0.04570392,124.0,0.3376500219867002,0.998268119866414,"[1, 2, 3, 4, 288, 291]",98.16666666666669,135.29894883388988,-0.01443161,291.0,0.6729966113020236,0.9951970235075258,-0.01443161,904.0,"[1, 2, 3, 4, 7, 8, 10, 11, 12, 14, 32, 33, 35, 36, 41, 42, 46, 48, 138, 144, 150, 155, 901, 904]",115.70833333333331,242.1434628422213,0.496895859726402,0.9973808980019964
8.0,1.0,64.0,100.0,32.0,2.0,0.001,1.0,190.0,4.0,"[1, 3, 4, 6, 7, 8, 29, 31, 32, 34, 38, 39, 42, 43, 131, 162, 182, 186]",54.333333333333336,61.78906771338186,-0.01274601,186.0,0.4032306529874918,0.9977237340915246,"[1, 2, 3, 4, 126, 146]",47.0,63.2033754372871,-0.013693064,146.0,0.6801297383489163,0.99779299847793,-0.01274601,339.0,"[1, 2, 3, 4, 5, 7, 8, 10, 11, 12, 33, 35, 36, 38, 42, 43, 46, 47, 201, 249, 297, 325, 329, 339]",88.45833333333333,119.91767285887802,0.5218797404698368,0.9980724170600078
8.0,2.0,64.0,100.0,32.0,2.0,0.001,1.0,190.0,4.0,"[1, 3, 5, 6, 8, 9, 27, 28, 30, 31, 37, 38, 43, 44, 76, 105, 111, 112]",39.66666666666666,36.15706477762449,-0.03663466,112.0,0.4049869540552517,0.9984683861359328,"[1, 2, 3, 4, 195, 201]",67.66666666666667,92.18037872683222,-0.0146202585,201.0,0.6759152953182803,0.9967444613563334,-0.0146202585,442.0,"[1, 2, 3, 4, 5, 7, 9, 10, 12, 13, 31, 32, 34, 35, 42, 43, 48, 49, 114, 175, 192, 195, 431, 442]",80.375,122.11224771359616,0.521995972762271,0.9982775465665128
8.0,1.0,128.0,100.0,32.0,2.0,0.001,1.0,190.0,4.0,"[1, 3, 4, 5, 8, 9, 23, 25, 26, 28, 36, 38, 48, 50, 149, 179, 192, 212]",57.55555555555556,69.43279902356605,-0.009017447,212.0,0.4095366760074472,0.9975601362938894,"[1, 2, 3, 4, 172, 233]",69.16666666666667,95.9156168491636,-0.009988432,233.0,0.6758034734005389,0.9966683578555724,-0.009017447,456.0,"[1, 2, 3, 4, 5, 7, 8, 9, 12, 13, 27, 29, 30, 32, 43, 45, 57, 59, 282, 333, 355, 392, 440, 456]",110.16666666666669,157.45599032392792,0.5203182131445521,0.9975215280244972
8.0,2.0,128.0,100.0,32.0,2.0,0.001,1.0,190.0,4.0,"[3, 4, 12, 14, 24, 26, 29, 31, 35, 38, 39, 40, 42, 43, 84, 87, 92, 93]",40.888888888888886,28.34879752278136,-0.032806642,93.0,0.2658812065982521,0.9984063317988988,"[1, 2, 3, 4, 52, 53]",19.166666666666668,23.58966346140237,-0.028229574,53.0,0.7015602322206095,0.9992051412142736,-0.028229574,148.0,"[2, 3, 4, 5, 7, 8, 16, 18, 28, 30, 33, 35, 39, 42, 43, 44, 47, 48, 134, 138, 143, 144, 146, 148]",54.375,52.74688971873128,0.3923223953329404,0.9989373445668172
8.0,1.0,16.0,100.0,32.0,2.0,0.01,1.0,190.0,4.0,"[16, 18, 20, 21, 23, 24, 25, 27, 35, 37, 40, 42, 44, 46, 270, 273, 447, 452]",103.33333333333331,143.99691354716987,-0.07769652,452.0,0.1909845905457791,0.9952359193067968,"[1, 2, 3, 4, 75, 79]",27.33333333333333,35.150470203904185,-0.30564094,79.0,0.6904360056258789,0.9987907999323524,-0.07769652,1036.0,"[3, 4, 5, 6, 20, 22, 24, 25, 27, 28, 29, 31, 41, 43, 46, 48, 50, 52, 182, 186, 583, 589, 1016, 1036]",170.66666666666666,301.36296867546434,0.2921085117438629,0.9959862288314808
8.0,2.0,16.0,100.0,32.0,2.0,0.01,1.0,190.0,4.0,"[1, 2, 19, 20, 22, 24, 35, 37, 39, 40, 42, 44, 46, 48, 267, 272, 447, 453]",103.22222222222224,144.17680332593017,-0.077360235,453.0,0.27965722399956,0.9952415606101634,"[2, 3, 4, 5, 76, 77]",27.83333333333333,34.4258462334463,-0.30892608,77.0,0.4767297030454924,0.9987654320987654,-0.077360235,1035.0,"[2, 3, 4, 5, 6, 7, 24, 25, 27, 29, 40, 42, 44, 45, 47, 49, 51, 53, 183, 184, 580, 597, 1008, 1035]",170.41666666666666,300.7417104242258,0.3547695992338677,0.995992573043022
8.0,1.0,32.0,100.0,32.0,2.0,0.01,1.0,190.0,4.0,"[2, 4, 24, 26, 27, 29, 33, 35, 36, 38, 44, 46, 51, 52, 91, 96, 269, 407]",72.77777777777777,99.28105758432336,-0.049766324,407.0,0.2277058679537563,0.9967872777326472,"[1, 2, 3, 4, 30, 39]",13.166666666666666,15.33423910368196,-0.061612677,39.0,0.72008547008547,0.9995095552173178,-0.049766324,667.0,"[1, 2, 3, 4, 6, 8, 28, 30, 31, 33, 37, 39, 40, 42, 49, 51, 56, 57, 119, 121, 129, 145, 438, 667]",89.0,149.24839474290278,0.4134935852208478,0.9980586712683348
8.0,2.0,32.0,100.0,32.0,2.0,0.01,1.0,190.0,4.0,"[13, 14, 16, 17, 20, 21, 34, 35, 39, 40, 49, 50, 52, 54, 90, 97, 267, 407]",73.05555555555556,98.92560179932204,-0.051052034,407.0,0.1948206815048335,0.9967731744742304,"[1, 2, 3, 4, 30, 39]",13.166666666666666,15.33423910368196,-0.06390297,39.0,0.72008547008547,0.9995095552173175,-0.051052034,667.0,"[13, 14, 15, 16, 17, 18, 20, 21, 24, 25, 39, 40, 44, 45, 54, 55, 57, 59, 116, 120, 130, 145, 433, 667]",91.125,147.4961334238969,0.2456933295715098,0.998004745470233
8.0,2.0,16.0,100.0,32.0,2.0,0.0001,1.0,190.0,4.0,"[2, 3, 6, 7, 12, 13, 30, 31, 33, 34, 40, 41, 43, 44, 117, 129, 241, 326]",64.0,85.81051476622457,-0.052483793,326.0,0.3189290967181026,0.997232940698619,"[1, 2, 3, 4, 22, 24]",9.333333333333334,9.72396809720988,-0.19751818,24.0,0.7462121212121212,0.9997040419414848,-0.052483793,558.0,"[1, 2, 3, 4, 6, 7, 10, 11, 16, 17, 34, 35, 37, 38, 44, 45, 47, 48, 108, 111, 187, 231, 376, 558]",82.33333333333333,131.80056482765502,0.4898181073597724,0.9982278502427718
8.0,1.0,64.0,100.0,32.0,2.0,0.01,1.0,190.0,4.0,"[2, 3, 9, 10, 12, 13, 22, 23, 27, 29, 36, 37, 42, 44, 88, 95, 99, 104]",38.61111111111112,33.33856440435326,-0.041557085,104.0,0.3368682862971903,0.9985219785179168,"[1, 2, 3, 4, 319, 320]",108.16666666666669,149.43830016282823,-0.010911249,320.0,0.6724039968652037,0.9946896668357854,-0.010911249,1067.0,"[1, 2, 3, 4, 6, 7, 13, 14, 16, 17, 26, 27, 31, 33, 40, 41, 46, 48, 104, 111, 115, 120, 1066, 1067]",123.25,286.7355416291,0.4977047007326224,0.9971895142871644
8.0,2.0,64.0,100.0,32.0,2.0,0.01,1.0,190.0,4.0,"[2, 4, 21, 23, 24, 25, 31, 33, 34, 38, 39, 40, 42, 44, 83, 87, 100, 103]",42.94444444444444,29.37586352815337,-0.061320234,103.0,0.2600190622027362,0.9983019676866144,"[1, 2, 3, 4, 295, 445]",125.0,178.573047611708,-0.013398639,445.0,0.6717387164349647,0.9938356164383562,-0.013398639,1344.0,"[1, 2, 4, 5, 6, 8, 25, 27, 28, 29, 35, 37, 38, 42, 43, 44, 46, 48, 133, 137, 151, 154, 1016, 1344]",141.79166666666666,319.90766625786813,0.4065933619035563,0.9967189852645112
8.0,1.0,128.0,100.0,32.0,2.0,0.01,1.0,190.0,4.0,"[1, 2, 18, 19, 21, 22, 31, 32, 34, 35, 40, 41, 42, 43, 74, 78, 82, 86]",38.94444444444444,25.00549322365037,-0.02483525,86.0,0.330082252846874,0.9985050546078168,"[1, 2, 3, 4, 61, 62]",22.166666666666668,27.82934103104532,-0.005634313,62.0,0.6964569011105235,0.9990529342127517,-0.005634313,152.0,"[1, 2, 4, 5, 6, 7, 22, 23, 25, 26, 35, 36, 38, 39, 44, 45, 46, 47, 130, 134, 138, 142, 151, 152]",54.083333333333336,52.43481402867967,0.4317304342868178,0.9989447461469488
8.0,2.0,128.0,100.0,32.0,2.0,0.01,1.0,190.0,4.0,"[1, 3, 17, 19, 20, 22, 27, 29, 30, 32, 36, 38, 42, 44, 110, 138, 149, 153]",50.55555555555556,48.43463203377222,-0.028568506,153.0,0.3031727506940608,0.9979155384059932,"[1, 2, 3, 4, 268, 270]",91.33333333333331,125.63394799531252,-0.006877756,270.0,0.6734798231066887,0.9955437172332148,-0.006877756,716.0,"[1, 3, 12, 15, 17, 18, 21, 23, 24, 26, 31, 33, 34, 36, 40, 42, 46, 48, 166, 202, 244, 248, 714, 716]",115.0,194.71688849883225,0.3206570434202289,0.9973988732680302
8.0,1.0,32.0,100.0,32.0,2.0,0.0001,1.0,190.0,4.0,"[3, 4, 5, 7, 9, 10, 28, 29, 31, 32, 37, 38, 42, 45, 81, 88, 95, 102]",38.11111111111112,31.6945296522372,-0.041942876,102.0,0.3469525069557934,0.9985473643830672,"[1, 2, 3, 4, 429, 438]",146.16666666666666,203.19400964486024,-0.010383254,438.0,0.6708922736319997,0.9927617114831726,-0.010383254,1247.0,"[1, 2, 3, 4, 7, 8, 9, 11, 13, 14, 32, 33, 35, 36, 42, 43, 47, 50, 99, 107, 125, 139, 1238, 1247]",139.375,334.8697274687576,0.5015626859185548,0.9967803126427448
8.0,2.0,32.0,100.0,32.0,2.0,0.0001,1.0,190.0,4.0,"[2, 3, 6, 7, 9, 10, 27, 28, 30, 31, 36, 37, 43, 45, 77, 84, 96, 103]",37.44444444444444,31.41518072917795,-0.042240806,103.0,0.3634246420188936,0.9985812122032676,"[1, 2, 3, 4, 373, 416]",133.16666666666666,185.20926602689784,-0.010629022,416.0,0.6713046504433904,0.993421275156435,-0.010629022,1205.0,"[1, 2, 3, 4, 6, 7, 10, 11, 13, 14, 31, 32, 34, 35, 41, 42, 48, 50, 96, 103, 129, 139, 1146, 1205]",133.41666666666666,316.7046358815874,0.5104437085310628,0.996931516351148
8.0,1.0,64.0,100.0,32.0,2.0,0.0001,1.0,190.0,4.0,"[2, 4, 9, 10, 12, 13, 28, 29, 34, 35, 37, 40, 42, 44, 68, 69, 76, 77]",34.94444444444444,23.91994105860033,-0.025420671,77.0,0.3234859089517674,0.9987081415290188,"[1, 2, 3, 4, 62, 63]",22.5,28.30047113859885,-0.006917901,63.0,0.6959805427547362,0.9990360223236936,-0.006917901,191.0,"[1, 2, 3, 4, 6, 8, 13, 14, 16, 17, 32, 33, 38, 39, 41, 44, 47, 49, 119, 120, 127, 128, 188, 191]",53.333333333333336,57.3648169370584,0.484271606268041,0.998963778781573
8.0,2.0,64.0,100.0,32.0,2.0,0.0001,1.0,190.0,4.0,"[1, 2, 9, 10, 12, 13, 28, 29, 34, 35, 36, 38, 42, 44, 76, 77, 86, 89]",36.72222222222222,27.58180873038435,-0.034231193,89.0,0.3745529774431848,0.9986178806751512,"[1, 2, 3, 4, 142, 165]",52.833333333333336,71.49689192933883,-0.00878128,165.0,0.6785958173282116,0.9974970404194148,-0.00878128,508.0,"[1, 2, 3, 4, 5, 6, 13, 14, 16, 17, 32, 33, 38, 39, 41, 43, 47, 49, 110, 115, 135, 138, 443, 508]",77.16666666666667,127.18315751527618,0.4957027554166607,0.9983589639479606
8.0,1.0,128.0,100.0,32.0,2.0,0.0001,1.0,190.0,4.0,"[2, 3, 9, 10, 12, 13, 28, 29, 34, 35, 36, 37, 42, 43, 80, 82, 87, 96]",37.66666666666666,29.022979401386987,-0.0055703353,96.0,0.3269442611144715,0.998569929596534,"[1, 2, 3, 4, 53, 57]",20.0,24.79247197571607,-0.008113235,57.0,0.699933796756041,0.9991628614916286,-0.0055703353,158.0,"[1, 2, 3, 4, 6, 7, 13, 14, 16, 17, 32, 33, 38, 39, 40, 41, 47, 48, 126, 133, 135, 143, 144, 158]",51.66666666666666,53.138707381928505,0.4909877444498161,0.9990060735251824
8.0,2.0,128.0,100.0,32.0,2.0,0.0001,1.0,190.0,4.0,"[2, 3, 8, 9, 23, 24, 31, 32, 33, 35, 37, 38, 42, 44, 76, 77, 91, 93]",38.77777777777778,27.530902950756097,-0.028388372,93.0,0.306336945941963,0.9985135165628668,"[1, 2, 3, 4, 61, 62]",22.166666666666668,27.82934103104532,-0.008479437,62.0,0.6964569011105235,0.9990529342127517,-0.008479437,210.0,"[1, 2, 3, 4, 6, 7, 12, 13, 27, 28, 35, 36, 37, 39, 41, 42, 47, 49, 92, 93, 142, 144, 209, 210]",54.958333333333336,60.79712107127734,0.4733351816253142,0.998922541406554
8.0,1.0,16.0,100.0,32.0,2.0,0.001,1.0,190.0,4.0,"[3, 4, 6, 7, 8, 10, 28, 29, 31, 32, 34, 37, 40, 41, 92, 102, 163, 281]",52.66666666666666,68.37803415977645,-0.053662382,281.0,0.336723408138003,0.9978083536420256,"[1, 2, 3, 4, 41, 62]",18.83333333333333,23.89851227354726,-0.05964233,62.0,0.7031209021767636,0.9992220531033316,-0.053662382,466.0,"[1, 2, 3, 4, 7, 8, 10, 11, 12, 14, 32, 33, 35, 36, 38, 41, 45, 46, 132, 133, 147, 176, 279, 466]",71.29166666666667,106.7159310063664,0.5030717811875294,0.9985080529191832
8.0,2.0,16.0,100.0,32.0,2.0,0.001,1.0,190.0,4.0,"[1, 2, 5, 6, 9, 10, 28, 29, 31, 32, 37, 38, 43, 44, 94, 97, 190, 284]",54.44444444444444,71.53105170500913,-0.0550216,284.0,0.4034376627769775,0.9977180927881578,"[1, 2, 3, 4, 30, 42]",13.666666666666666,16.193277068654826,-0.06580172,42.0,0.7182539682539683,0.9994841873837308,-0.0550216,464.0,"[1, 2, 5, 6, 7, 8, 9, 10, 13, 14, 32, 33, 35, 36, 41, 42, 48, 49, 118, 124, 133, 149, 329, 464]",71.16666666666667,108.91191649932324,0.4750347084173306,0.998511225024954
