LSX-UniWue/explainable-ERP-fraud-detection/outputs/summary/ex2/NALU_minmax.csv
cpus,n_layers,n_bottleneck,epochs,batch_size,verbose,learning_rate,shuffle,n_inputs,seed,fraud_ranks_eval,rank_mean_eval,rank_std_eval,max_fraud_eval,min_detect_eval,auc_pr_eval,auc_roc_eval,fraud_ranks_test,rank_mean_test,rank_std_test,max_fraud_test,min_detect_test,auc_pr_test,auc_roc_test,max_fraud_joint,min_detect_joint,fraud_ranks_joint,rank_mean_joint,rank_std_joint,auc_pr_joint,auc_roc_joint
8.0,1.0,16.0,100.0,32.0,2.0,0.0001,1.0,190.0,0.0,"[2, 3, 5, 6, 8, 9, 27, 28, 30, 31, 34, 35, 40, 41, 52, 61, 119, 132]",36.833333333333336,35.62497563351993,-0.032683827,132.0,0.3919656421689089,0.9986122393717844,"[1, 2, 3, 4, 419, 579]",168.0,238.56794978929307,-0.013334821,579.0,0.6703826447541436,0.9916539827498732,-0.013334821,1390.0,"[1, 2, 3, 4, 6, 7, 9, 10, 12, 13, 31, 32, 34, 35, 38, 39, 44, 45, 56, 74, 204, 219, 1046, 1390]",139.75,333.3906929814728,0.5309684072445877,0.9967707963254328
8.0,1.0,32.0,100.0,32.0,2.0,0.001,1.0,190.0,0.0,"[2, 3, 5, 6, 8, 9, 26, 28, 29, 31, 33, 35, 40, 41, 55, 60, 64, 70]",30.27777777777778,21.33803478287215,-0.030435849,70.0,0.4065381230585539,0.9989450762704216,"[1, 2, 3, 4, 146, 147]",50.5,67.88900254582231,-0.01018331,147.0,0.6791771503121796,0.997615423642821,-0.01018331,389.0,"[1, 2, 3, 4, 6, 7, 9, 10, 12, 13, 30, 32, 33, 35, 37, 39, 44, 45, 70, 82, 86, 92, 388, 389]",61.208333333333336,102.29287168333003,0.5435307812698582,0.9987639361180194
8.0,2.0,32.0,100.0,32.0,2.0,0.001,1.0,190.0,0.0,"[2, 3, 4, 6, 8, 9, 27, 28, 29, 31, 34, 35, 40, 41, 54, 62, 69, 78]",31.11111111111111,22.815416057493746,-0.029157694,78.0,0.4110409624026267,0.9989027664951712,"[1, 2, 3, 4, 178, 183]",61.833333333333336,83.92738263258038,-0.007177904,183.0,0.6768127954810584,0.9970404194148486,-0.007177904,464.0,"[1, 2, 3, 4, 6, 7, 8, 10, 12, 13, 31, 32, 33, 35, 38, 39, 44, 45, 67, 84, 99, 116, 459, 464]",68.83333333333333,122.28439075459394,0.5427136972760197,0.9985704376660068
8.0,1.0,64.0,100.0,32.0,2.0,0.001,1.0,190.0,0.0,"[6, 7, 9, 10, 12, 13, 27, 30, 34, 35, 36, 40, 43, 44, 52, 60, 64, 71]",32.94444444444444,19.96517028956573,-0.012667692,71.0,0.3022557108296698,0.99880968498962,"[1, 2, 3, 4, 45, 46]",16.833333333333332,20.292992769809867,-0.005715318,46.0,0.7069243156199677,0.9993235244376796,-0.005715318,126.0,"[1, 2, 3, 4, 10, 11, 13, 14, 16, 17, 31, 34, 38, 39, 40, 44, 47, 48, 78, 93, 103, 111, 125, 126]",43.66666666666666,39.630235370933086,0.4760616391620469,0.9992090882945068
8.0,2.0,64.0,100.0,32.0,2.0,0.001,1.0,190.0,0.0,"[2, 3, 5, 6, 8, 9, 27, 28, 30, 31, 34, 35, 40, 41, 55, 60, 67, 75]",30.88888888888889,22.13566475895828,-0.02692705,75.0,0.403251635670464,0.9989140491019044,"[1, 2, 3, 4, 158, 159]",54.5,73.54533749101071,-0.008789927,159.0,0.6782302364461428,0.9974124809741248,-0.008789927,431.0,"[1, 2, 3, 4, 6, 7, 9, 10, 12, 13, 31, 32, 34, 35, 38, 39, 44, 45, 78, 87, 103, 113, 427, 431]",66.83333333333333,113.61875823217848,0.5363596025888312,0.998621191358338
8.0,1.0,128.0,100.0,32.0,2.0,0.001,1.0,190.0,0.0,"[3, 4, 6, 7, 8, 9, 27, 28, 30, 31, 34, 36, 40, 43, 54, 63, 68, 76]",31.5,22.304085325837107,-0.007605883,76.0,0.3716675021677484,0.9988830219333876,"[1, 2, 3, 4, 39, 40]",14.833333333333334,17.468225121313523,-0.0055803363,40.0,0.7130341880341879,0.9994249957720276,-0.0055803363,118.0,"[1, 2, 3, 4, 7, 8, 10, 11, 12, 13, 31, 32, 34, 35, 38, 40, 44, 47, 79, 101, 106, 114, 117, 118]",41.958333333333336,39.93064734288967,0.5298605368911488,0.9992524404067062
8.0,2.0,128.0,100.0,32.0,2.0,0.001,1.0,190.0,0.0,"[4, 5, 7, 8, 10, 11, 14, 15, 25, 26, 28, 32, 40, 42, 67, 70, 78, 84]",31.444444444444443,25.82036711638104,-0.0015548976,84.0,0.3729362014436641,0.9988858425850708,"[1, 2, 3, 4, 8, 19]",6.166666666666667,6.148622248565572,-0.0073354677,19.0,0.8234649122807017,0.999864704887536,-0.0015548976,133.0,"[1, 2, 3, 4, 8, 9, 11, 12, 14, 15, 18, 19, 29, 30, 32, 36, 44, 46, 57, 69, 116, 119, 127, 133]",39.75,41.4238759654381,0.545973588467914,0.9993084809419884
8.0,1.0,16.0,100.0,32.0,2.0,0.01,1.0,190.0,0.0,"[1, 3, 4, 5, 7, 9, 26, 28, 29, 31, 33, 35, 39, 41, 70, 75, 436, 440]",72.88888888888889,130.71380480053398,-0.048939303,440.0,0.4246664313158759,0.9967816364292806,"[1, 2, 3, 4, 300, 437]",124.5,177.01106368435467,-0.041939978,437.0,0.6717327739638952,0.9938609842719432,-0.041939978,970.0,"[1, 2, 3, 4, 5, 7, 8, 9, 11, 13, 30, 32, 33, 35, 37, 39, 43, 45, 113, 118, 735, 739, 741, 970]",157.20833333333334,290.2164392263509,0.5336173732327149,0.9963277588861256
8.0,2.0,16.0,100.0,32.0,2.0,0.01,1.0,190.0,0.0,"[1, 3, 4, 5, 7, 9, 26, 28, 29, 31, 33, 35, 39, 41, 70, 75, 436, 439]",72.83333333333333,130.55788413999022,-0.049001288,439.0,0.4246716083711669,0.996784457080964,"[1, 2, 3, 4, 300, 437]",124.5,177.01106368435467,-0.041957684,437.0,0.6717327739638952,0.9938609842719432,-0.041957684,970.0,"[1, 2, 3, 4, 5, 7, 8, 9, 11, 13, 30, 32, 33, 35, 37, 39, 43, 45, 113, 118, 735, 738, 741, 970]",157.16666666666666,290.1329676008724,0.533619054011814,0.996328816254716
8.0,1.0,32.0,100.0,32.0,2.0,0.01,1.0,190.0,0.0,"[2, 3, 5, 6, 8, 9, 27, 28, 30, 31, 34, 35, 40, 41, 56, 62, 439, 452]",72.66666666666667,132.96031153861082,-0.0337142,452.0,0.379437400044604,0.996792919036014,"[1, 2, 3, 4, 496, 545]",175.16666666666666,244.59859407245625,-0.014932245,545.0,0.6701816365788694,0.991290377135126,-0.014932245,1347.0,"[1, 2, 3, 4, 6, 7, 9, 10, 12, 13, 31, 32, 34, 35, 38, 39, 44, 45, 60, 66, 707, 728, 1274, 1347]",189.4583333333333,388.6787425761223,0.5252718226838162,0.9955093555972864
8.0,2.0,32.0,100.0,32.0,2.0,0.01,1.0,190.0,0.0,"[1, 3, 4, 6, 7, 9, 27, 28, 30, 31, 34, 35, 40, 41, 56, 62, 439, 449]",72.33333333333333,132.57115489845862,-0.033888143,449.0,0.4205236107277066,0.9968098429461144,"[1, 2, 3, 4, 496, 544]",175.0,244.34674815379336,-0.015047357,544.0,0.670185009487666,0.991298833079655,-0.015047357,1346.0,"[1, 2, 3, 4, 5, 7, 8, 10, 11, 13, 31, 32, 34, 35, 38, 39, 44, 45, 60, 66, 703, 723, 1275, 1346]",188.9583333333333,388.2202423846833,0.5391238135411979,0.9955220440203691
8.0,2.0,16.0,100.0,32.0,2.0,0.0001,1.0,190.0,0.0,"[1, 3, 4, 6, 7, 9, 26, 28, 29, 31, 33, 35, 39, 41, 53, 63, 441, 450]",72.16666666666667,133.1216027213882,-0.03366158,450.0,0.4232599633813039,0.9968183049011644,"[1, 2, 3, 4, 496, 536]",173.66666666666666,242.3431909962032,-0.0156515,536.0,0.6702124458353393,0.9913664806358872,-0.0156515,1334.0,"[1, 2, 3, 4, 5, 7, 8, 10, 11, 13, 30, 32, 33, 35, 37, 39, 43, 45, 70, 84, 721, 731, 1275, 1334]",190.54166666666663,387.919233342744,0.5362895066902758,0.9954818640139405
8.0,1.0,64.0,100.0,32.0,2.0,0.01,1.0,190.0,0.0,"[2, 3, 5, 6, 8, 9, 27, 28, 30, 31, 34, 35, 40, 41, 54, 60, 67, 77]",30.944444444444443,22.30214793398017,-0.026374284,77.0,0.4031858989380606,0.9989112284502212,"[1, 2, 3, 4, 247, 249]",84.33333333333333,115.73485022047404,-0.006286907,249.0,0.6740565500869875,0.9958988669034332,-0.006286907,599.0,"[1, 2, 3, 4, 6, 7, 9, 10, 12, 13, 31, 32, 34, 35, 38, 39, 44, 45, 69, 82, 93, 115, 597, 599]",80.0,159.01650857693988,0.5377500656450104,0.9982870628838248
8.0,2.0,64.0,100.0,32.0,2.0,0.01,1.0,190.0,0.0,"[2, 3, 5, 6, 8, 9, 27, 28, 30, 31, 34, 35, 40, 41, 56, 62, 67, 74]",31.0,22.23860507216124,-0.028439956,74.0,0.4026833558279906,0.9989084077985376,"[1, 2, 3, 4, 181, 183]",62.333333333333336,84.62400499989481,-0.007113307,183.0,0.676735199106361,0.9970150515812616,-0.007113307,464.0,"[1, 2, 3, 4, 6, 7, 9, 10, 12, 13, 31, 32, 34, 35, 38, 39, 44, 45, 65, 77, 89, 104, 462, 464]",67.75,122.3673601632941,0.5413367681060296,0.998597929249353
8.0,1.0,128.0,100.0,32.0,2.0,0.01,1.0,190.0,0.0,"[7, 8, 10, 11, 13, 14, 36, 37, 39, 40, 55, 56, 61, 62, 320, 325, 388, 398]",104.44444444444444,137.6041917248414,-3.6536996e-05,398.0,0.2110813035544952,0.9951795062731292,"[1, 2, 3, 4, 8, 9]",4.5,2.98607881119482,-0.0053982465,9.0,0.8819444444444444,0.999949264332826,-3.6536996e-05,469.0,"[2, 3, 4, 5, 11, 12, 14, 15, 17, 18, 38, 39, 82, 83, 85, 86, 104, 105, 113, 114, 390, 395, 459, 469]",110.95833333333331,147.68250832068398,0.3319042269485188,0.9975014380212828
8.0,2.0,128.0,100.0,32.0,2.0,0.01,1.0,190.0,0.0,"[2, 3, 5, 6, 8, 9, 27, 29, 31, 32, 37, 38, 43, 44, 61, 64, 73, 75]",32.611111111111114,23.5705534015288,-0.026473904,75.0,0.3925175795056468,0.9988266088997202,"[1, 2, 3, 4, 51, 54]",19.166666666666668,23.60378971455408,-0.005940809,54.0,0.7015250544662308,0.9992051412142736,-0.005940809,149.0,"[1, 2, 3, 4, 6, 7, 9, 10, 12, 13, 31, 33, 35, 36, 41, 42, 47, 48, 99, 102, 111, 113, 145, 149]",45.79166666666666,46.248404627138825,0.5350565429746128,0.9991551624964048
8.0,1.0,32.0,100.0,32.0,2.0,0.0001,1.0,190.0,0.0,"[2, 3, 5, 6, 8, 9, 27, 28, 30, 31, 34, 35, 40, 41, 55, 61, 67, 70]",30.666666666666668,21.682045823932555,-0.030259915,70.0,0.4039611508062086,0.998925331708638,"[1, 2, 3, 4, 186, 187]",63.833333333333336,86.74371575060768,-0.009722442,187.0,0.6764945469879056,0.9969389480805008,-0.009722442,474.0,"[1, 2, 3, 4, 6, 7, 9, 10, 12, 13, 31, 32, 34, 35, 38, 39, 44, 45, 77, 83, 92, 99, 471, 474]",69.20833333333333,124.92430346902968,0.5386957772575385,0.9985609213486948
8.0,2.0,32.0,100.0,32.0,2.0,0.0001,1.0,190.0,0.0,"[2, 3, 5, 6, 7, 9, 27, 28, 30, 31, 34, 35, 40, 41, 58, 61, 73, 79]",31.61111111111111,23.46188135131558,-0.030748686,79.0,0.4053516921607511,0.9988773806300209,"[1, 2, 3, 4, 145, 147]",50.333333333333336,67.65517143738697,-0.009799953,147.0,0.6792165141918836,0.99762387958735,-0.009799953,390.0,"[1, 2, 3, 4, 6, 7, 9, 10, 11, 13, 31, 32, 34, 35, 38, 39, 44, 45, 93, 97, 111, 117, 388, 390]",65.0,103.51932186794888,0.5361559136167576,0.9986677155763082
8.0,1.0,64.0,100.0,32.0,2.0,0.0001,1.0,190.0,0.0,"[2, 3, 4, 6, 7, 9, 27, 28, 31, 32, 33, 37, 39, 43, 70, 148, 151, 160]",46.11111111111112,50.80123455290005,-0.00042989,160.0,0.3875628238941681,0.9981411905406624,"[1, 2, 3, 4, 27, 30]",11.166666666666666,12.320939718850816,-0.0070178187,30.0,0.7308641975308642,0.999611026551666,-0.00042989,226.0,"[1, 2, 3, 4, 6, 7, 8, 10, 11, 13, 31, 32, 35, 36, 37, 41, 43, 47, 83, 87, 121, 210, 214, 226]",54.5,67.9975489754349,0.5403253952505495,0.9989341724610464
8.0,2.0,64.0,100.0,32.0,2.0,0.0001,1.0,190.0,0.0,"[2, 3, 4, 6, 7, 9, 27, 28, 30, 31, 33, 34, 40, 41, 58, 62, 68, 78]",31.166666666666668,23.00543414065468,-0.022670327,78.0,0.4156684591895585,0.9988999458434876,"[1, 2, 3, 4, 46, 48]",17.333333333333332,21.005290338917533,-0.006080022,48.0,0.7056159420289855,0.9992981566040926,-0.006080022,140.0,"[1, 2, 3, 4, 6, 7, 8, 10, 11, 13, 31, 32, 34, 35, 37, 38, 44, 45, 96, 100, 106, 116, 136, 140]",43.958333333333336,44.411409163512126,0.5501722236335701,0.9992016867143751
8.0,1.0,128.0,100.0,32.0,2.0,0.0001,1.0,190.0,0.0,"[2, 3, 5, 6, 7, 8, 26, 27, 30, 31, 33, 37, 39, 41, 95, 96, 110, 111]",39.27777777777778,36.519105434394135,-6.376241e-05,111.0,0.3921916768971627,0.9984881306977164,"[1, 2, 3, 4, 39, 40]",14.833333333333334,17.468225121313523,-0.0074110795,40.0,0.7130341880341879,0.9994249957720276,-6.376241e-05,174.0,"[1, 2, 3, 4, 6, 7, 9, 10, 11, 12, 30, 31, 34, 35, 37, 41, 43, 45, 92, 93, 149, 150, 173, 174]",49.66666666666666,55.73124996106065,0.5427893510322628,0.9990568272175134
8.0,2.0,128.0,100.0,32.0,2.0,0.0001,1.0,190.0,0.0,"[2, 3, 5, 6, 7, 8, 23, 27, 29, 31, 33, 36, 39, 42, 71, 86, 112, 114]",37.44444444444444,34.68624803101563,-0.0003353764,114.0,0.3984175858040367,0.9985812122032676,"[1, 2, 3, 4, 42, 43]",15.833333333333334,18.8804719809178,-0.007063142,43.0,0.7097637504614248,0.9993742601048536,-0.0003353764,175.0,"[1, 2, 3, 4, 6, 7, 9, 10, 11, 12, 27, 31, 33, 35, 37, 40, 43, 46, 99, 100, 123, 138, 172, 175]",48.5,53.70754136990447,0.545550260925709,0.9990864335380398
8.0,1.0,16.0,100.0,32.0,2.0,0.001,1.0,190.0,0.0,"[2, 3, 5, 6, 8, 9, 27, 28, 30, 31, 34, 35, 39, 41, 58, 64, 72, 80]",31.77777777777778,23.620978330373,-0.03355934,80.0,0.400192738527247,0.9988689186749706,"[1, 2, 3, 4, 381, 416]",134.5,186.95164258884344,-0.013768562,416.0,0.6712577394171882,0.993353627600203,-0.013768562,1046.0,"[1, 2, 3, 4, 6, 7, 9, 10, 12, 13, 31, 32, 34, 35, 38, 39, 43, 45, 79, 85, 105, 118, 972, 1046]",115.375,271.5430924211969,0.5337027793644264,0.9973893569507182
8.0,2.0,16.0,100.0,32.0,2.0,0.001,1.0,190.0,0.0,"[2, 3, 5, 6, 8, 9, 27, 28, 30, 31, 34, 35, 40, 41, 54, 62, 217, 228]",47.77777777777778,64.11756177830736,-0.034287345,228.0,0.3843630464190876,0.9980565709901617,"[1, 2, 3, 4, 367, 461]",139.66666666666666,195.87382560096069,-0.014619265,461.0,0.6711065270972356,0.9930914933198038,-0.014619265,1209.0,"[1, 2, 3, 4, 6, 7, 9, 10, 12, 13, 31, 32, 34, 35, 38, 39, 44, 45, 58, 68, 313, 333, 972, 1209]",138.25,301.1435496569701,0.5287253965378419,0.996808861594681
8.0,1.0,16.0,100.0,32.0,2.0,0.0001,1.0,190.0,1.0,"[2, 3, 5, 6, 7, 9, 26, 27, 29, 31, 33, 34, 39, 40, 56, 64, 440, 448]",72.16666666666667,132.61651061948845,-0.033667192,448.0,0.3877232318677561,0.9968183049011644,"[1, 2, 3, 4, 539, 542]",181.8333333333333,253.61875368793653,-0.015372294,542.0,0.6700577580914955,0.9909521393539658,-0.015372294,1344.0,"[1, 2, 3, 4, 6, 7, 9, 10, 11, 13, 30, 31, 33, 35, 37, 38, 43, 44, 77, 85, 716, 729, 1335, 1344]",193.4583333333333,395.7558147779456,0.5254545033683676,0.995407848212624
8.0,1.0,32.0,100.0,32.0,2.0,0.001,1.0,190.0,1.0,"[2, 3, 5, 6, 8, 9, 26, 28, 29, 31, 33, 34, 39, 40, 53, 54, 65, 66]",29.5,20.39675900180658,-0.031067576,66.0,0.410892181628687,0.9989845653939886,"[1, 2, 3, 4, 206, 207]",70.5,96.17128816162683,-0.00738327,207.0,0.6755428919844284,0.9966007102993404,-0.00738327,504.0,"[1, 2, 3, 4, 6, 7, 9, 10, 12, 13, 30, 32, 33, 35, 37, 38, 43, 44, 65, 68, 87, 88, 503, 504]",69.75,133.20887420388578,0.5468807468678756,0.9985471755570218
8.0,2.0,32.0,100.0,32.0,2.0,0.001,1.0,190.0,1.0,"[2, 3, 5, 6, 8, 9, 27, 28, 29, 30, 33, 34, 39, 40, 53, 59, 68, 76]",30.5,22.091350745886448,-0.03045046,76.0,0.4069059423831107,0.998933793663688,"[1, 2, 3, 4, 211, 212]",72.16666666666667,98.52819675380016,-0.007288561,212.0,0.6753330948761512,0.9965161508540504,-0.007288561,511.0,"[1, 2, 3, 4, 6, 7, 9, 10, 12, 13, 31, 32, 33, 34, 37, 38, 43, 44, 57, 72, 89, 113, 510, 511]",71.29166666666667,135.37001119360062,0.5453227722566669,0.9985080529191832
8.0,1.0,64.0,100.0,32.0,2.0,0.001,1.0,190.0,1.0,"[2, 3, 8, 9, 11, 12, 16, 17, 25, 26, 33, 37, 42, 51, 72, 75, 113, 118]",37.22222222222222,34.68518024164011,-0.0011500684,118.0,0.3644279430051796,0.9985924948100008,"[1, 2, 3, 4, 41, 42]",15.5,18.409689477736084,-0.005437145,42.0,0.7108013937282229,0.9993911719939116,-0.0011500684,176.0,"[1, 2, 3, 4, 6, 7, 12, 13, 15, 16, 20, 21, 29, 30, 37, 41, 46, 55, 99, 100, 122, 125, 170, 176]",47.91666666666666,52.74302218198052,0.5272816910557365,0.9991012366983032
8.0,2.0,64.0,100.0,32.0,2.0,0.001,1.0,190.0,1.0,"[2, 3, 5, 6, 7, 8, 26, 28, 29, 31, 33, 35, 39, 41, 55, 56, 65, 66]",29.72222222222222,20.824146122431888,-0.028021341,66.0,0.418288005120936,0.9989732827872552,"[1, 2, 3, 4, 140, 189]",56.5,77.67185247350977,-0.0067759776,189.0,0.6779100529100529,0.9973110096397768,-0.0067759776,487.0,"[1, 2, 3, 4, 6, 7, 9, 10, 11, 12, 30, 32, 33, 35, 37, 39, 43, 45, 71, 72, 98, 100, 383, 487]",65.41666666666667,115.92846812678162,0.5481411871917555,0.998657141890406
8.0,1.0,128.0,100.0,32.0,2.0,0.001,1.0,190.0,1.0,"[2, 4, 5, 7, 11, 12, 24, 27, 31, 33, 36, 37, 41, 44, 66, 75, 78, 120]",36.27777777777778,30.52468137162952,-0.0012112992,120.0,0.3544988622200354,0.998640445888618,"[1, 2, 3, 4, 40, 42]",15.333333333333334,18.18118685772619,-0.0054096305,42.0,0.7113095238095237,0.9993996279384408,-0.0012112992,191.0,"[1, 2, 3, 4, 6, 8, 9, 11, 15, 16, 28, 31, 35, 37, 40, 41, 45, 48, 94, 96, 111, 122, 125, 191]",46.625,49.13909890979552,0.5187832869445631,0.9991340151246004
8.0,2.0,128.0,100.0,32.0,2.0,0.001,1.0,190.0,1.0,"[4, 5, 7, 9, 10, 11, 27, 29, 30, 34, 36, 37, 42, 43, 109, 112, 116, 119]",43.333333333333336,39.81763986532155,-0.00012549949,119.0,0.3078321404779101,0.9982822231248308,"[1, 2, 3, 4, 6, 45]",10.166666666666666,15.65691185671328,-0.00550144,45.0,0.8277777777777778,0.9996617622188398,-0.00012549949,196.0,"[3, 4, 5, 6, 8, 9, 11, 13, 14, 15, 31, 33, 34, 38, 40, 41, 46, 47, 55, 100, 186, 189, 193, 196]",54.875,64.5286192966604,0.4148481454169189,0.9989246561437344
8.0,1.0,16.0,100.0,32.0,2.0,0.01,1.0,190.0,1.0,"[1, 3, 4, 6, 7, 9, 26, 28, 29, 31, 33, 35, 39, 41, 68, 71, 435, 438]",72.44444444444444,130.22127417174806,-0.04688764,438.0,0.4182922313493039,0.9968042016427476,"[1, 2, 3, 4, 310, 449]",128.16666666666666,182.1953316879686,-0.040604223,449.0,0.6715820102018822,0.9936749534923052,-0.040604223,1099.0,"[1, 2, 3, 4, 5, 7, 8, 10, 11, 13, 30, 32, 33, 35, 37, 39, 43, 45, 119, 122, 732, 735, 754, 1099]",163.29166666666666,306.3923790347201,0.5291972066893483,0.9961733830719518
8.0,2.0,16.0,100.0,32.0,2.0,0.01,1.0,190.0,1.0,"[1, 3, 4, 6, 7, 9, 26, 28, 29, 31, 33, 35, 39, 41, 68, 71, 436, 438]",72.5,130.37605864063642,-0.046891917,438.0,0.4182872516780793,0.9968013809910642,"[1, 2, 3, 4, 310, 449]",128.16666666666666,182.1953316879686,-0.040514212,449.0,0.6715820102018822,0.9936749534923052,-0.040514212,1101.0,"[1, 2, 3, 4, 5, 7, 8, 10, 11, 13, 30, 32, 33, 35, 37, 39, 43, 45, 119, 122, 733, 735, 754, 1101]",163.41666666666666,306.7243491946619,0.5291939230243545,0.9961702109661812
8.0,1.0,32.0,100.0,32.0,2.0,0.01,1.0,190.0,1.0,"[2, 3, 5, 6, 8, 10, 26, 28, 29, 31, 33, 35, 39, 41, 53, 59, 436, 445]",71.61111111111111,131.47037642200317,-0.03359366,445.0,0.3794909254264809,0.996846511417998,"[1, 2, 3, 4, 530, 542]",180.3333333333333,251.5198247101453,-0.014349237,542.0,0.6700840121608763,0.9910282428547268,-0.014349237,1345.0,"[1, 2, 3, 4, 6, 7, 9, 10, 12, 14, 30, 32, 33, 35, 37, 39, 43, 45, 57, 63, 709, 723, 1319, 1345]",190.75,393.6897308371996,0.5260533048567299,0.9954765771709893
8.0,2.0,32.0,100.0,32.0,2.0,0.01,1.0,190.0,1.0,"[1, 2, 3, 4, 7, 8, 26, 28, 34, 37, 39, 40, 43, 52, 56, 69, 85, 494]",57.11111111111112,108.58938401606144,-0.11268723,494.0,0.4691107223512834,0.9975827015073564,"[1, 2, 3, 4, 111, 525]",107.66666666666669,190.79803166932533,-0.19431362,525.0,0.676078936078936,0.9947150346693726,-0.11268723,1135.0,"[1, 2, 3, 4, 5, 6, 7, 8, 11, 12, 30, 32, 38, 41, 43, 44, 47, 61, 65, 90, 132, 213, 988, 1135]",125.75,286.8802377880591,0.5528058374607769,0.9971260721717504
8.0,2.0,16.0,100.0,32.0,2.0,0.0001,1.0,190.0,1.0,"[2, 3, 5, 6, 7, 9, 26, 28, 29, 31, 33, 35, 39, 41, 54, 60, 73, 79]",31.11111111111111,23.14900739146015,-0.03505295,79.0,0.4087951513430697,0.998902766495171,"[1, 2, 3, 4, 504, 546]",176.66666666666666,246.60877699078128,-0.012983396,546.0,0.6701516076516076,0.991214273634365,-0.012983396,1359.0,"[1, 2, 3, 4, 6, 7, 9, 10, 11, 13, 30, 32, 33, 35, 37, 39, 43, 45, 75, 81, 111, 118, 1291, 1359]",141.45833333333334,358.4300232921654,0.5380681558672842,0.9967274442132332
8.0,1.0,64.0,100.0,32.0,2.0,0.01,1.0,190.0,1.0,"[2, 3, 5, 6, 8, 9, 26, 27, 29, 30, 33, 35, 39, 40, 53, 54, 71, 72]",30.11111111111111,21.640725210914745,-0.028610794,72.0,0.4090267122171972,0.9989535382254716,"[1, 2, 3, 4, 205, 206]",70.16666666666667,95.69990711710342,-0.007215177,206.0,0.6755860762491119,0.9966176221883984,-0.007215177,504.0,"[1, 2, 3, 4, 6, 7, 9, 10, 12, 13, 30, 31, 33, 34, 37, 39, 43, 44, 57, 58, 93, 94, 503, 504]",69.45833333333333,133.34259733441857,0.5499336857589857,0.9985545771371532
8.0,2.0,64.0,100.0,32.0,2.0,0.01,1.0,190.0,1.0,"[2, 3, 5, 6, 7, 8, 26, 27, 29, 30, 33, 34, 39, 40, 55, 56, 71, 78]",30.5,22.65747362596084,-0.027071752,78.0,0.4169488625628892,0.998933793663688,"[1, 2, 3, 4, 198, 199]",67.83333333333333,92.40024651241768,-0.0060553695,199.0,0.6759005465035615,0.9967360054118044,-0.0060553695,504.0,"[1, 2, 3, 4, 6, 7, 9, 10, 11, 12, 30, 31, 33, 34, 37, 38, 43, 44, 79, 84, 105, 116, 503, 504]",72.75,133.70466521404555,0.5446556615458712,0.9984710450185252
8.0,1.0,128.0,100.0,32.0,2.0,0.01,1.0,190.0,1.0,"[3, 4, 22, 23, 24, 27, 28, 29, 30, 32, 33, 36, 40, 43, 81, 85, 89, 97]",40.333333333333336,27.44691846698521,-5.2024072e-05,97.0,0.2655430236266096,0.9984345383157324,"[1, 2, 3, 4, 7, 8]",4.166666666666667,2.544056253745625,-0.005386329,8.0,0.9107142857142856,0.999966176221884,-5.2024072e-05,160.0,"[3, 4, 5, 6, 7, 8, 26, 27, 28, 31, 32, 33, 34, 36, 37, 40, 44, 47, 55, 56, 143, 147, 151, 160]",48.333333333333336,48.123683243169246,0.3803594270611871,0.9990906630124008
8.0,2.0,128.0,100.0,32.0,2.0,0.01,1.0,190.0,1.0,"[1, 3, 4, 6, 8, 9, 26, 27, 29, 30, 33, 35, 39, 41, 57, 66, 70, 79]",31.27777777777778,23.57683787004986,-0.024852201,79.0,0.4395266573271451,0.998894304540121,"[1, 2, 3, 4, 59, 60]",21.5,26.88710967483613,-0.006323635,60.0,0.697457627118644,0.9990867579908675,-0.006323635,196.0,"[1, 2, 3, 4, 5, 7, 8, 10, 12, 13, 30, 31, 33, 34, 37, 39, 43, 45, 78, 87, 108, 117, 195, 196]",47.41666666666666,55.12781864801916,0.5549251229586208,0.999113925121386
8.0,1.0,32.0,100.0,32.0,2.0,0.0001,1.0,190.0,1.0,"[2, 3, 5, 6, 8, 9, 27, 28, 29, 31, 33, 34, 39, 40, 57, 59, 67, 75]",30.666666666666668,22.130923563597108,-0.031062575,75.0,0.4055879188642604,0.998925331708638,"[1, 2, 3, 4, 145, 146]",50.16666666666666,67.41764523393627,-0.01006328,146.0,0.6792631081719414,0.9976323355318788,-0.01006328,392.0,"[1, 2, 3, 4, 6, 7, 9, 10, 12, 13, 31, 32, 33, 35, 37, 38, 43, 44, 79, 81, 89, 97, 388, 392]",61.91666666666666,102.84248338546132,0.5422017730812271,0.9987459608519852
8.0,2.0,32.0,100.0,32.0,2.0,0.0001,1.0,190.0,1.0,"[2, 3, 5, 6, 7, 9, 27, 28, 30, 31, 34, 35, 39, 41, 56, 62, 77, 79]",31.72222222222222,23.801973670628325,-0.02827758,79.0,0.4054206771133942,0.998871739326654,"[1, 2, 3, 4, 199, 200]",68.16666666666667,92.87162585466504,-0.0076989653,200.0,0.6758542713567839,0.9967190935227466,-0.0076989653,497.0,"[1, 2, 3, 4, 6, 7, 9, 10, 11, 13, 31, 32, 34, 35, 38, 39, 43, 45, 85, 93, 115, 117, 495, 497]",73.54166666666667,131.784539800978,0.5363408641616074,0.9984509550153108
8.0,1.0,64.0,100.0,32.0,2.0,0.0001,1.0,190.0,1.0,"[1, 3, 5, 6, 9, 10, 14, 16, 17, 28, 33, 34, 39, 40, 105, 169, 183, 192]",50.22222222222222,63.10534011173131,-9.17747e-05,192.0,0.4316238459893573,0.9979324623160934,"[1, 2, 3, 4, 42, 43]",15.833333333333334,18.8804719809178,-0.0070644687,43.0,0.7097637504614248,0.9993742601048538,-9.17747e-05,296.0,"[1, 2, 3, 4, 5, 7, 9, 10, 13, 14, 18, 20, 21, 32, 37, 38, 43, 44, 99, 100, 173, 248, 274, 296]",62.958333333333336,88.5609390790068,0.5627962247688906,0.9987195266372296
8.0,2.0,64.0,100.0,32.0,2.0,0.0001,1.0,190.0,1.0,"[2, 3, 4, 6, 8, 9, 27, 28, 30, 32, 34, 35, 39, 42, 60, 61, 64, 77]",31.166666666666668,22.57641345396661,-0.023422753,77.0,0.4098451712219726,0.9988999458434876,"[1, 2, 3, 4, 46, 48]",17.333333333333332,21.005290338917533,-0.0064487606,48.0,0.7056159420289855,0.9992981566040928,-0.0064487606,139.0,"[1, 2, 3, 4, 6, 7, 8, 10, 12, 13, 31, 32, 34, 36, 38, 39, 43, 46, 98, 99, 102, 115, 136, 139]",43.91666666666666,44.02737469146011,0.5463457461757124,0.9992027440829654
8.0,1.0,128.0,100.0,32.0,2.0,0.0001,1.0,190.0,1.0,"[1, 2, 5, 6, 8, 9, 14, 15, 29, 30, 33, 34, 39, 41, 86, 90, 97, 98]",35.388888888888886,33.15475311808229,-4.2575204e-05,98.0,0.4615302038407259,0.998685576315552,"[1, 2, 3, 4, 40, 41]",15.166666666666666,17.93893964412489,-0.0072941817,41.0,0.7118902439024389,0.9994080838829698,-4.2575204e-05,154.0,"[1, 2, 3, 4, 5, 6, 9, 10, 12, 13, 18, 19, 33, 34, 37, 38, 43, 45, 94, 95, 140, 145, 153, 154]",46.375,51.71944548877788,0.5744899435845098,0.9991403593361416
8.0,2.0,128.0,100.0,32.0,2.0,0.0001,1.0,190.0,1.0,"[1, 2, 4, 5, 9, 10, 28, 29, 31, 32, 33, 37, 39, 43, 76, 81, 95, 97]",36.22222222222222,30.56787630386506,-0.0018483148,97.0,0.4394570141936975,0.9986432665403014,"[1, 2, 3, 4, 42, 44]",16.0,19.122412679017955,-0.0075274054,44.0,0.7092352092352092,0.9993658041603248,-0.0018483148,150.0,"[1, 2, 3, 4, 5, 6, 8, 9, 13, 14, 32, 33, 35, 36, 37, 41, 43, 47, 100, 102, 128, 133, 148, 150]",47.083333333333336,49.16800845626712,0.5517967857711104,0.9991223840701076
8.0,1.0,16.0,100.0,32.0,2.0,0.001,1.0,190.0,1.0,"[2, 3, 5, 6, 7, 9, 26, 28, 29, 30, 33, 35, 39, 40, 53, 59, 336, 401]",63.388888888888886,109.67129619857944,-0.03565496,401.0,0.3901178370511378,0.997263967867136,"[1, 2, 3, 4, 530, 545]",180.8333333333333,252.24024042346787,-0.01438422,545.0,0.6700738560960129,0.99100287502114,-0.01438422,1351.0,"[1, 2, 3, 4, 6, 7, 9, 10, 11, 13, 30, 32, 33, 34, 37, 39, 43, 44, 57, 72, 530, 637, 1318, 1351]",180.125,381.3450223113797,0.5309843679196243,0.9957462061614982
8.0,2.0,16.0,100.0,32.0,2.0,0.001,1.0,190.0,1.0,"[2, 3, 5, 6, 8, 9, 27, 28, 30, 31, 34, 35, 39, 41, 52, 61, 439, 447]",72.05555555555556,132.2192926846332,-0.034865562,447.0,0.3813048301725035,0.9968239462045312,"[1, 2, 3, 4, 505, 544]",176.5,246.3322620635253,-0.014397267,544.0,0.6701550669772859,0.991222729578894,-0.014397267,1350.0,"[1, 2, 3, 4, 6, 7, 9, 10, 12, 13, 31, 32, 34, 35, 38, 39, 43, 45, 65, 75, 711, 728, 1288, 1350]",190.875,390.7372638679346,0.5230993084465653,0.9954734050652184
8.0,1.0,16.0,100.0,32.0,2.0,0.0001,1.0,190.0,2.0,"[1, 3, 4, 6, 7, 9, 26, 27, 29, 30, 33, 34, 39, 40, 55, 61, 441, 450]",71.94444444444444,133.17969157087572,-0.033551503,450.0,0.4253705495221404,0.9968295875078976,"[1, 2, 3, 4, 513, 538]",176.83333333333334,246.6518576635677,-0.015516642,538.0,0.6701498341751391,0.991205817689836,-0.015516642,1337.0,"[1, 2, 3, 4, 5, 7, 8, 10, 11, 13, 30, 31, 33, 34, 37, 38, 43, 44, 76, 85, 721, 730, 1300, 1337]",191.79166666666663,391.1391460813175,0.5370883762294427,0.9954501429562336
8.0,1.0,32.0,100.0,32.0,2.0,0.001,1.0,190.0,2.0,"[2, 3, 5, 6, 8, 9, 27, 28, 29, 31, 34, 35, 39, 40, 57, 59, 69, 71]",30.666666666666668,21.908902300206645,-0.03253697,71.0,0.4048256210803221,0.998925331708638,"[1, 2, 3, 4, 58, 142]",35.0,51.97435264948793,-0.011423661,142.0,0.6880767362797474,0.9984018264840182,-0.011423661,383.0,"[1, 2, 3, 4, 6, 7, 9, 10, 12, 13, 31, 32, 33, 35, 38, 39, 43, 44, 70, 72, 91, 93, 186, 383]",52.375,80.1357247112672,0.5468145691200437,0.9989880982591484
8.0,2.0,32.0,100.0,32.0,2.0,0.001,1.0,190.0,2.0,"[2, 3, 4, 6, 8, 9, 27, 28, 29, 31, 34, 35, 40, 41, 54, 55, 69, 73]",30.444444444444443,21.77465964071852,-0.03274438,73.0,0.4137437783179923,0.9989366143153714,"[1, 2, 3, 4, 172, 199]",63.5,86.62322629256735,-0.008096458,199.0,0.6765367535351173,0.9969558599695586,-0.008096458,494.0,"[1, 2, 3, 4, 6, 7, 8, 10, 12, 13, 31, 32, 33, 35, 38, 39, 44, 45, 80, 81, 107, 111, 448, 494]",70.16666666666667,125.02122042099714,0.5407765706001203,0.9985366018711194
8.0,1.0,64.0,100.0,32.0,2.0,0.001,1.0,190.0,2.0,"[3, 4, 5, 7, 9, 10, 28, 29, 31, 32, 35, 36, 42, 43, 120, 127, 175, 214]",52.77777777777778,60.93489745946129,-0.00063765503,214.0,0.3335536456146614,0.9978027123386588,"[1, 2, 3, 4, 41, 43]",15.666666666666666,18.651779778050376,-0.00604547,43.0,0.7102476838721875,0.9993827160493828,-0.00063765503,531.0,"[1, 2, 3, 4, 7, 8, 9, 11, 13, 14, 32, 33, 35, 36, 39, 40, 46, 47, 95, 98, 317, 333, 416, 531]",90.41666666666669,144.5697399950011,0.5007363638519713,0.9980227207362669
8.0,2.0,64.0,100.0,32.0,2.0,0.001,1.0,190.0,2.0,"[1, 3, 4, 6, 7, 9, 23, 28, 29, 31, 33, 36, 39, 42, 55, 59, 65, 76]",30.33333333333333,22.263572639328725,-0.02813287,76.0,0.4479389395763692,0.9989422556187382,"[1, 2, 3, 4, 188, 189]",64.5,87.68646797919658,-0.006275437,189.0,0.6763902960711471,0.9969051243023844,-0.006275437,487.0,"[1, 2, 3, 4, 5, 7, 8, 10, 11, 13, 27, 32, 33, 35, 37, 40, 43, 46, 70, 86, 99, 114, 486, 487]",70.79166666666667,129.05779686076914,0.5539024013590456,0.998520741342266
8.0,1.0,128.0,100.0,32.0,2.0,0.001,1.0,190.0,2.0,"[1, 2, 5, 6, 8, 9, 14, 15, 24, 25, 36, 38, 44, 45, 78, 81, 114, 120]",36.94444444444444,36.52011960279524,-0.0009550054,120.0,0.4601965953330476,0.9986065980684178,"[1, 2, 3, 4, 42, 43]",15.833333333333334,18.8804719809178,-0.005542164,43.0,0.7097637504614248,0.9993742601048538,-0.0009550054,189.0,"[1, 2, 3, 4, 5, 6, 9, 10, 12, 13, 18, 19, 28, 29, 40, 42, 48, 49, 97, 98, 125, 129, 183, 189]",48.29166666666666,56.08139855503685,0.5731406946217997,0.999091720380991
8.0,2.0,128.0,100.0,32.0,2.0,0.001,1.0,190.0,2.0,"[2, 3, 5, 6, 12, 13, 29, 30, 31, 33, 36, 38, 42, 44, 107, 147, 159, 167]",50.22222222222222,53.460842945047744,-0.00054109097,167.0,0.3403178390336148,0.9979324623160934,"[1, 2, 3, 4, 43, 46]",16.5,19.83893478323202,-0.0060629477,46.0,0.7077856420626896,0.9993404363267376,-0.00054109097,489.0,"[1, 2, 3, 4, 6, 7, 9, 10, 16, 17, 33, 34, 35, 37, 40, 42, 46, 48, 97, 100, 311, 404, 454, 489]",93.54166666666669,148.33042483103577,0.4988826965766215,0.9979434180919996
8.0,1.0,16.0,100.0,32.0,2.0,0.01,1.0,190.0,2.0,"[1, 3, 4, 6, 7, 9, 26, 28, 29, 31, 33, 35, 40, 41, 67, 74, 436, 437]",72.61111111111111,130.2084392592162,-0.04687412,437.0,0.417504872392901,0.9967957396876974,"[1, 2, 3, 4, 338, 417]",127.5,178.24398073053314,-0.0407836,417.0,0.6715302314361529,0.9937087772704212,-0.0407836,977.0,"[1, 2, 3, 4, 5, 7, 8, 10, 11, 13, 30, 32, 33, 35, 37, 39, 44, 45, 118, 127, 732, 733, 804, 977]",160.41666666666666,295.67393593093203,0.5286482645213132,0.9962463415046778
8.0,2.0,16.0,100.0,32.0,2.0,0.01,1.0,190.0,2.0,"[2, 4, 5, 7, 8, 10, 26, 28, 29, 31, 33, 35, 40, 41, 67, 75, 436, 437]",73.0,130.0367469431451,-0.046820395,437.0,0.358019315407344,0.996775995125914,"[1, 2, 3, 4, 344, 415]",128.16666666666666,178.89980125447008,-0.04088785,415.0,0.6714987858410385,0.9936749534923052,-0.04088785,974.0,"[2, 3, 4, 5, 6, 8, 9, 11, 12, 14, 30, 32, 33, 35, 37, 39, 44, 45, 119, 131, 732, 733, 813, 974]",161.29166666666666,295.9099636666907,0.4512890191825469,0.996224136764283
8.0,1.0,32.0,100.0,32.0,2.0,0.01,1.0,190.0,2.0,"[1, 2, 4, 5, 7, 9, 26, 27, 29, 30, 33, 34, 39, 40, 53, 59, 440, 446]",71.33333333333333,132.47683235611845,-0.033428688,446.0,0.4523869926205399,0.9968606146764148,"[1, 2, 3, 4, 530, 540]",180.0,251.0411652830401,-0.014476065,540.0,0.6700908455625436,0.9910451547437849,-0.014476065,1342.0,"[1, 2, 3, 4, 5, 6, 8, 9, 11, 13, 30, 31, 33, 34, 37, 38, 43, 44, 57, 63, 712, 722, 1318, 1342]",190.25,393.493037846076,0.5536566744022097,0.995489265594072
8.0,2.0,32.0,100.0,32.0,2.0,0.01,1.0,190.0,2.0,"[1, 3, 4, 6, 7, 9, 26, 27, 29, 30, 33, 34, 39, 40, 53, 59, 443, 446]",71.61111111111111,132.88513790692778,-0.033707716,446.0,0.4264465308166469,0.996846511417998,"[1, 2, 3, 4, 530, 539]",179.83333333333334,250.8023236645856,-0.014614979,539.0,0.670094281280265,0.991053610688314,-0.014614979,1341.0,"[1, 2, 3, 4, 5, 7, 8, 10, 11, 13, 30, 31, 33, 34, 37, 38, 43, 44, 57, 70, 715, 721, 1318, 1341]",190.66666666666663,393.3505292851261,0.5426749986524945,0.9954786919081696
8.0,2.0,16.0,100.0,32.0,2.0,0.0001,1.0,190.0,2.0,"[2, 3, 5, 6, 8, 9, 26, 28, 29, 30, 33, 35, 39, 40, 55, 63, 291, 298]",55.55555555555556,86.20983588007309,-0.033642765,298.0,0.3849258044796635,0.9976616797544904,"[1, 2, 3, 4, 406, 466]",147.0,205.0885987404793,-0.013847806,466.0,0.6708651345694412,0.9927194317605276,-0.013847806,1121.0,"[1, 2, 3, 4, 6, 7, 9, 10, 12, 13, 30, 32, 33, 34, 37, 39, 43, 44, 76, 84, 496, 503, 1033, 1121]",153.0,308.57360008054263,0.523866803789889,0.996434553113739
8.0,1.0,64.0,100.0,32.0,2.0,0.01,1.0,190.0,2.0,"[2, 3, 5, 6, 8, 9, 26, 27, 29, 30, 33, 35, 39, 40, 55, 58, 67, 69]",30.05555555555556,21.31632713365827,-0.027571728,69.0,0.4087177381202321,0.998956358877155,"[1, 2, 3, 4, 245, 250]",84.16666666666667,115.50673381043876,-0.006268815,250.0,0.6740680272108843,0.995907322847962,-0.006268815,599.0,"[1, 2, 3, 4, 6, 7, 9, 10, 12, 13, 30, 31, 33, 34, 37, 39, 43, 44, 77, 80, 95, 98, 594, 599]",79.20833333333333,158.56254790215192,0.5411723679609625,0.9983071528870392
8.0,2.0,64.0,100.0,32.0,2.0,0.01,1.0,190.0,2.0,"[2, 3, 5, 6, 8, 9, 26, 27, 29, 30, 33, 35, 39, 40, 53, 60, 67, 72]",30.22222222222222,21.655267656714624,-0.028412357,72.0,0.4081747729913995,0.998947896922105,"[1, 2, 3, 4, 200, 201]",68.5,93.34300545122096,-0.0074680266,201.0,0.6758084577114427,0.9967021816336884,-0.0074680266,498.0,"[1, 2, 3, 4, 6, 7, 9, 10, 12, 13, 30, 31, 33, 34, 37, 39, 43, 44, 57, 66, 89, 94, 497, 498]",69.125,131.66982459293143,0.5486618967893309,0.9985630360858752
8.0,1.0,128.0,100.0,32.0,2.0,0.01,1.0,190.0,2.0,"[3, 5, 10, 11, 15, 16, 22, 26, 38, 39, 48, 49, 55, 58, 713, 716, 788, 852]",192.44444444444449,308.86894420021906,-1.1035128e-05,852.0,0.2367956495506358,0.9907115940066792,"[1, 2, 3, 4, 9, 10]",4.833333333333333,3.435921354681384,-0.005328796,10.0,0.8592592592592592,0.999932352443768,-1.1035128e-05,1597.0,"[1, 2, 3, 4, 7, 9, 14, 15, 19, 20, 26, 30, 43, 44, 51, 52, 92, 93, 103, 107, 1366, 1371, 1481, 1597]",272.9166666666667,530.4456394286684,0.4268773068535846,0.9933914463110524
8.0,2.0,128.0,100.0,32.0,2.0,0.01,1.0,190.0,2.0,"[1, 3, 5, 7, 8, 10, 27, 29, 30, 32, 37, 38, 51, 53, 57, 65, 70, 81]",33.55555555555556,24.30414281608573,-0.023348214,81.0,0.4065137415251175,0.998778657821103,"[1, 2, 3, 4, 46, 47]",17.166666666666668,20.763884243775028,-0.005827909,47.0,0.706059204440333,0.9993066125486216,-0.005827909,138.0,"[1, 2, 3, 4, 5, 7, 9, 11, 12, 14, 31, 33, 34, 36, 41, 42, 71, 82, 87, 102, 108, 119, 137, 138]",47.04166666666666,45.11972883956148,0.5273972799724611,0.999123441438698
8.0,1.0,32.0,100.0,32.0,2.0,0.0001,1.0,190.0,2.0,"[2, 3, 5, 6, 7, 8, 26, 27, 29, 30, 34, 35, 40, 41, 53, 59, 69, 75]",30.5,22.26918648416836,-0.032221228,75.0,0.4155697979732414,0.998933793663688,"[1, 2, 3, 4, 229, 230]",78.16666666666667,107.01310926963832,-0.010148227,230.0,0.6746535029428516,0.9962117368510064,-0.010148227,561.0,"[1, 2, 3, 4, 6, 7, 9, 10, 11, 12, 30, 31, 33, 34, 38, 39, 44, 45, 75, 81, 91, 97, 560, 561]",76.0,148.76799611027457,0.5463444164363225,0.998388570268487
8.0,2.0,32.0,100.0,32.0,2.0,0.0001,1.0,190.0,2.0,"[2, 3, 5, 6, 7, 9, 26, 27, 29, 30, 33, 34, 39, 40, 55, 61, 63, 72]",30.05555555555556,21.54445590510268,-0.032530557,72.0,0.4137756893558517,0.998956358877155,"[1, 2, 3, 4, 209, 210]",71.5,97.58543265604077,-0.0106292395,210.0,0.6754158122579175,0.9965499746321664,-0.0106292395,514.0,"[1, 2, 3, 4, 6, 7, 9, 10, 11, 13, 30, 31, 33, 34, 37, 38, 43, 44, 77, 83, 85, 94, 513, 514]",71.75,136.01171824515708,0.546099053063542,0.9984964218646908
8.0,1.0,64.0,100.0,32.0,2.0,0.0001,1.0,190.0,2.0,"[2, 3, 5, 6, 7, 9, 15, 16, 27, 29, 34, 35, 40, 41, 119, 120, 317, 318]",63.5,95.89070746312062,-4.9082064e-05,318.0,0.3978654753937377,0.9972583265637692,"[1, 2, 3, 4, 42, 44]",16.0,19.122412679017955,-0.0070927637,44.0,0.7092352092352092,0.9993658041603248,-4.9082064e-05,529.0,"[1, 2, 3, 4, 6, 7, 9, 10, 11, 13, 19, 20, 31, 33, 38, 39, 44, 45, 97, 99, 278, 280, 528, 529]",89.41666666666667,151.65116679039724,0.5462710328941742,0.9980480975824324
8.0,2.0,64.0,100.0,32.0,2.0,0.0001,1.0,190.0,2.0,"[1, 3, 4, 6, 8, 9, 26, 28, 29, 31, 32, 36, 40, 43, 61, 65, 69, 73]",31.33333333333333,23.09641626842668,-0.018677229,73.0,0.4375301608851548,0.9988914838884376,"[1, 2, 3, 4, 45, 47]",17.0,20.53452377501525,-0.006703482,47.0,0.706461780929866,0.9993150684931508,-0.006703482,138.0,"[1, 2, 3, 4, 5, 7, 8, 10, 12, 13, 30, 32, 33, 35, 36, 40, 44, 47, 99, 103, 107, 111, 136, 138]",44.0,44.30763666307048,0.5540238847330528,0.9992006293457848
8.0,1.0,128.0,100.0,32.0,2.0,0.0001,1.0,190.0,2.0,"[1, 3, 5, 6, 7, 9, 26, 28, 29, 31, 33, 36, 39, 43, 87, 94, 95, 99]",37.27777777777778,32.85964352879541,-6.04508e-05,99.0,0.4183960970348462,0.9985896741583176,"[1, 2, 3, 4, 39, 40]",14.833333333333334,17.468225121313523,-0.0070739556,40.0,0.7130341880341879,0.9994249957720278,-6.04508e-05,163.0,"[1, 2, 3, 4, 5, 7, 9, 10, 11, 13, 30, 32, 33, 35, 37, 40, 43, 47, 94, 95, 144, 151, 156, 163]",48.54166666666666,53.06912093884939,0.5475220867972297,0.9990853761694496
8.0,2.0,128.0,100.0,32.0,2.0,0.0001,1.0,190.0,2.0,"[2, 3, 5, 6, 8, 9, 27, 28, 30, 31, 34, 35, 40, 41, 66, 70, 86, 87]",33.77777777777778,26.81118248367348,-0.0022109014,87.0,0.3936566269757653,0.9987673752143696,"[1, 2, 3, 4, 42, 43]",15.833333333333334,18.8804719809178,-0.0076362044,43.0,0.7097637504614248,0.9993742601048538,-0.0022109014,137.0,"[1, 2, 3, 4, 6, 7, 9, 10, 12, 13, 31, 32, 34, 35, 38, 39, 44, 45, 99, 100, 115, 119, 136, 137]",44.625,44.9813039865824,0.5414473017927409,0.9991847688169314
8.0,1.0,16.0,100.0,32.0,2.0,0.001,1.0,190.0,2.0,"[2, 3, 5, 6, 7, 8, 26, 27, 29, 30, 33, 34, 39, 40, 54, 62, 249, 269]",51.27777777777778,75.45845476195315,-0.034382533,269.0,0.3970812223122478,0.9978788699341096,"[1, 2, 3, 4, 411, 459]",146.66666666666666,204.35481126924537,-0.013463411,459.0,0.6708728909244152,0.9927363436495856,-0.013463411,1111.0,"[1, 2, 3, 4, 6, 7, 9, 10, 11, 12, 30, 31, 33, 34, 37, 38, 43, 44, 69, 83, 411, 454, 928, 1111]",142.125,289.3000622911559,0.5321833458859683,0.9967105263157896
8.0,2.0,16.0,100.0,32.0,2.0,0.001,1.0,190.0,2.0,"[1, 3, 4, 6, 8, 9, 27, 28, 30, 31, 33, 35, 40, 41, 53, 60, 292, 298]",55.5,86.3482934271302,-0.0334255,298.0,0.4196397487887001,0.9976645004061738,"[1, 2, 3, 4, 409, 472]",148.5,207.27658655365136,-0.013385549,472.0,0.6708228005470142,0.9926433282597664,-0.013385549,1124.0,"[1, 2, 3, 4, 5, 7, 8, 10, 12, 13, 31, 32, 34, 35, 37, 39, 44, 45, 66, 81, 497, 503, 924, 1124]",148.20833333333334,296.6976546315944,0.5346924283798813,0.9965561505016156
8.0,1.0,16.0,100.0,32.0,2.0,0.0001,1.0,190.0,3.0,"[2, 3, 5, 6, 7, 9, 26, 27, 29, 30, 33, 35, 39, 40, 55, 64, 440, 450]",72.22222222222223,132.94048608120167,-0.03347827,450.0,0.3880210214788758,0.996815484249481,"[1, 2, 3, 4, 532, 539]",180.16666666666663,251.2683934671361,-0.015564587,539.0,0.6700883702763402,0.9910366987992558,-0.015564587,1339.0,"[1, 2, 3, 4, 6, 7, 9, 10, 11, 13, 30, 31, 33, 34, 37, 39, 43, 44, 76, 85, 713, 731, 1325, 1339]",192.75,393.9110781635876,0.5256400360389335,0.995425823478658
8.0,1.0,32.0,100.0,32.0,2.0,0.001,1.0,190.0,3.0,"[1, 2, 4, 5, 8, 9, 26, 27, 29, 30, 33, 34, 39, 40, 53, 60, 65, 71]",29.77777777777778,21.62446031582331,-0.031836953,71.0,0.4714013810633749,0.9989704621355718,"[1, 2, 3, 4, 178, 180]",61.333333333333336,83.20990859800825,-0.0074275304,180.0,0.6769038701622971,0.9970657872484356,-0.0074275304,449.0,"[1, 2, 3, 4, 5, 6, 8, 9, 12, 13, 30, 31, 33, 34, 37, 38, 43, 44, 57, 64, 90, 97, 447, 449]",64.875,118.41076545230167,0.5701817511241487,0.9986708876820788
8.0,2.0,32.0,100.0,32.0,2.0,0.001,1.0,190.0,3.0,"[2, 3, 5, 6, 8, 9, 27, 28, 29, 30, 33, 35, 39, 40, 58, 59, 70, 75]",30.88888888888889,22.48922924643629,-0.03226559,75.0,0.4047688771448431,0.9989140491019044,"[1, 2, 3, 4, 147, 148]",50.833333333333336,68.36036050876918,-0.009654229,148.0,0.6790923576637862,0.9975985117537628,-0.009654229,395.0,"[1, 2, 3, 4, 6, 7, 9, 10, 12, 13, 31, 32, 33, 34, 37, 39, 43, 44, 80, 81, 92, 97, 394, 395]",62.458333333333336,104.08008902069383,0.541739283777419,0.9987322150603124
8.0,1.0,64.0,100.0,32.0,2.0,0.001,1.0,190.0,3.0,"[2, 3, 5, 6, 11, 12, 30, 32, 33, 34, 36, 37, 42, 44, 68, 74, 99, 111]",37.72222222222222,31.16409179302279,-0.0009923447,111.0,0.3592403518874107,0.9985671089448508,"[1, 2, 3, 4, 39, 46]",15.833333333333334,18.986106031048656,-0.00587711,46.0,0.7097733184689706,0.9993742601048538,-0.0009923447,257.0,"[1, 2, 3, 4, 6, 7, 9, 10, 15, 16, 34, 36, 37, 38, 40, 41, 46, 48, 91, 101, 148, 157, 240, 257]",57.79166666666666,71.37633779637494,0.5107394614876963,0.9988506403424182
8.0,2.0,64.0,100.0,32.0,2.0,0.001,1.0,190.0,3.0,"[1, 3, 4, 6, 7, 9, 26, 27, 29, 30, 33, 34, 39, 40, 55, 60, 70, 79]",30.666666666666668,23.0241419191055,-0.027652627,79.0,0.4473998870770267,0.998925331708638,"[1, 2, 3, 4, 73, 139]",37.0,52.38638499966698,-0.009344631,139.0,0.6852764363851384,0.9983003551496702,-0.009344631,380.0,"[1, 2, 3, 4, 5, 7, 8, 10, 11, 13, 30, 31, 33, 34, 37, 38, 43, 44, 76, 90, 105, 117, 212, 380]",55.583333333333336,82.92763746517535,0.5559094016480399,0.9989066808777004
8.0,1.0,128.0,100.0,32.0,2.0,0.001,1.0,190.0,3.0,"[2, 3, 5, 6, 8, 9, 27, 28, 30, 31, 35, 37, 42, 44, 233, 242, 275, 278]",74.16666666666667,99.06128854849852,-0.0006066531,278.0,0.3564405346994613,0.9967167614405632,"[1, 2, 3, 4, 40, 41]",15.166666666666666,17.93893964412489,-0.0054233135,41.0,0.7118902439024389,0.9994080838829696,-0.0006066531,388.0,"[1, 2, 3, 4, 6, 7, 9, 10, 12, 13, 31, 32, 34, 35, 39, 41, 46, 48, 93, 94, 317, 336, 382, 388]",82.625,125.1814724376841,0.5204148027893898,0.9982204486626404
8.0,2.0,128.0,100.0,32.0,2.0,0.001,1.0,190.0,3.0,"[3, 4, 5, 6, 8, 9, 15, 17, 19, 20, 35, 36, 43, 44, 211, 261, 332, 518]",88.11111111111111,141.27549480394245,-8.285961e-05,518.0,0.3771710449867681,0.9960087778680388,"[1, 2, 3, 4, 9, 12]",5.166666666666667,3.975620147292188,-0.0062520895,12.0,0.8425925925925926,0.99991544055471,-8.285961e-05,1077.0,"[1, 2, 3, 4, 7, 8, 9, 10, 12, 13, 19, 21, 23, 24, 39, 40, 47, 48, 59, 62, 487, 625, 720, 1077]",140.0,277.8808197771124,0.5482792791011395,0.9967644521138912
8.0,1.0,16.0,100.0,32.0,2.0,0.01,1.0,190.0,3.0,"[1, 2, 4, 5, 7, 9, 26, 28, 29, 30, 33, 35, 39, 41, 70, 76, 436, 440]",72.83333333333333,130.76282601208445,-0.04917249,440.0,0.4436263759804047,0.996784457080964,"[1, 2, 3, 4, 300, 476]",131.0,188.69728844545347,-0.04148635,476.0,0.6715452847805788,0.993531202435312,-0.04148635,1130.0,"[1, 2, 3, 4, 5, 6, 8, 9, 11, 13, 30, 32, 33, 34, 37, 39, 43, 45, 123, 135, 735, 738, 740, 1130]",164.83333333333334,309.71097637779786,0.5384585139305497,0.9961342604341132
8.0,2.0,16.0,100.0,32.0,2.0,0.01,1.0,190.0,3.0,"[1, 2, 4, 5, 7, 9, 26, 28, 29, 30, 33, 35, 39, 40, 70, 77, 436, 440]",72.83333333333333,130.77811998444795,-0.049291495,440.0,0.443948735834215,0.996784457080964,"[1, 2, 3, 4, 300, 476]",131.0,188.69728844545347,-0.04147823,476.0,0.6715452847805788,0.993531202435312,-0.04147823,1130.0,"[1, 2, 3, 4, 5, 6, 8, 9, 11, 13, 30, 32, 33, 34, 37, 39, 43, 44, 123, 138, 735, 736, 740, 1130]",164.83333333333334,309.56174218113944,0.5387064849063617,0.9961342604341132
8.0,1.0,32.0,100.0,32.0,2.0,0.01,1.0,190.0,3.0,"[1, 2, 4, 5, 7, 9, 26, 27, 29, 30, 33, 34, 39, 40, 54, 62, 436, 448]",71.44444444444444,132.1553051956599,-0.03364846,448.0,0.4513765078644275,0.996854973373048,"[1, 2, 3, 4, 533, 539]",180.3333333333333,251.5019328399331,-0.015487889,539.0,0.6700854314094732,0.9910282428547268,-0.015487889,1340.0,"[1, 2, 3, 4, 5, 6, 8, 9, 11, 13, 30, 31, 33, 34, 37, 38, 43, 44, 58, 75, 708, 725, 1324, 1340]",190.91666666666663,393.7482186908561,0.5513003153056765,0.9954723476966284
8.0,2.0,32.0,100.0,32.0,2.0,0.01,1.0,190.0,3.0,"[1, 2, 4, 5, 7, 9, 26, 27, 29, 30, 33, 34, 39, 40, 55, 62, 436, 448]",71.5,132.14817020635925,-0.033777162,448.0,0.4510959242505106,0.9968521527213648,"[1, 2, 3, 4, 498, 537]",174.16666666666666,243.0359484155013,-0.01574353,537.0,0.6702022241666853,0.9913411128023,-0.01574353,1338.0,"[1, 2, 3, 4, 5, 6, 8, 9, 11, 13, 30, 31, 33, 34, 37, 38, 43, 44, 59, 75, 708, 723, 1280, 1338]",188.9583333333333,388.1605637669661,0.5510984633724095,0.9955220440203691
8.0,2.0,16.0,100.0,32.0,2.0,0.0001,1.0,190.0,3.0,"[1, 3, 4, 6, 8, 9, 26, 28, 29, 30, 33, 35, 39, 41, 55, 64, 438, 450]",72.16666666666667,132.6324285803103,-0.034307238,450.0,0.418119472118775,0.9968183049011644,"[1, 2, 3, 4, 496, 536]",173.66666666666666,242.3431909962032,-0.015286039,536.0,0.6702124458353393,0.9913664806358872,-0.015286039,1337.0,"[1, 2, 3, 4, 5, 7, 8, 10, 12, 13, 30, 32, 33, 34, 37, 39, 43, 45, 59, 77, 710, 729, 1275, 1337]",189.375,387.779448967666,0.5369697852699923,0.9955114703344669
8.0,1.0,64.0,100.0,32.0,2.0,0.01,1.0,190.0,3.0,"[3, 5, 6, 8, 9, 11, 27, 28, 30, 31, 33, 35, 39, 40, 54, 62, 72, 77]",31.666666666666668,22.32089205704428,-0.027285244,77.0,0.3537300595992352,0.9988745599783374,"[1, 2, 3, 4, 248, 249]",84.5,115.96946437173308,-0.0063472874,249.0,0.6740429459774582,0.995890410958904,-0.0063472874,598.0,"[3, 5, 6, 7, 8, 9, 10, 12, 13, 15, 31, 32, 34, 35, 37, 39, 43, 44, 76, 84, 102, 115, 597, 598]",81.45833333333333,158.53048580811057,0.4132626871317211,0.9982500549831668
8.0,2.0,64.0,100.0,32.0,2.0,0.01,1.0,190.0,3.0,"[1, 2, 5, 6, 7, 9, 26, 27, 29, 30, 33, 35, 39, 41, 53, 62, 70, 75]",30.55555555555556,22.64514228561619,-0.028427133,75.0,0.4573195569519062,0.9989309730120048,"[1, 2, 3, 4, 136, 251]",66.16666666666667,95.9677318454258,-0.007197543,251.0,0.6767781813920787,0.9968205648570946,-0.007197543,600.0,"[1, 2, 3, 4, 5, 6, 9, 10, 11, 13, 30, 31, 33, 34, 37, 39, 43, 45, 57, 66, 92, 97, 368, 600]",68.16666666666667,132.41559156265885,0.5637332161826516,0.9985873555634506
8.0,1.0,128.0,100.0,32.0,2.0,0.01,1.0,190.0,3.0,"[17, 18, 20, 21, 24, 25, 43, 44, 45, 46, 53, 54, 59, 60, 1391, 1560, 1735, 1832]",391.5,666.6423537233272,-9.784172e-06,1832.0,0.1469360930092055,0.9806051990251828,"[1, 2, 3, 4, 9, 10]",4.833333333333333,3.435921354681384,-0.005311446,10.0,0.8592592592592592,0.999932352443768,-9.784172e-06,2997.0,"[1, 2, 3, 4, 21, 22, 24, 25, 28, 29, 39, 40, 91, 92, 93, 94, 103, 104, 113, 114, 2199, 2434, 2764, 2997]",476.5,957.8780802725712,0.3214147547597887,0.9882251433791808
8.0,2.0,128.0,100.0,32.0,2.0,0.01,1.0,190.0,3.0,"[2, 3, 4, 5, 8, 9, 28, 29, 34, 35, 39, 41, 42, 44, 62, 67, 78, 80]",33.888888888888886,25.00197523061125,-0.025972577,80.0,0.400596976606733,0.9987617339110028,"[1, 2, 3, 4, 59, 60]",21.5,26.88710967483613,-0.0058275424,60.0,0.697457627118644,0.9990867579908675,-0.0058275424,191.0,"[1, 2, 3, 4, 6, 7, 8, 9, 12, 13, 32, 33, 38, 39, 43, 45, 46, 48, 100, 105, 116, 118, 190, 191]",50.375,55.53813442131452,0.5344032604023038,0.9990388519514796
8.0,1.0,32.0,100.0,32.0,2.0,0.0001,1.0,190.0,3.0,"[2, 3, 5, 6, 7, 9, 26, 28, 29, 31, 33, 35, 39, 41, 55, 62, 77, 79]",31.5,23.758624165178887,-0.028085954,79.0,0.4073645876131984,0.9988830219333874,"[1, 2, 3, 4, 236, 237]",80.5,110.31281279464623,-0.0083863605,237.0,0.6744171493956947,0.9960933536276002,-0.0083863605,579.0,"[1, 2, 3, 4, 6, 7, 9, 10, 11, 13, 30, 32, 33, 35, 37, 39, 43, 45, 77, 88, 115, 117, 578, 579]",79.75,153.95595961183184,0.538674803816725,0.9982934070953662
8.0,2.0,32.0,100.0,32.0,2.0,0.0001,1.0,190.0,3.0,"[1, 3, 4, 5, 7, 9, 26, 27, 29, 30, 33, 34, 39, 40, 55, 66, 70, 78]",30.88888888888889,23.432856535900587,-0.03181339,78.0,0.4536227781100443,0.9989140491019044,"[1, 2, 3, 4, 186, 187]",63.833333333333336,86.74371575060768,-0.0106989,187.0,0.6764945469879056,0.9969389480805004,-0.0106989,473.0,"[1, 2, 3, 4, 5, 7, 8, 9, 11, 13, 30, 31, 33, 34, 37, 38, 43, 44, 77, 96, 108, 116, 472, 473]",70.625,125.5507243109334,0.5557276927346542,0.9985249708166268
8.0,1.0,64.0,100.0,32.0,2.0,0.0001,1.0,190.0,3.0,"[1, 2, 5, 7, 8, 10, 27, 28, 31, 32, 35, 38, 40, 44, 93, 108, 124, 138]",42.833333333333336,41.93546629445454,-0.000106543106,138.0,0.4108028739294476,0.998307608989981,"[1, 2, 3, 4, 42, 43]",15.833333333333334,18.8804719809178,-0.0074324952,43.0,0.7097637504614248,0.9993742601048536,-0.000106543106,299.0,"[1, 2, 3, 4, 5, 6, 9, 11, 12, 14, 31, 32, 35, 36, 39, 42, 44, 48, 98, 99, 156, 193, 249, 299]",61.16666666666666,80.43199335808828,0.5334818167776779,0.9987649934866096
8.0,2.0,64.0,100.0,32.0,2.0,0.0001,1.0,190.0,3.0,"[1, 3, 4, 6, 7, 9, 26, 28, 29, 32, 33, 35, 40, 42, 62, 71, 73, 76]",32.05555555555556,24.36863243831258,-0.012612336,76.0,0.4396447678044297,0.9988548154165536,"[1, 2, 3, 4, 46, 47]",17.166666666666668,20.763884243775028,-0.006130255,47.0,0.706059204440333,0.9993066125486216,-0.006130255,143.0,"[1, 2, 3, 4, 5, 7, 8, 10, 11, 13, 30, 32, 33, 36, 37, 39, 44, 46, 103, 112, 114, 117, 142, 143]",45.5,46.803667947430505,0.5542694314607874,0.9991625640765366
8.0,1.0,128.0,100.0,32.0,2.0,0.0001,1.0,190.0,3.0,"[2, 3, 5, 6, 8, 9, 27, 28, 30, 31, 33, 34, 39, 40, 60, 64, 136, 137]",38.44444444444444,38.9561323402822,-1.7665641e-05,137.0,0.3899193830325533,0.9985304404729668,"[1, 2, 3, 4, 39, 40]",14.833333333333334,17.468225121313523,-0.00716951,40.0,0.7130341880341879,0.9994249957720276,-1.7665641e-05,221.0,"[1, 2, 3, 4, 6, 7, 9, 10, 12, 13, 31, 32, 34, 35, 37, 38, 43, 44, 91, 92, 101, 105, 220, 221]",49.625,60.44337053529251,0.5411393344157739,0.9990578845861036
8.0,2.0,128.0,100.0,32.0,2.0,0.0001,1.0,190.0,3.0,"[1, 2, 4, 5, 7, 8, 26, 27, 29, 30, 33, 35, 39, 41, 67, 72, 89, 91]",33.666666666666664,28.1799771311318,-0.0007885735,91.0,0.467188578771371,0.9987730165177364,"[1, 2, 3, 4, 42, 44]",16.0,19.122412679017955,-0.006696421,44.0,0.7092352092352092,0.9993658041603248,-0.0007885735,143.0,"[1, 2, 3, 4, 5, 6, 8, 9, 11, 12, 30, 31, 33, 34, 37, 39, 43, 45, 100, 102, 117, 123, 141, 143]",44.958333333333336,46.73192981130662,0.5692192653601162,0.9991763098682096
8.0,1.0,16.0,100.0,32.0,2.0,0.001,1.0,190.0,3.0,"[1, 2, 4, 5, 7, 9, 26, 27, 29, 30, 33, 35, 39, 40, 53, 62, 438, 450]",71.66666666666667,132.770478646422,-0.033703066,450.0,0.4510876436869158,0.9968436907663146,"[1, 2, 3, 4, 494, 537]",173.5,242.1506074051161,-0.015833534,537.0,0.6702157736412367,0.991374936580416,-0.015833534,1338.0,"[1, 2, 3, 4, 5, 6, 8, 9, 11, 13, 30, 31, 33, 34, 37, 39, 43, 44, 59, 76, 711, 731, 1273, 1338]",189.2083333333333,387.9445814338549,0.5504874488701352,0.9955156998088278
8.0,2.0,16.0,100.0,32.0,2.0,0.001,1.0,190.0,3.0,"[1, 2, 4, 5, 7, 8, 26, 27, 29, 30, 33, 34, 39, 40, 53, 62, 439, 450]",71.61111111111111,132.96580132119558,-0.034036756,450.0,0.456272585638858,0.996846511417998,"[1, 2, 3, 4, 499, 538]",174.5,243.5068445307716,-0.01569549,538.0,0.670195409406173,0.991324200913242,-0.01569549,1336.0,"[1, 2, 3, 4, 5, 6, 8, 9, 11, 12, 30, 31, 33, 34, 37, 38, 43, 44, 66, 76, 711, 728, 1283, 1336]",189.625,388.6324112084152,0.5521855207607437,0.9955051261229256
8.0,1.0,16.0,100.0,32.0,2.0,0.0001,1.0,190.0,4.0,"[2, 3, 5, 6, 7, 9, 26, 28, 29, 30, 33, 34, 39, 40, 54, 61, 437, 449]",71.77777777777777,132.33818444322256,-0.03437695,449.0,0.3889766845401614,0.996838049462948,"[1, 2, 3, 4, 495, 524]",171.5,239.1504059512897,-0.016001675,524.0,0.6702585652967332,0.991476407914764,-0.016001675,1318.0,"[1, 2, 3, 4, 6, 7, 9, 10, 11, 13, 30, 32, 33, 34, 37, 38, 43, 44, 74, 82, 709, 729, 1276, 1318]",189.375,385.2632014285818,0.5262760956752436,0.9955114703344669
8.0,1.0,32.0,100.0,32.0,2.0,0.001,1.0,190.0,4.0,"[2, 3, 5, 6, 8, 9, 27, 28, 30, 31, 33, 35, 39, 40, 53, 56, 65, 66]",29.77777777777778,20.538731854056607,-0.031666942,66.0,0.4086153826423996,0.9989704621355718,"[1, 2, 3, 4, 141, 142]",48.833333333333336,65.53222277797558,-0.010542465,142.0,0.679619085672427,0.997699983088111,-0.010542465,384.0,"[1, 2, 3, 4, 6, 7, 9, 10, 12, 13, 31, 32, 34, 35, 37, 39, 43, 44, 72, 75, 87, 88, 383, 384]",60.458333333333336,100.8695441179128,0.544344376480091,0.9987829687526434
8.0,2.0,32.0,100.0,32.0,2.0,0.001,1.0,190.0,4.0,"[1, 2, 4, 5, 7, 8, 23, 25, 29, 30, 33, 34, 39, 40, 55, 56, 67, 72]",29.444444444444443,21.9196061963364,-0.031748116,72.0,0.4841162470085892,0.998987386045672,"[1, 2, 3, 4, 222, 226]",76.33333333333333,104.42647599574012,-0.010635581,226.0,0.6748451991814823,0.9963047522408252,-0.010635581,557.0,"[1, 2, 3, 4, 5, 6, 8, 9, 11, 12, 27, 29, 33, 34, 37, 38, 43, 44, 72, 74, 86, 91, 553, 557]",74.125,147.39977173772465,0.5740828822142534,0.9984361518550476
8.0,1.0,64.0,100.0,32.0,2.0,0.001,1.0,190.0,4.0,"[1, 2, 5, 6, 8, 9, 27, 28, 30, 31, 33, 34, 39, 40, 66, 94, 97, 107]",36.5,32.50683688771401,-0.00069014885,107.0,0.43535904949221,0.9986291632818848,"[1, 2, 3, 4, 45, 48]",17.166666666666668,20.77993155800941,-0.005745637,48.0,0.7060185185185185,0.9993066125486216,-0.00069014885,166.0,"[1, 2, 3, 4, 5, 6, 9, 10, 12, 13, 31, 32, 34, 35, 37, 38, 43, 44, 102, 105, 119, 153, 156, 166]",48.333333333333336,52.58854966202772,0.5512135137510217,0.9990906630124008
8.0,2.0,64.0,100.0,32.0,2.0,0.001,1.0,190.0,4.0,"[2, 3, 5, 6, 7, 9, 27, 28, 30, 31, 33, 34, 39, 40, 56, 57, 67, 77]",30.61111111111111,22.21145572519052,-0.027633978,77.0,0.4104169012139294,0.9989281523603212,"[1, 2, 3, 4, 56, 140]",34.333333333333336,51.14250243736178,-0.007015867,140.0,0.6886904761904761,0.9984356502621344,-0.007015867,382.0,"[1, 2, 3, 4, 6, 7, 9, 10, 11, 13, 31, 32, 34, 35, 37, 38, 43, 44, 72, 73, 96, 115, 166, 382]",52.66666666666666,79.42851433137152,0.5478355529690864,0.9989806966790168
8.0,1.0,128.0,100.0,32.0,2.0,0.001,1.0,190.0,4.0,"[1, 3, 4, 6, 8, 10, 28, 29, 31, 32, 34, 37, 43, 44, 56, 68, 71, 77]",32.333333333333336,23.6384808686552,-0.004248186,77.0,0.4267629573666085,0.9988407121581372,"[1, 2, 3, 4, 41, 43]",15.666666666666666,18.651779778050376,-0.0053526727,43.0,0.7102476838721875,0.9993827160493828,-0.004248186,121.0,"[1, 2, 3, 4, 5, 7, 8, 10, 12, 14, 32, 33, 35, 36, 38, 41, 47, 48, 60, 107, 111, 113, 114, 121]",41.75,40.219450103981615,0.5530574487575931,0.9992577272496572
8.0,2.0,128.0,100.0,32.0,2.0,0.001,1.0,190.0,4.0,"[1, 2, 4, 5, 6, 9, 23, 25, 28, 31, 34, 39, 46, 49, 57, 61, 68, 76]",31.33333333333333,23.515952032609693,-0.011462686,76.0,0.4738998236370836,0.9988914838884376,"[1, 2, 3, 4, 5, 45]",10.0,15.705625319186328,-0.0060978513,45.0,0.8555555555555556,0.9996702181633688,-0.0060978513,125.0,"[1, 2, 4, 5, 6, 9, 11, 12, 13, 14, 27, 29, 30, 33, 36, 39, 45, 81, 84, 96, 100, 107, 117, 125]",42.75,40.27431977493019,0.5043348140716145,0.9992323504034918
8.0,1.0,16.0,100.0,32.0,2.0,0.01,1.0,190.0,4.0,"[1, 3, 4, 6, 7, 9, 26, 28, 29, 31, 33, 35, 39, 41, 70, 72, 437, 439]",72.77777777777777,130.68305830671036,-0.047330324,439.0,0.4177530712432861,0.9967872777326472,"[1, 2, 3, 4, 302, 441]",125.5,178.51867315960723,-0.041154295,441.0,0.6716936222612665,0.9938102486047692,-0.041154295,1091.0,"[1, 2, 3, 4, 5, 7, 8, 10, 11, 13, 30, 32, 33, 35, 37, 39, 43, 45, 128, 130, 735, 737, 743, 1091]",163.41666666666666,304.79828256661085,0.5283263224584429,0.9961702109661812
8.0,2.0,16.0,100.0,32.0,2.0,0.01,1.0,190.0,4.0,"[1, 3, 4, 6, 7, 9, 26, 28, 29, 31, 33, 35, 39, 41, 69, 73, 437, 439]",72.77777777777777,130.6843336507035,-0.047359932,439.0,0.4177564851339344,0.9967872777326472,"[1, 2, 3, 4, 307, 440]",126.16666666666669,179.0581066457354,-0.041155156,440.0,0.671653834764584,0.9937764248266532,-0.041155156,1090.0,"[1, 2, 3, 4, 5, 7, 8, 10, 11, 13, 30, 32, 33, 35, 37, 39, 43, 45, 126, 130, 734, 736, 750, 1090]",163.5,305.0829122276981,0.528416609855592,0.9961680962290008
8.0,1.0,32.0,100.0,32.0,2.0,0.01,1.0,190.0,4.0,"[2, 3, 5, 6, 8, 9, 27, 28, 30, 31, 33, 35, 39, 40, 53, 61, 439, 449]",72.11111111111111,132.55602123416386,-0.03332774,449.0,0.3820114116659102,0.9968211255528476,"[1, 2, 3, 4, 408, 555]",162.16666666666666,229.7574203855497,-0.014156106,555.0,0.6705109521285991,0.9919499408083884,-0.014156106,1361.0,"[1, 2, 3, 4, 6, 7, 9, 10, 12, 13, 31, 32, 34, 35, 37, 39, 43, 44, 57, 65, 713, 732, 1054, 1361]",181.0,367.4399043834697,0.5274902906675146,0.9957240014211034
8.0,2.0,32.0,100.0,32.0,2.0,0.01,1.0,190.0,4.0,"[2, 3, 5, 6, 8, 9, 27, 28, 30, 31, 33, 35, 39, 40, 53, 61, 439, 451]",72.22222222222223,132.87235125636585,-0.033478327,451.0,0.382001535073927,0.996815484249481,"[1, 2, 3, 4, 408, 556]",162.33333333333334,230.0425081491583,-0.014195712,556.0,0.6705077114778765,0.9919414848638592,-0.014195712,1363.0,"[1, 2, 3, 4, 6, 7, 9, 10, 12, 13, 31, 32, 34, 35, 37, 39, 43, 44, 57, 65, 716, 736, 1054, 1363]",181.375,368.1392187406824,0.5274772647358016,0.9957144851037912
8.0,2.0,16.0,100.0,32.0,2.0,0.0001,1.0,190.0,4.0,"[2, 3, 5, 6, 7, 8, 26, 27, 29, 30, 33, 35, 39, 40, 57, 65, 292, 305]",56.05555555555556,87.55028537438243,-0.033284795,305.0,0.394049744222498,0.9976362938893402,"[1, 2, 3, 4, 393, 467]",145.0,202.65652386900024,-0.013878071,467.0,0.6709284353415317,0.9928209030948756,-0.013878071,1122.0,"[1, 2, 3, 4, 6, 7, 9, 10, 11, 12, 30, 31, 33, 34, 37, 39, 43, 44, 78, 86, 498, 512, 890, 1122]",147.58333333333334,293.2017105263125,0.5294940250498873,0.9965720110304692
8.0,1.0,64.0,100.0,32.0,2.0,0.01,1.0,190.0,4.0,"[3, 4, 6, 7, 9, 10, 27, 28, 30, 31, 33, 35, 39, 40, 53, 54, 71, 73]",30.72222222222222,21.351048778704463,-0.027456949,73.0,0.3695956992433885,0.9989225110569546,"[1, 2, 3, 4, 251, 252]",85.5,117.38363031814389,-0.0062600756,252.0,0.6739549737557705,0.99583967529173,-0.0062600756,602.0,"[2, 3, 4, 5, 7, 8, 10, 11, 13, 14, 31, 32, 34, 35, 37, 39, 43, 44, 75, 76, 99, 101, 601, 602]",80.25,159.71856759103912,0.4654867754328058,0.9982807186722834
8.0,2.0,64.0,100.0,32.0,2.0,0.01,1.0,190.0,4.0,"[2, 3, 5, 6, 8, 9, 27, 28, 30, 31, 33, 35, 39, 41, 53, 56, 65, 70]",30.05555555555556,20.97477909358502,-0.028851617,70.0,0.4072753270340513,0.9989563588771552,"[1, 2, 3, 4, 238, 240]",81.33333333333333,111.4924013354971,-0.0077005015,240.0,0.6743347338935574,0.9960510739049552,-0.0077005015,582.0,"[1, 2, 3, 4, 6, 7, 9, 10, 12, 13, 31, 32, 34, 35, 37, 39, 43, 45, 59, 63, 87, 92, 580, 582]",76.08333333333333,154.30190014672175,0.5463159703299348,0.9983864555313066
8.0,1.0,128.0,100.0,32.0,2.0,0.01,1.0,190.0,4.0,"[18, 19, 21, 22, 23, 24, 44, 45, 49, 50, 54, 56, 62, 63, 465, 470, 526, 529]",141.11111111111111,191.5813981021264,-1.4678862e-05,529.0,0.147553501814851,0.9933178761621084,"[1, 2, 3, 4, 8, 9]",4.5,2.98607881119482,-0.0053354125,9.0,0.8819444444444444,0.999949264332826,-1.4678862e-05,755.0,"[3, 4, 5, 6, 22, 23, 25, 26, 27, 28, 38, 39, 93, 94, 98, 99, 110, 112, 118, 119, 630, 654, 750, 755]",161.58333333333334,243.84231869978785,0.2433602676925357,0.9962167351841512
8.0,2.0,128.0,100.0,32.0,2.0,0.01,1.0,190.0,4.0,"[3, 4, 6, 7, 9, 10, 28, 29, 31, 32, 33, 35, 39, 41, 59, 60, 75, 77]",32.111111111111114,22.96347072317948,-0.027186034,77.0,0.3622958994067363,0.9988519947648704,"[1, 2, 3, 4, 64, 68]",23.666666666666668,29.970355723985364,-0.00651249,68.0,0.6943933823529411,0.9989768307119904,-0.00651249,219.0,"[2, 3, 4, 5, 7, 8, 10, 11, 13, 14, 32, 33, 35, 36, 37, 39, 43, 45, 97, 98, 113, 115, 208, 219]",51.125,59.73993115998712,0.4621167472049922,0.9990198193168552
8.0,1.0,32.0,100.0,32.0,2.0,0.0001,1.0,190.0,4.0,"[2, 3, 5, 6, 8, 9, 27, 28, 30, 31, 34, 35, 40, 41, 55, 60, 67, 71]",30.666666666666668,21.70765354021992,-0.031011097,71.0,0.4040028093793841,0.998925331708638,"[1, 2, 3, 4, 229, 230]",78.16666666666667,107.01310926963832,-0.010550972,230.0,0.6746535029428516,0.9962117368510064,-0.010550972,561.0,"[1, 2, 3, 4, 6, 7, 9, 10, 12, 13, 31, 32, 34, 35, 38, 39, 44, 45, 77, 82, 89, 93, 560, 561]",76.125,148.65572993217137,0.539085639001701,0.9983853981627164
8.0,2.0,32.0,100.0,32.0,2.0,0.0001,1.0,190.0,4.0,"[2, 3, 4, 6, 7, 9, 26, 28, 29, 31, 33, 35, 39, 41, 56, 67, 68, 79]",31.27777777777778,23.39706903665869,-0.031110672,79.0,0.4159808155782468,0.998894304540121,"[1, 2, 3, 4, 145, 146]",50.16666666666666,67.41764523393627,-0.010027413,146.0,0.6792631081719414,0.9976323355318788,-0.010027413,388.0,"[1, 2, 3, 4, 6, 7, 8, 10, 11, 13, 30, 32, 33, 35, 37, 39, 43, 45, 84, 101, 102, 117, 387, 388]",64.08333333333333,103.01169701651467,0.5432883127151206,0.9986909776852932
8.0,1.0,64.0,100.0,32.0,2.0,0.0001,1.0,190.0,4.0,"[1, 2, 4, 5, 8, 9, 26, 28, 30, 31, 35, 38, 41, 44, 81, 82, 87, 91]",35.72222222222222,29.780317055911567,-0.00024975353,91.0,0.4476685653729962,0.9986686524054518,"[1, 2, 3, 4, 42, 44]",16.0,19.122412679017955,-0.0066875424,44.0,0.7092352092352092,0.9993658041603246,-0.00024975353,154.0,"[1, 2, 3, 4, 5, 6, 8, 9, 12, 13, 30, 32, 34, 35, 39, 42, 45, 48, 97, 99, 142, 143, 150, 154]",48.04166666666666,51.28147746073192,0.5555955111231516,0.9990980645925324
8.0,2.0,64.0,100.0,32.0,2.0,0.0001,1.0,190.0,4.0,"[2, 3, 5, 6, 8, 9, 27, 28, 30, 31, 35, 37, 42, 43, 59, 64, 67, 76]",31.77777777777778,22.931190683713734,-0.025159078,76.0,0.3978377872388807,0.9988689186749706,"[1, 2, 3, 4, 47, 48]",17.5,21.234798484249072,-0.0065781805,48.0,0.7052304964539007,0.9992897006595636,-0.0065781805,137.0,"[1, 2, 3, 4, 6, 7, 9, 10, 12, 13, 31, 32, 34, 35, 39, 41, 46, 47, 97, 102, 105, 114, 136, 137]",44.29166666666666,44.02601424789162,0.5398465383821641,0.9991932277656532
8.0,1.0,128.0,100.0,32.0,2.0,0.0001,1.0,190.0,4.0,"[2, 3, 5, 6, 8, 9, 25, 28, 30, 31, 33, 36, 39, 43, 82, 90, 101, 104]",37.5,33.14320778413312,-4.95048e-05,104.0,0.3856097048905875,0.998578391551584,"[1, 2, 3, 4, 39, 40]",14.833333333333334,17.468225121313523,-0.006589068,40.0,0.7130341880341879,0.9994249957720278,-4.95048e-05,162.0,"[1, 2, 3, 4, 6, 7, 9, 10, 12, 13, 29, 32, 34, 35, 37, 40, 43, 47, 94, 95, 132, 142, 159, 162]",47.833333333333336,51.61691152670368,0.5386399036510775,0.9991033514354836
8.0,2.0,128.0,100.0,32.0,2.0,0.0001,1.0,190.0,4.0,"[1, 3, 5, 6, 7, 9, 27, 28, 31, 32, 33, 34, 39, 40, 65, 91, 111, 112]",37.44444444444444,34.31750803926025,-0.0003889016,112.0,0.41956391825014,0.9985812122032672,"[1, 2, 3, 4, 42, 43]",15.833333333333334,18.8804719809178,-0.006990786,43.0,0.7097637504614248,0.9993742601048538,-0.0003889016,172.0,"[1, 2, 3, 4, 5, 7, 9, 10, 11, 13, 31, 32, 35, 36, 37, 38, 43, 44, 100, 101, 114, 143, 171, 172]",48.41666666666666,53.1859291124594,0.5476458943938478,0.9990885482752204
8.0,1.0,16.0,100.0,32.0,2.0,0.001,1.0,190.0,4.0,"[2, 3, 5, 6, 7, 8, 26, 27, 29, 31, 33, 34, 39, 40, 53, 59, 219, 227]",47.11111111111112,64.3729488466225,-0.033633396,227.0,0.3987114145885909,0.998090418810362,"[1, 2, 3, 4, 366, 500]",146.0,206.5954178259205,-0.015052994,500.0,0.670943533697632,0.9927701674277016,-0.015052994,1290.0,"[1, 2, 3, 4, 6, 7, 9, 10, 11, 12, 30, 31, 33, 35, 37, 38, 43, 44, 57, 63, 324, 333, 969, 1290]",141.33333333333334,313.453567357095,0.5384326971168389,0.9967306163190038
8.0,2.0,16.0,100.0,32.0,2.0,0.001,1.0,190.0,4.0,"[2, 3, 4, 6, 8, 9, 27, 28, 30, 31, 33, 35, 39, 40, 53, 59, 442, 450]",72.16666666666667,133.21421762626457,-0.034325313,450.0,0.3908191581512599,0.9968183049011644,"[1, 2, 3, 4, 494, 547]",175.16666666666666,244.66808582694685,-0.014638688,547.0,0.6701817298132126,0.991290377135126,-0.014638688,1352.0,"[1, 2, 3, 4, 6, 7, 8, 10, 12, 13, 31, 32, 34, 35, 37, 39, 43, 44, 57, 72, 722, 732, 1271, 1352]",190.29166666666663,390.0564573629766,0.530129136155014,0.9954882082254818
